src/luts/Dark Sunset.cube
LUT_3D_SIZE 6
0.000000 0.000000 0.000000
0.270699 -0.001100 -0.001100
0.536665 -0.002181 -0.002181
0.789642 -0.003208 -0.003208
1.012789 -0.004115 -0.004115
1.172054 -0.004762 -0.004762
-0.001533 0.227620 -0.001533
0.270699 0.227619 -0.001790
0.536665 0.225638 -0.002524
0.789642 0.221306 -0.003411
1.012789 0.212900 -0.004248
1.172054 0.197101 -0.004853
-0.003040 0.451286 -0.003040
0.268322 0.451286 -0.003145
0.536664 0.451285 -0.003549
0.789641 0.442610 -0.004135
1.012789 0.425824 -0.004763
1.172053 0.394225 -0.005219
-0.004472 0.663999 -0.004472
0.263181 0.663999 -0.004532
0.526383 0.663999 -0.004775
0.789641 0.663999 -0.005222
1.012789 0.638771 -0.005620
1.172053 0.591389 -0.005870
-0.005736 0.851614 -0.005736
0.253189 0.851614 -0.005775
0.506393 0.851614 -0.005935
0.759649 0.851613 -0.006244
1.012788 0.851613 -0.006698
1.172052 0.788437 -0.006737
-0.006639 0.985596 -0.006639
0.234394 0.985595 -0.006665
0.468835 0.985595 -0.006774
0.703268 0.985595 -0.006991
0.937656 0.985595 -0.007318
1.172051 0.985594 -0.007751
-0.000590 -0.000590 0.227621
0.270699 -0.001196 0.227620
0.536665 -0.002219 0.225639
0.789642 -0.003229 0.221306
1.012789 -0.004129 0.212900
1.172054 -0.004772 0.197102
-0.001596 0.227620 0.227620
0.282419 0.223406 0.223406
0.581930 0.176948 0.176948
0.829060 0.144624 0.144624
1.012789 0.227611 0.227611
1.172054 0.227607 0.227607
-0.003064 0.451286 0.225636
0.227680 0.459033 0.152381
0.547057 0.449791 0.141628
0.810621 0.432566 0.130464
1.012789 0.430703 0.227608
1.172053 0.405648 0.227604
-0.004486 0.663999 0.221300
0.207305 0.670106 0.125210
0.520410 0.667329 0.122605
0.795998 0.663227 0.118773
1.012789 0.640459 0.227601
1.172053 0.596604 0.227599
-0.005745 0.851614 0.212903
0.200407 0.856320 0.115335
0.495657 0.855177 0.114577
0.759729 0.853401 0.113340
1.012788 0.851613 0.227591
1.172052 0.790522 0.227591
-0.006645 0.985595 0.197085
0.198044 0.989528 0.112040
0.460206 0.988944 0.111782
0.702113 0.987973 0.111337
0.939961 0.986628 0.110839
1.172051 0.985594 0.227601
-0.001169 -0.001169 0.451287
0.268324 -0.001509 0.451287
0.536665 -0.002372 0.451286
0.789642 -0.003319 0.442611
1.012789 -0.004187 0.425825
1.172054 -0.004811 0.394227
-0.001816 0.225639 0.451287
0.273796 0.211240 0.501931
0.575844 0.170768 0.475336
0.826404 0.142618 0.442468
1.012789 0.227610 0.430704
1.172054 0.227607 0.405649
-0.003164 0.451286 0.451286
0.200006 0.458875 0.458875
0.559933 0.442940 0.442940
0.859459 0.404023 0.404023
1.012789 0.451283 0.451283
1.172053 0.451282 0.451282
-0.004542 0.663999 0.442609
0.160906 0.672065 0.419454
0.500729 0.675893 0.362929
0.817144 0.658668 0.340897
1.012789 0.647937 0.451281
1.172053 0.618850 0.451280
-0.005781 0.851614 0.425821
0.144538 0.858253 0.391266
0.458543 0.867016 0.311101
0.761399 0.858775 0.301468
1.012788 0.851613 0.451278
1.172052 0.799460 0.451278
-0.006670 0.985595 0.394219
0.138111 0.991355 0.355616
0.471174 0.996050 0.347524
0.704932 0.995571 0.294312
0.950475 0.990145 0.274172
1.172051 0.985594 0.451274
-0.001720 -0.001720 0.664001
0.263187 -0.001931 0.664001
0.526385 -0.002596 0.664001
0.789642 -0.003490 0.664000
1.012789 -0.004301 0.638772
1.172054 -0.004890 0.591391
-0.002150 0.221310 0.664001
0.257676 0.189378 0.742821
0.557802 0.162407 0.712419
0.821699 0.139057 0.685189
1.012789 0.227610 0.640461
1.172054 0.227606 0.596605
-0.003290 0.442611 0.664000
0.194498 0.445665 0.705854
0.553703 0.434301 0.718067
0.856666 0.393928 0.697664
1.012789 0.451283 0.647938
1.172053 0.451282 0.618851
-0.004655 0.663999 0.663999
0.158915 0.670195 0.670195
0.486467 0.673292 0.673292
0.823817 0.651682 0.651682
1.012788 0.663998 0.663998
1.172053 0.663997 0.663997
-0.005855 0.851614 0.638770
0.143882 0.857494 0.630610
0.415123 0.870722 0.596342
0.774157 0.861041 0.581260
1.012788 0.851612 0.663996
1.172052 0.818630 0.663996
-0.006720 0.985595 0.591388
0.137836 0.991018 0.577121
0.465871 0.996013 0.572713
0.761421 0.995034 0.599760
0.976253 0.992059 0.516325
1.172051 0.985594 0.663994
-0.002206 -0.002206 0.851616
0.253201 -0.002347 0.851616
0.506398 -0.002848 0.851616
0.759652 -0.003600 0.851616
1.012789 -0.004477 0.851615
1.172054 -0.005013 0.788439
-0.002504 0.212907 0.851616
0.243699 0.173496 0.932110
0.531263 0.154194 0.910402
0.788674 0.136833 0.885482
1.012789 0.227609 0.851615
1.172054 0.227605 0.790524
-0.003427 0.425826 0.851616
0.188895 0.424236 0.911706
0.543284 0.429137 0.924010
0.820855 0.396183 0.918652
1.012789 0.451282 0.851614
1.172053 0.451281 0.799462
-0.004644 0.638772 0.851615
0.158915 0.644154 0.874833
0.489357 0.648969 0.910535
0.818141 0.645517 0.898989
1.012788 0.663998 0.851614
1.172053 0.663997 0.818630
-0.005971 0.851614 0.851614
0.142905 0.856475 0.856475
0.409860 0.866513 0.866513
0.768543 0.856609 0.856609
1.012787 0.851612 0.851612
1.172052 0.851612 0.851612
-0.006799 0.985595 0.788437
0.137422 0.990339 0.785514
0.455949 0.995850 0.784658
0.756066 0.994688 0.792547
1.012787 0.985594 0.851611
1.172051 0.985594 0.851611
-0.002553 -0.002553 0.985599
0.234420 -0.002651 0.985599
0.468843 -0.003019 0.985599
0.703273 -0.003619 0.985598
0.937659 -0.004361 0.985598
1.172053 -0.005181 0.985597
-0.002763 0.197112 0.985599
0.265934 0.219875 0.997429
0.484199 0.216372 0.997413
0.715545 0.208218 0.997375
0.950697 0.191124 0.997352
1.172053 0.227604 0.985597
-0.003477 0.394230 0.985598
0.259805 0.403259 0.997391
0.536738 0.447673 0.997344
0.741059 0.444588 0.997348
0.961306 0.438469 0.997239
1.172053 0.451281 0.985597
-0.004505 0.591391 0.985598
0.243043 0.596736 0.997339
0.531354 0.617845 0.997268
0.792991 0.660609 0.997177
0.984359 0.656351 0.996970
1.172053 0.663997 0.985596
-0.005675 0.788438 0.985597
0.189156 0.793249 0.997112
0.516767 0.801228 0.996974
0.786556 0.818008 0.996687
1.012787 0.851612 0.985595
1.172052 0.851612 0.985595
-0.006910 0.985595 0.985595
0.136866 0.989641 0.989641
0.437887 0.995478 0.995478
0.745824 0.993883 0.993883
1.012787 0.985594 0.985594
1.172051 0.985593 0.985593
