src/luts/Dark Sunset.cube
LUT_3D_SIZE 16
0.000000 0.000000 0.000000
0.090406 -0.000367 -0.000367
0.180694 -0.000734 -0.000734
0.270699 -0.001100 -0.001100
0.360247 -0.001464 -0.001464
0.449025 -0.001824 -0.001824
0.536665 -0.002181 -0.002181
0.623029 -0.002531 -0.002531
0.707512 -0.002874 -0.002874
0.789642 -0.003208 -0.003208
0.868482 -0.003529 -0.003529
0.943429 -0.003833 -0.003833
1.012789 -0.004115 -0.004115
1.074565 -0.004366 -0.004366
1.123612 -0.004565 -0.004565
1.172054 -0.004762 -0.004762
-0.000512 0.076022 -0.000512
0.090406 0.076022 -0.000598
0.180694 0.075974 -0.000850
0.270699 0.075877 -0.001170
0.360247 0.075729 -0.001511
0.449025 0.075511 -0.001859
0.536665 0.075211 -0.002208
0.623029 0.074837 -0.002553
0.707512 0.074354 -0.002892
0.789642 0.073759 -0.003223
0.868482 0.073014 -0.003542
0.943429 0.072097 -0.003845
1.012789 0.070942 -0.004125
1.074565 0.069463 -0.004374
1.123612 0.067449 -0.004572
1.172054 0.065662 -0.004769
-0.001023 0.151943 -0.001023
0.090350 0.151943 -0.001059
0.180694 0.151943 -0.001195
0.270699 0.151758 -0.001418
0.360247 0.151458 -0.001694
0.449024 0.151032 -0.001999
0.536665 0.150435 -0.002319
0.623029 0.149694 -0.002644
0.707512 0.148733 -0.002968
0.789642 0.147536 -0.003287
0.868482 0.146060 -0.003596
0.943429 0.144232 -0.003892
1.012789 0.141934 -0.004166
1.074565 0.138992 -0.004410
1.123612 0.134971 -0.004605
1.172054 0.131403 -0.004797
-0.001533 0.227620 -0.001533
0.090226 0.227620 -0.001554
0.180458 0.227620 -0.001637
0.270699 0.227619 -0.001790
0.360247 0.227178 -0.001999
0.449024 0.226528 -0.002248
0.536665 0.225638 -0.002524
0.623029 0.224534 -0.002815
0.707511 0.223086 -0.003113
0.789642 0.221306 -0.003411
0.868482 0.219101 -0.003704
0.943429 0.216354 -0.003986
1.012789 0.212900 -0.004248
1.074565 0.208486 -0.004483
1.123612 0.202459 -0.004668
1.172054 0.197101 -0.004853
-0.002040 0.302925 -0.002040
0.090059 0.302924 -0.002054
0.180125 0.302924 -0.002111
0.270173 0.302924 -0.002221
0.360247 0.302924 -0.002382
0.449024 0.302050 -0.002581
0.536665 0.300872 -0.002811
0.623029 0.299377 -0.003062
0.707511 0.297461 -0.003327
0.789642 0.295079 -0.003598
0.868482 0.292135 -0.003868
0.943429 0.288471 -0.004130
1.012789 0.283896 -0.004376
1.074565 0.278001 -0.004596
1.123612 0.269965 -0.004768
1.172054 0.262821 -0.004942
-0.002543 0.377554 -0.002543
0.089787 0.377554 -0.002553
0.179593 0.377554 -0.002595
0.269403 0.377554 -0.002678
0.359191 0.377553 -0.002804
0.449024 0.377553 -0.002969
0.536665 0.376053 -0.003158
0.623029 0.374217 -0.003372
0.707511 0.371806 -0.003602
0.789642 0.368847 -0.003842
0.868482 0.365170 -0.004084
0.943429 0.360608 -0.004323
1.012789 0.354873 -0.004548
1.074565 0.347491 -0.004749
1.123612 0.337437 -0.004904
1.172054 0.328542 -0.005064
-0.003040 0.451286 -0.003040
0.089433 0.451286 -0.003047
0.178883 0.451286 -0.003080
0.268322 0.451286 -0.003145
0.357772 0.451286 -0.003246
0.447220 0.451285 -0.003381
0.536664 0.451285 -0.003549
0.623029 0.449066 -0.003728
0.707511 0.446174 -0.003925
0.789641 0.442610 -0.004135
0.868482 0.438194 -0.004349
0.943429 0.432708 -0.004561
1.012789 0.425824 -0.004763
1.074565 0.416995 -0.004942
1.123612 0.404937 -0.005077
1.172053 0.394225 -0.005219
-0.003529 0.523899 -0.003529
0.089000 0.523899 -0.003535
0.178025 0.523899 -0.003561
0.267009 0.523899 -0.003614
0.356071 0.523899 -0.003696
0.445029 0.523899 -0.003808
0.534034 0.523898 -0.003950
0.623028 0.523898 -0.004120
0.707510 0.520537 -0.004287
0.789641 0.516408 -0.004468
0.868481 0.511203 -0.004654
0.943428 0.504805 -0.004840
1.012789 0.496792 -0.005017
1.074565 0.486479 -0.005173
1.123612 0.472431 -0.005284
1.172053 0.459932 -0.005407
-0.004007 0.594942 -0.004007
0.088413 0.594942 -0.004012
0.176871 0.594942 -0.004034
0.265288 0.594942 -0.004077
0.353765 0.594942 -0.004146
0.442177 0.594942 -0.004241
0.530602 0.594942 -0.004362
0.619014 0.594942 -0.004508
0.707510 0.594941 -0.004679
0.789641 0.590173 -0.004832
0.868481 0.584277 -0.004992
0.943428 0.576956 -0.005152
1.012789 0.567782 -0.005304
1.074565 0.556005 -0.005435
1.123612 0.539939 -0.005523
1.172053 0.525646 -0.005625
-0.004472 0.663999 -0.004472
0.087704 0.663999 -0.004476
0.175443 0.663999 -0.004495
0.263181 0.663999 -0.004532
0.350901 0.663999 -0.004590
0.438649 0.663999 -0.004671
0.526383 0.663999 -0.004775
0.614101 0.663999 -0.004902
0.701810 0.663999 -0.005051
0.789641 0.663999 -0.005222
0.868481 0.657345 -0.005357
0.943428 0.649092 -0.005493
1.012789 0.638771 -0.005620
1.074565 0.625528 -0.005727
1.123611 0.607432 -0.005789
1.172053 0.591389 -0.005870
-0.004919 0.730364 -0.004919
0.086822 0.730364 -0.004923
0.173690 0.730364 -0.004939
0.260548 0.730364 -0.004970
0.347421 0.730364 -0.005020
0.434245 0.730364 -0.005090
0.521129 0.730363 -0.005180
0.607941 0.730363 -0.005292
0.694861 0.730363 -0.005423
0.781705 0.730363 -0.005574
0.868480 0.730362 -0.005743
0.943427 0.721195 -0.005856
1.012788 0.709783 -0.005960
1.074564 0.694983 -0.006043
1.123611 0.674873 -0.006081
1.172053 0.657108 -0.006138
-0.005344 0.793386 -0.005344
0.085723 0.793386 -0.005347
0.171525 0.793386 -0.005360
0.257274 0.793386 -0.005388
0.343072 0.793386 -0.005431
0.428805 0.793386 -0.005492
0.514590 0.793386 -0.005571
0.600345 0.793386 -0.005669
0.686141 0.793386 -0.005784
0.771909 0.793385 -0.005919
0.857614 0.793385 -0.006071
0.943427 0.793385 -0.006240
1.012788 0.780738 -0.006321
1.074564 0.764561 -0.006381
1.123611 0.742473 -0.006394
1.172053 0.722831 -0.006428
-0.005736 0.851614 -0.005736
0.084346 0.851614 -0.005738
0.168791 0.851614 -0.005751
0.253189 0.851614 -0.005775
0.337608 0.851614 -0.005813
0.421999 0.851614 -0.005866
0.506393 0.851614 -0.005935
0.590777 0.851613 -0.006022
0.675201 0.851613 -0.006124
0.759649 0.851613 -0.006244
0.843994 0.851613 -0.006380
0.928534 0.851613 -0.006532
1.012788 0.851613 -0.006698
1.074564 0.833979 -0.006736
1.123611 0.809884 -0.006724
1.172052 0.788437 -0.006737
-0.006086 0.903593 -0.006086
0.082589 0.903593 -0.006088
0.165276 0.903593 -0.006098
0.247927 0.903593 -0.006119
0.330582 0.903593 -0.006153
0.413263 0.903593 -0.006200
0.495890 0.903593 -0.006262
0.578534 0.903593 -0.006337
0.661188 0.903593 -0.006429
0.743872 0.903593 -0.006535
0.826506 0.903592 -0.006657
0.909246 0.903592 -0.006793
0.991770 0.903592 -0.006942
1.074563 0.903592 -0.007106
1.123610 0.877502 -0.007071
1.172052 0.854280 -0.007062
-0.006364 0.944824 -0.006364
0.080189 0.944824 -0.006366
0.160499 0.944824 -0.006375
0.240766 0.944824 -0.006394
0.321041 0.944824 -0.006423
0.401291 0.944824 -0.006464
0.481555 0.944824 -0.006518
0.561801 0.944824 -0.006585
0.642099 0.944824 -0.006666
0.722333 0.944823 -0.006761
0.802624 0.944823 -0.006868
0.882896 0.944823 -0.006990
0.963093 0.944823 -0.007124
1.043494 0.944823 -0.007272
1.123610 0.944822 -0.007431
1.172052 0.919879 -0.007400
-0.006639 0.985596 -0.006639
0.078054 0.985596 -0.006641
0.156250 0.985595 -0.006648
0.234394 0.985595 -0.006665
0.312539 0.985595 -0.006691
0.390660 0.985595 -0.006727
0.468835 0.985595 -0.006774
0.546923 0.985595 -0.006835
0.625136 0.985595 -0.006906
0.703268 0.985595 -0.006991
0.781360 0.985595 -0.007088
0.859550 0.985595 -0.007197
0.937656 0.985595 -0.007318
1.015909 0.985594 -0.007452
1.093873 0.985594 -0.007596
1.172051 0.985594 -0.007751
-0.000197 -0.000197 0.076021
0.090406 -0.000400 0.076021
0.180694 -0.000747 0.075974
0.270699 -0.001107 0.075878
0.360247 -0.001468 0.075729
0.449025 -0.001828 0.075511
0.536665 -0.002183 0.075211
0.623029 -0.002534 0.074837
0.707512 -0.002876 0.074354
0.789642 -0.003210 0.073759
0.868482 -0.003530 0.073014
0.943429 -0.003834 0.072098
1.012789 -0.004116 0.070942
1.074565 -0.004367 0.069463
1.123612 -0.004566 0.067450
1.172054 -0.004763 0.065662
-0.000533 0.076022 0.076022
0.094321 0.074614 0.074614
0.195815 0.058858 0.058858
0.283605 0.047663 0.047663
0.370171 0.041857 0.041857
0.456726 0.038904 0.038904
0.542835 0.037473 0.037473
0.628085 0.036905 0.036905
0.711747 0.036862 0.036862
0.793238 0.037156 0.037156
0.871676 0.037671 0.037671
0.946290 0.038321 0.038321
1.012789 0.075992 0.075992
1.074565 0.075988 0.075988
1.123612 0.075985 0.075985
1.172054 0.075981 0.075981
-0.001032 0.151943 0.075973
0.075849 0.154532 0.050653
0.184118 0.151454 0.047078
0.277524 0.147981 0.043068
0.367144 0.145337 0.040055
0.455153 0.143455 0.038197
0.541945 0.142015 0.037221
0.627567 0.140810 0.036851
0.711435 0.139635 0.036903
0.793001 0.138410 0.037242
0.871479 0.137029 0.037778
0.946137 0.135396 0.038438
1.012789 0.143905 0.075992
1.074565 0.141570 0.075988
1.123612 0.138402 0.075984
1.172054 0.135620 0.075981
-0.001538 0.227620 0.075876
0.068928 0.229604 0.041382
0.177915 0.228703 0.040550
0.272761 0.227385 0.039342
0.363930 0.225654 0.038199
0.453125 0.223970 0.037372
0.540651 0.222315 0.036932
0.626755 0.220697 0.036838
0.710854 0.218915 0.037026
0.792614 0.216940 0.037436
0.871239 0.214675 0.038004
0.945935 0.211934 0.038675
1.012789 0.214011 0.075991
1.074565 0.209940 0.075987
1.123612 0.204410 0.075983
1.172054 0.199509 0.075980
-0.002043 0.302925 0.075727
0.066550 0.304347 0.037974
0.175038 0.304002 0.037766
0.269580 0.303459 0.037441
0.361624 0.302769 0.037108
0.451337 0.301266 0.036885
0.539358 0.299538 0.036837
0.625794 0.297591 0.036977
0.710139 0.295343 0.037300
0.792150 0.292752 0.037781
0.870866 0.289679 0.038380
0.945623 0.285968 0.039058
1.012789 0.284596 0.075988
1.074565 0.278940 0.075984
1.123612 0.271231 0.075981
1.172054 0.264397 0.075978
-0.002545 0.377554 0.075506
0.065724 0.378665 0.036906
0.173411 0.378506 0.036878
0.267433 0.378245 0.036840
0.359157 0.377852 0.036836
0.450018 0.377460 0.036904
0.538290 0.375620 0.037075
0.624913 0.373444 0.037371
0.709431 0.370773 0.037787
0.791556 0.367580 0.038314
0.870446 0.363790 0.038935
0.945348 0.359110 0.039612
1.012789 0.355358 0.075985
1.074565 0.348160 0.075982
1.123612 0.338378 0.075979
1.172053 0.329627 0.075975
-0.003041 0.451286 0.075204
0.065570 0.452126 0.036964
0.172220 0.452051 0.036993
0.265631 0.451928 0.037062
0.356884 0.451705 0.037185
0.447398 0.451477 0.037386
0.537472 0.451193 0.037684
0.624222 0.448769 0.038054
0.708843 0.445664 0.038517
0.791070 0.441945 0.039070
0.870017 0.437394 0.039689
0.944954 0.431813 0.040349
1.012789 0.426173 0.075981
1.074565 0.417463 0.075978
1.123612 0.405601 0.075975
1.172053 0.395077 0.075972
-0.003530 0.523899 0.074827
0.065787 0.524596 0.037655
0.171219 0.524538 0.037707
0.263943 0.524467 0.037813
0.354690 0.524345 0.037982
0.444641 0.524174 0.038237
0.534271 0.523988 0.038579
0.623645 0.523854 0.039032
0.708371 0.520342 0.039504
0.790681 0.516047 0.040052
0.869709 0.510788 0.040648
0.944682 0.504294 0.041281
1.012789 0.497041 0.075976
1.074565 0.486842 0.075973
1.123612 0.472938 0.075970
1.172053 0.460561 0.075964
-0.004008 0.594942 0.074340
0.066229 0.595476 0.038741
0.170179 0.595450 0.038798
0.262070 0.595399 0.038914
0.352118 0.595341 0.039102
0.441426 0.595243 0.039371
0.530457 0.595120 0.039726
0.619270 0.594998 0.040180
0.707957 0.594869 0.040729
0.790266 0.590044 0.041254
0.869349 0.584050 0.041818
0.944393 0.576674 0.042403
1.012789 0.567983 0.075970
1.074565 0.556284 0.075964
1.123612 0.540326 0.075962
1.172053 0.526120 0.075960
-0.004473 0.663999 0.073736
0.066834 0.664432 0.040080
0.168985 0.664413 0.040134
0.259967 0.664377 0.040253
0.349160 0.664353 0.040439
0.437721 0.664281 0.040706
0.526009 0.664195 0.041054
0.614090 0.664145 0.041499
0.702089 0.664008 0.042033
0.790005 0.663953 0.042664
0.869093 0.657242 0.043181
0.944120 0.648968 0.043710
1.012789 0.638899 0.075960
1.074564 0.625696 0.075958
1.123611 0.607722 0.075956
1.172053 0.591764 0.075954
-0.004920 0.730364 0.072990
0.067546 0.730714 0.041569
0.167602 0.730695 0.041628
0.257441 0.730655 0.041740
0.345645 0.730685 0.041921
0.433240 0.730606 0.042172
0.520609 0.730512 0.042506
0.607781 0.730490 0.042929
0.694933 0.730455 0.043434
0.781919 0.730421 0.044035
0.868871 0.730303 0.044720
0.943905 0.721154 0.045183
1.012788 0.709836 0.075952
1.074564 0.695089 0.075949
1.123611 0.675144 0.075948
1.172053 0.657366 0.075947
-0.005344 0.793386 0.072065
0.068337 0.793693 0.043140
0.165917 0.793683 0.043192
0.254369 0.793664 0.043299
0.341356 0.793635 0.043466
0.427800 0.793596 0.043707
0.513982 0.793574 0.044019
0.600065 0.793518 0.044412
0.686082 0.793546 0.044889
0.772035 0.793481 0.045448
0.857859 0.793414 0.046091
0.943764 0.793369 0.046821
1.012788 0.780780 0.075942
1.074564 0.764655 0.075940
1.123611 0.742626 0.075939
1.172053 0.723021 0.075938
-0.005737 0.851614 0.070902
0.069163 0.851955 0.044700
0.163792 0.851948 0.044751
0.250573 0.851934 0.044847
0.336033 0.851911 0.045004
0.421047 0.851933 0.045220
0.505837 0.851894 0.045516
0.590478 0.851850 0.045880
0.675129 0.851800 0.046320
0.759685 0.851746 0.046842
0.844164 0.851690 0.047436
0.928714 0.851634 0.048111
1.012788 0.851613 0.075928
1.074564 0.834026 0.075926
1.123611 0.809993 0.075927
1.172052 0.788590 0.075926
-0.006086 0.903593 0.069415
0.069957 0.903852 0.046164
0.161041 0.903846 0.046210
0.245694 0.903835 0.046302
0.329244 0.903870 0.046444
0.412383 0.903846 0.046648
0.495375 0.903815 0.046916
0.578244 0.903779 0.047251
0.661098 0.903738 0.047652
0.743869 0.903693 0.048130
0.826616 0.903646 0.048676
0.909362 0.903656 0.049301
0.991950 0.903608 0.049993
1.074563 0.903592 0.075914
1.123610 0.877506 0.075916
1.172052 0.854399 0.075916
-0.006364 0.944824 0.067397
0.070636 0.945098 0.047375
0.157235 0.945093 0.047416
0.239038 0.945084 0.047499
0.320005 0.945070 0.047630
0.400662 0.945050 0.047810
0.481168 0.945025 0.048054
0.561600 0.944995 0.048353
0.642012 0.944961 0.048722
0.722356 0.945002 0.049150
0.802728 0.944962 0.049648
0.883076 0.944920 0.050215
0.963247 0.944878 0.050850
1.043568 0.944823 0.075909
1.123610 0.944822 0.075904
1.172052 0.919873 0.075905
-0.006639 0.985596 0.065597
0.071340 0.985825 0.048607
0.153911 0.985822 0.048644
0.233163 0.985814 0.048715
0.311803 0.985803 0.048833
0.390262 0.985786 0.049000
0.468568 0.985872 0.049219
0.546805 0.985844 0.049495
0.625081 0.985816 0.049826
0.703277 0.985784 0.050219
0.781462 0.985749 0.050674
0.859730 0.985713 0.051195
0.937812 0.985676 0.051770
1.016020 0.985594 0.075903
1.093975 0.985594 0.075898
1.172051 0.985594 0.075889
-0.000394 -0.000394 0.151943
0.090352 -0.000508 0.151943
0.180694 -0.000799 0.151943
0.270699 -0.001138 0.151758
0.360247 -0.001489 0.151459
0.449025 -0.001843 0.151033
0.536665 -0.002195 0.150436
0.623029 -0.002543 0.149695
0.707512 -0.002884 0.148733
0.789642 -0.003216 0.147536
0.868482 -0.003536 0.146061
0.943429 -0.003839 0.144233
1.012789 -0.004120 0.141934
1.074565 -0.004370 0.138992
1.123612 -0.004569 0.134971
1.172054 -0.004766 0.131403
-0.000611 0.075974 0.151943
0.091379 0.070445 0.169076
0.193760 0.056790 0.159998
0.282725 0.047007 0.151225
0.369783 0.041627 0.146564
0.456546 0.038820 0.143963
0.542729 0.037445 0.142247
0.628026 0.036899 0.140919
0.711690 0.036865 0.139690
0.793210 0.037166 0.138430
0.871655 0.037682 0.137033
0.946274 0.038336 0.135391
1.012789 0.075992 0.143905
1.074565 0.075988 0.141570
1.123612 0.075985 0.138403
1.172054 0.075981 0.135621
-0.001065 0.151943 0.151943
0.066437 0.154491 0.154491
0.188533 0.149133 0.149133
0.295562 0.134523 0.134523
0.390455 0.117791 0.117791
0.477970 0.104968 0.104968
0.562660 0.095653 0.095653
0.645982 0.088991 0.088991
0.727671 0.084245 0.084245
0.807481 0.080862 0.080862
0.884560 0.078469 0.078469
0.957982 0.076789 0.076789
1.012789 0.151933 0.151933
1.074565 0.151931 0.151931
1.123612 0.151930 0.151930
1.172054 0.151928 0.151928
-0.001557 0.227620 0.151758
0.053030 0.230266 0.143724
0.167474 0.231810 0.120835
0.279865 0.225902 0.113317
0.377722 0.219044 0.105047
0.469079 0.212729 0.097477
0.556705 0.207402 0.091211
0.641971 0.203061 0.086294
0.724989 0.199374 0.082576
0.805562 0.196102 0.079817
0.883195 0.193001 0.077801
0.956978 0.189852 0.076360
1.012789 0.218628 0.151933
1.074565 0.215981 0.151931
1.123612 0.212431 0.151929
1.172054 0.209328 0.151928
-0.002056 0.302924 0.151458
0.047236 0.304989 0.139277
0.151720 0.308080 0.101387
0.266944 0.305357 0.098233
0.367107 0.301940 0.094234
0.460734 0.297751 0.090159
0.550458 0.293595 0.086387
0.637349 0.289669 0.083151
0.721623 0.285835 0.080528
0.803084 0.282073 0.078472
0.881325 0.278142 0.076918
0.955510 0.273870 0.075783
1.012789 0.287598 0.151932
1.074565 0.282921 0.151930
1.123612 0.276575 0.151929
1.172054 0.270999 0.151927
-0.002555 0.377554 0.151024
0.044751 0.379166 0.137035
0.142947 0.382247 0.089897
0.258730 0.380843 0.088452
0.358985 0.378989 0.086504
0.454284 0.376912 0.084281
0.545019 0.373483 0.082144
0.633013 0.369884 0.080167
0.718183 0.365952 0.078460
0.800424 0.361767 0.077057
0.879205 0.357187 0.075960
0.953897 0.351948 0.075138
1.012789 0.357445 0.151930
1.074565 0.350951 0.151929
1.123612 0.342164 0.151927
1.172053 0.334379 0.151926
-0.003049 0.451286 0.150426
0.043874 0.452564 0.135604
0.137950 0.455291 0.082976
0.253356 0.454538 0.082276
0.353048 0.453485 0.081286
0.448073 0.452184 0.080101
0.540856 0.450795 0.078832
0.629348 0.447347 0.077690
0.714962 0.443339 0.076661
0.797846 0.438816 0.075776
0.877113 0.433596 0.075072
0.952126 0.427509 0.074533
1.012789 0.427672 0.151929
1.074565 0.419483 0.151927
1.123612 0.408383 0.151926
1.172053 0.398608 0.151924
-0.003536 0.523899 0.149690
0.043895 0.524940 0.134509
0.134991 0.527330 0.078742
0.249563 0.526893 0.078391
0.348431 0.526241 0.077878
0.442885 0.525400 0.077248
0.535298 0.524511 0.076547
0.626423 0.523506 0.075841
0.712448 0.519324 0.075263
0.795531 0.514467 0.074756
0.875146 0.508636 0.074350
0.950475 0.501725 0.074041
1.012789 0.498116 0.151926
1.074565 0.488344 0.151925
1.123612 0.475040 0.151924
1.172053 0.463244 0.151923
-0.004013 0.594942 0.148721
0.044451 0.595810 0.133469
0.133211 0.597878 0.076180
0.246526 0.597594 0.075999
0.344397 0.597169 0.075739
0.438030 0.596637 0.075411
0.529752 0.596016 0.075043
0.620356 0.595333 0.074663
0.710371 0.594627 0.074311
0.793594 0.589315 0.074057
0.873405 0.582915 0.073861
0.948902 0.575179 0.073724
1.012789 0.568754 0.151924
1.074565 0.557388 0.151922
1.123612 0.541938 0.151921
1.172053 0.528249 0.151920
-0.004477 0.663999 0.147534
0.045362 0.664680 0.132377
0.132142 0.666501 0.074690
0.243848 0.666349 0.074605
0.340580 0.666087 0.074480
0.433235 0.665728 0.074320
0.524116 0.665250 0.074148
0.613990 0.664758 0.073963
0.703223 0.664251 0.073807
0.792052 0.663709 0.073689
0.871916 0.656704 0.073630
0.947514 0.648095 0.073611
1.012789 0.639427 0.151920
1.074565 0.626512 0.151919
1.123611 0.608912 0.151918
1.172053 0.593343 0.151918
-0.004923 0.730364 0.146051
0.046486 0.731068 0.131128
0.131509 0.732569 0.073918
0.241208 0.732445 0.073879
0.336616 0.732204 0.073836
0.428094 0.732020 0.073773
0.517925 0.731655 0.073710
0.606780 0.731329 0.073658
0.695114 0.731034 0.073619
0.783116 0.730537 0.073616
0.870684 0.730068 0.073659
0.946349 0.720626 0.073715
1.012788 0.710091 0.151917
1.074564 0.695658 0.151916
1.123611 0.676028 0.151915
1.172053 0.658535 0.151914
-0.005347 0.793386 0.144220
0.047745 0.793925 0.129630
0.131180 0.795410 0.073627
0.238398 0.795324 0.073627
0.332175 0.795156 0.073618
0.422278 0.794951 0.073611
0.510829 0.794786 0.073616
0.598496 0.794456 0.073636
0.685733 0.794227 0.073678
0.772472 0.793853 0.073751
0.858956 0.793562 0.073864
0.945369 0.793168 0.074018
1.012788 0.780939 0.151912
1.074564 0.764947 0.151911
1.123611 0.743232 0.151911
1.172053 0.723927 0.151911
-0.005739 0.851614 0.141919
0.049042 0.852199 0.127737
0.131064 0.853499 0.073664
0.235199 0.853468 0.073673
0.327029 0.853337 0.073689
0.415438 0.853158 0.073715
0.502413 0.852985 0.073766
0.588574 0.852815 0.073823
0.674305 0.852565 0.073914
0.759685 0.852288 0.074027
0.844748 0.852055 0.074185
0.929776 0.851748 0.074382
1.012788 0.851613 0.151907
1.074564 0.834187 0.151907
1.123611 0.810322 0.151907
1.172052 0.789214 0.151907
-0.006089 0.903593 0.138968
0.050294 0.904032 0.125272
0.131062 0.905298 0.073883
0.231345 0.905230 0.073910
0.320708 0.905125 0.073939
0.406973 0.905068 0.073985
0.491931 0.904883 0.074049
0.576170 0.904721 0.074133
0.660030 0.904594 0.074245
0.743549 0.904374 0.074388
0.826866 0.904161 0.074564
0.910116 0.903907 0.074780
0.993055 0.903698 0.075040
1.074564 0.903592 0.151901
1.123610 0.877696 0.151902
1.172052 0.854754 0.151902
-0.006367 0.944824 0.134952
0.051338 0.945253 0.121761
0.131127 0.946459 0.074180
0.226291 0.946404 0.074204
0.312323 0.946346 0.074238
0.395773 0.946306 0.074299
0.477977 0.946152 0.074368
0.559590 0.946047 0.074461
0.640970 0.945913 0.074579
0.721977 0.945673 0.074727
0.802773 0.945515 0.074907
0.883614 0.945320 0.075126
0.964090 0.945114 0.075379
1.043787 0.944823 0.151899
1.123610 0.944822 0.151896
1.172052 0.920131 0.151897
-0.006641 0.985596 0.131376
0.052416 0.986056 0.118728
0.131243 0.987112 0.074558
0.221893 0.987067 0.074580
0.304995 0.987099 0.074619
0.385828 0.986999 0.074677
0.465681 0.986871 0.074754
0.545022 0.986763 0.074853
0.624078 0.986581 0.074978
0.702893 0.986483 0.075130
0.781504 0.986363 0.075310
0.860136 0.986227 0.075524
0.938515 0.986075 0.075772
1.016486 0.985594 0.151896
1.094213 0.985594 0.151894
1.172051 0.985594 0.151891
-0.000590 -0.000590 0.227621
0.090229 -0.000662 0.227621
0.180459 -0.000890 0.227620
0.270699 -0.001196 0.227620
0.360247 -0.001530 0.227179
0.449025 -0.001873 0.226529
0.536665 -0.002219 0.225639
0.623029 -0.002562 0.224534
0.707512 -0.002900 0.223087
0.789642 -0.003229 0.221306
0.868482 -0.003547 0.219101
0.943429 -0.003849 0.216355
1.012789 -0.004129 0.212900
1.074565 -0.004378 0.208487
1.123612 -0.004576 0.202459
1.172054 -0.004772 0.197102
-0.000737 0.075878 0.227621
0.085563 0.062634 0.254298
0.190267 0.053537 0.243698
0.281163 0.045850 0.234565
0.369052 0.041200 0.228968
0.456185 0.038655 0.225560
0.542517 0.037387 0.223102
0.627908 0.036885 0.221109
0.711572 0.036874 0.219148
0.793154 0.037182 0.217083
0.871614 0.037705 0.214716
0.946243 0.038359 0.211958
1.012789 0.075992 0.214012
1.074565 0.075988 0.209940
1.123612 0.075985 0.204411
1.172054 0.075981 0.199510
-0.001128 0.151758 0.227620
0.063975 0.152285 0.241434
0.186297 0.146008 0.246762
0.293865 0.131463 0.239507
0.388804 0.116110 0.227744
0.476850 0.104045 0.217749
0.561963 0.095130 0.210281
0.645468 0.088680 0.204738
0.727366 0.084054 0.200378
0.807308 0.080747 0.196729
0.884364 0.078398 0.193389
0.957915 0.076745 0.190113
1.012789 0.151933 0.218628
1.074565 0.151931 0.215982
1.123612 0.151930 0.212432
1.172054 0.151928 0.209328
-0.001596 0.227620 0.227620
0.052390 0.229661 0.229661
0.161779 0.231012 0.231012
0.282419 0.223406 0.223406
0.390035 0.210533 0.210533
0.490825 0.192827 0.192827
0.581930 0.176948 0.176948
0.667654 0.163768 0.163768
0.749781 0.153110 0.153110
0.829060 0.144624 0.144624
0.905096 0.137916 0.137916
0.977503 0.132654 0.132654
1.012789 0.227611 0.227611
1.074565 0.227609 0.227609
1.123612 0.227608 0.227608
1.172054 0.227607 0.227607
-0.002083 0.302924 0.227178
0.047046 0.304753 0.224157
0.134752 0.309404 0.210056
0.261992 0.307030 0.194827
0.374991 0.299640 0.184956
0.475772 0.290816 0.174367
0.569193 0.281919 0.164126
0.657652 0.273732 0.154883
0.742148 0.266400 0.146933
0.823218 0.259856 0.140262
0.900695 0.253906 0.134800
0.974089 0.248289 0.130383
1.012789 0.293602 0.227610
1.074565 0.290798 0.227609
1.123612 0.287047 0.227607
1.172054 0.283807 0.227606
-0.002574 0.377554 0.226527
0.044688 0.379049 0.221169
0.117716 0.383987 0.196183
0.241736 0.384862 0.169853
0.358167 0.380519 0.164534
0.461563 0.375475 0.158288
0.557113 0.369087 0.151979
0.647658 0.362719 0.145870
0.734110 0.356322 0.140286
0.816889 0.350124 0.135367
0.895668 0.343895 0.131166
0.970038 0.337501 0.127675
1.012789 0.361644 0.227609
1.074565 0.356569 0.227608
1.123612 0.349715 0.227607
1.172054 0.343775 0.227605
-0.003064 0.451286 0.225636
0.043863 0.452502 0.219069
0.106836 0.457022 0.187342
0.227680 0.459033 0.152381
0.345344 0.456436 0.149411
0.449163 0.453277 0.145724
0.547057 0.449791 0.141628
0.638889 0.444470 0.137708
0.726661 0.438670 0.133943
0.810621 0.432566 0.130464
