src/luts/Glowing Sky.cube
LUT_3D_SIZE 16
-0.104837 -0.098949 -0.093404
-0.085869 -0.098949 -0.093404
0.091603 -0.098949 -0.093405
0.176899 -0.098949 -0.093405
0.254116 -0.098950 -0.093406
0.330096 -0.098951 -0.093407
0.406152 -0.098953 -0.093409
0.482736 -0.098955 -0.093411
0.559732 -0.098957 -0.093400
0.635768 -0.098960 -0.093403
0.710461 -0.098963 -0.093406
0.783818 -0.098967 -0.093410
0.855439 -0.098972 -0.093415
0.925067 -0.098963 -0.093419
0.991411 -0.098969 -0.093424
1.049785 -0.098973 -0.093429
-0.104837 -0.081050 -0.093405
-0.085869 -0.081050 -0.093405
0.091603 -0.083927 -0.093405
0.176899 -0.084112 -0.093405
0.254116 -0.083415 -0.093406
0.330096 -0.082661 -0.093407
0.406152 -0.081973 -0.093409
0.482737 -0.081340 -0.093411
0.559732 -0.080782 -0.093400
0.635768 -0.080387 -0.093403
0.710461 -0.080159 -0.093406
0.783818 -0.080050 -0.093410
0.855439 -0.080060 -0.093415
0.925067 -0.080189 -0.093420
0.991411 -0.080464 -0.093424
1.049785 -0.081080 -0.093429
-0.104837 0.086467 -0.093405
-0.088918 0.086467 -0.093405
0.091603 0.086467 -0.093405
0.176899 0.085505 -0.093406
0.254116 0.089010 -0.093407
0.330096 0.092495 -0.093408
0.406152 0.095518 -0.093409
0.482736 0.098170 -0.093411
0.559732 0.100395 -0.093401
0.635768 0.101896 -0.093404
0.710461 0.102793 -0.093407
0.783818 0.103184 -0.093411
0.855439 0.103154 -0.093416
0.925067 0.102693 -0.093420
0.991411 0.101681 -0.093425
1.049785 0.099295 -0.093430
-0.104838 0.166962 -0.093406
-0.089109 0.166962 -0.093406
0.090576 0.166962 -0.093407
0.176899 0.166961 -0.093407
0.254116 0.170654 -0.093408
0.330096 0.174397 -0.093409
0.406152 0.177742 -0.093411
0.482736 0.180684 -0.093400
0.559731 0.183195 -0.093402
0.635768 0.184938 -0.093405
0.710461 0.185956 -0.093409
0.783818 0.186423 -0.093413
0.855439 0.186377 -0.093417
0.925067 0.185861 -0.093422
0.991411 0.184671 -0.093427
1.049785 0.181969 -0.093431
-0.104837 0.239854 -0.093409
-0.088373 0.239854 -0.093409
0.094305 0.239854 -0.093409
0.180796 0.239854 -0.093409
0.254116 0.239854 -0.093410
0.330095 0.244503 -0.093411
0.406152 0.248652 -0.093400
0.482736 0.252346 -0.093402
0.559731 0.255497 -0.093404
0.635768 0.257653 -0.093407
0.710461 0.258951 -0.093411
0.783818 0.259522 -0.093415
0.855439 0.259467 -0.093419
0.925067 0.258812 -0.093424
0.991411 0.257349 -0.093429
1.049785 0.253953 -0.093434
-0.104839 0.311545 -0.093412
-0.087579 0.311545 -0.093412
0.097984 0.311545 -0.093412
0.184767 0.311544 -0.093399
0.259048 0.311544 -0.093400
0.330095 0.311544 -0.093401
0.406152 0.316624 -0.093403
0.482736 0.321119 -0.093405
0.559731 0.324963 -0.093408
0.635768 0.327590 -0.093411
0.710461 0.329173 -0.093415
0.783818 0.329879 -0.093419
0.855438 0.329810 -0.093423
0.925067 0.329017 -0.093428
0.991411 0.327216 -0.093432
1.049785 0.323096 -0.093428
-0.104842 0.383352 -0.093403
-0.086854 0.383352 -0.093403
0.101200 0.383352 -0.093403
0.188287 0.383352 -0.093404
0.263444 0.383352 -0.093405
0.335444 0.383352 -0.093406
0.406151 0.383352 -0.093407
0.482736 0.388700 -0.093410
0.559731 0.393224 -0.093412
0.635768 0.396389 -0.093416
0.710460 0.398259 -0.093419
0.783818 0.399063 -0.093423
0.855438 0.398997 -0.093427
0.925066 0.398066 -0.093432
0.991410 0.395911 -0.093428
1.049785 0.391023 -0.093433
-0.104845 0.455654 -0.093409
-0.086187 0.455654 -0.093409
0.104006 0.455654 -0.093409
0.191431 0.455654 -0.093410
0.267357 0.455654 -0.093411
0.340206 0.455654 -0.093412
0.411785 0.455654 -0.093413
0.482735 0.455653 -0.093415
0.559730 0.460943 -0.093418
0.635767 0.464557 -0.093421
0.710460 0.466721 -0.093425
0.783818 0.467686 -0.093429
0.855438 0.467610 -0.093433
0.925066 0.466493 -0.093429
0.991410 0.464046 -0.093434
1.049785 0.458347 -0.093438
-0.104850 0.528312 -0.093416
-0.085598 0.528312 -0.093416
0.106354 0.528312 -0.093417
0.194095 0.528312 -0.093417
0.270696 0.528312 -0.093418
0.344296 0.528312 -0.093419
0.416656 0.528312 -0.093420
0.488346 0.528312 -0.093422
0.559730 0.528312 -0.093425
0.635767 0.532416 -0.093428
0.710460 0.534911 -0.093432
0.783817 0.535996 -0.093427
0.855438 0.535869 -0.093431
0.925066 0.534644 -0.093436
0.991410 0.531832 -0.093441
1.049785 0.525372 -0.093445
-0.104855 0.600077 -0.093425
-0.085186 0.600077 -0.093425
0.107947 0.600077 -0.093425
0.195927 0.600077 -0.093426
0.272980 0.600077 -0.093426
0.347087 0.600077 -0.093428
0.419919 0.600077 -0.093429
0.492176 0.600077 -0.093431
0.564090 0.600077 -0.093433
0.635767 0.600077 -0.093428
0.710459 0.602841 -0.093431
0.783817 0.604060 -0.093435
0.855437 0.603954 -0.093440
0.925066 0.602550 -0.093444
0.991410 0.599418 -0.093449
1.049785 0.592147 -0.093453
-0.104861 0.670615 -0.093426
-0.084939 0.670615 -0.093426
0.108890 0.670615 -0.093427
0.197010 0.670615 -0.093427
0.274340 0.670615 -0.093428
0.348759 0.670615 -0.093429
0.421911 0.670615 -0.093431
0.494465 0.670615 -0.093433
0.566682 0.670615 -0.093435
0.638704 0.670615 -0.093438
0.710459 0.670614 -0.093441
0.783817 0.671983 -0.093445
0.855437 0.671904 -0.093450
0.925065 0.670263 -0.093454
0.991409 0.666817 -0.093459
1.049784 0.658731 -0.093453
-0.104869 0.739816 -0.093438
-0.084833 0.739816 -0.093438
0.109304 0.739816 -0.093438
0.197493 0.739816 -0.093438
0.274954 0.739816 -0.093439
0.349497 0.739816 -0.093440
0.422807 0.739816 -0.093442
0.495505 0.739816 -0.093444
0.567876 0.739816 -0.093446
0.639990 0.739815 -0.093449
0.711957 0.739815 -0.093453
0.783816 0.739815 -0.093457
0.855437 0.739805 -0.093452
0.925065 0.738036 -0.093457
0.991409 0.734151 -0.093461
1.049784 0.725305 -0.093450
-0.104877 0.807428 -0.093451
-0.084849 0.807428 -0.093451
0.109263 0.807428 -0.093451
0.197435 0.807428 -0.093451
0.274891 0.807428 -0.093452
0.349403 0.807428 -0.093453
0.422723 0.807428 -0.093455
0.495398 0.807428 -0.093457
0.567751 0.807427 -0.093459
0.639872 0.807427 -0.093453
0.711822 0.807427 -0.093457
0.783748 0.807427 -0.093461
0.855436 0.807427 -0.093451
0.925065 0.805502 -0.093455
0.991409 0.801417 -0.093459
1.049784 0.791682 -0.093462
-0.104882 0.873169 -0.093456
-0.084997 0.873169 -0.093456
0.108772 0.873169 -0.093456
0.196898 0.873169 -0.093456
0.274190 0.873169 -0.093457
0.348572 0.873169 -0.093458
0.421721 0.873169 -0.093460
0.494234 0.873169 -0.093448
0.566432 0.873169 -0.093450
0.638420 0.873169 -0.093453
0.710140 0.873169 -0.093456
0.781879 0.873168 -0.093460
0.853427 0.873168 -0.093464
0.925064 0.873168 -0.093469
0.991408 0.868699 -0.093464
1.049784 0.858221 -0.093467
-0.104891 0.935712 -0.093456
-0.085286 0.935712 -0.093456
0.107696 0.935712 -0.093456
0.195645 0.935711 -0.093457
0.272647 0.935711 -0.093458
0.346695 0.935711 -0.093459
0.419484 0.935711 -0.093460
0.491639 0.935711 -0.093462
0.563456 0.935711 -0.093465
0.635074 0.935711 -0.093467
0.706441 0.935711 -0.093471
0.777887 0.935711 -0.093466
0.849059 0.935711 -0.093470
0.920304 0.935711 -0.093475
0.991408 0.935710 -0.093480
1.049783 0.924453 -0.093482
-0.104900 0.990868 -0.093470
-0.085948 0.990868 -0.093470
0.105169 0.990868 -0.093470
0.192767 0.990868 -0.093471
0.269050 0.990868 -0.093472
0.342279 0.990868 -0.093464
0.414263 0.990868 -0.093466
0.485590 0.990868 -0.093467
0.556611 0.990868 -0.093470
0.627389 0.990868 -0.093473
0.697941 0.990868 -0.093476
0.768511 0.990868 -0.093479
0.838747 0.990868 -0.093484
0.909308 0.990868 -0.093488
0.979423 0.990867 -0.093493
1.049783 0.990867 -0.093490
-0.104837 -0.098949 -0.076497
-0.085869 -0.098949 -0.076497
0.091603 -0.098949 -0.079213
0.176899 -0.098949 -0.079393
0.254116 -0.098950 -0.078726
0.330096 -0.098951 -0.078028
0.406152 -0.098953 -0.077373
0.482737 -0.098955 -0.076777
0.559732 -0.098957 -0.076249
0.635768 -0.098960 -0.075879
0.710461 -0.098963 -0.075658
0.783818 -0.098967 -0.075560
0.855439 -0.098972 -0.075571
0.925067 -0.098963 -0.075693
0.991411 -0.098969 -0.075949
1.049785 -0.098973 -0.076529
-0.104837 -0.081050 -0.076498
-0.085869 -0.081050 -0.076498
0.091603 -0.081050 -0.076498
0.176899 -0.081050 -0.076498
0.254116 -0.081051 -0.076499
0.330096 -0.081052 -0.076499
0.406152 -0.081053 -0.076501
0.482736 -0.081054 -0.076505
0.559732 -0.081056 -0.076507
0.635768 -0.081058 -0.076510
0.710461 -0.081061 -0.076512
0.783818 -0.081066 -0.076516
0.855439 -0.081069 -0.076518
0.925067 -0.081073 -0.076522
0.991411 -0.081076 -0.076526
1.049785 -0.081080 -0.076529
-0.104837 0.086467 -0.079214
-0.085866 0.086467 -0.076498
0.091603 0.086467 -0.076498
0.176899 0.087433 -0.076499
0.254116 0.090767 -0.076499
0.330096 0.093716 -0.076500
0.406152 0.096226 -0.076504
0.482736 0.098378 -0.076506
0.559732 0.100195 -0.076508
0.635768 0.101428 -0.076510
0.710461 0.102152 -0.076513
0.783818 0.102474 -0.076516
0.855439 0.102448 -0.076519
0.925067 0.102066 -0.076522
0.991411 0.101239 -0.076526
1.049785 0.099295 -0.076530
-0.104838 0.166962 -0.079394
-0.085867 0.166962 -0.076499
0.092625 0.166962 -0.076499
0.176899 0.166961 -0.076499
0.254116 0.171094 -0.076500
0.330096 0.174800 -0.076504
0.406152 0.177992 -0.076506
0.482736 0.180760 -0.076507
0.559731 0.183130 -0.076509
0.635768 0.184725 -0.076512
0.710461 0.185702 -0.076514
0.783818 0.186123 -0.076517
0.855439 0.186073 -0.076520
0.925067 0.185578 -0.076523
0.991411 0.184501 -0.076527
1.049785 0.181969 -0.076531
-0.104837 0.239854 -0.078729
-0.085869 0.239854 -0.076501
0.096157 0.239854 -0.076504
0.181263 0.239854 -0.076504
0.254116 0.239854 -0.076505
0.330095 0.244652 -0.076506
0.406152 0.248775 -0.076507
0.482736 0.252386 -0.076509
0.559731 0.255456 -0.076511
0.635768 0.257538 -0.076513
0.710461 0.258795 -0.076516
0.783818 0.259341 -0.076518
0.855438 0.259294 -0.076522
0.925067 0.258648 -0.076525
0.991411 0.257238 -0.076529
1.049785 0.253953 -0.076533
-0.104839 0.311545 -0.078031
-0.085871 0.311545 -0.076506
0.099287 0.311545 -0.076507
0.185191 0.311545 -0.076507
0.259205 0.311544 -0.076508
0.330095 0.311544 -0.076508
0.406151 0.316668 -0.076510
0.482736 0.321141 -0.076512
0.559731 0.324939 -0.076514
0.635768 0.327530 -0.076516
0.710461 0.329067 -0.076518
0.783818 0.329755 -0.076521
0.855438 0.329703 -0.076524
0.925067 0.328902 -0.076528
0.991411 0.327149 -0.076532
1.049785 0.323096 -0.076535
-0.104842 0.383352 -0.077379
-0.085874 0.383352 -0.076510
0.101939 0.383352 -0.076510
0.188581 0.383352 -0.076510
0.263561 0.383352 -0.076511
0.335486 0.383352 -0.076512
0.406151 0.383352 -0.076513
0.482736 0.388666 -0.076515
0.559731 0.393201 -0.076517
0.635768 0.396320 -0.076519
0.710460 0.398153 -0.076521
0.783818 0.398979 -0.076524
0.855438 0.398899 -0.076528
0.925067 0.397999 -0.076531
0.991411 0.395858 -0.076535
1.049785 0.391024 -0.076539
-0.104845 0.455654 -0.076785
-0.085878 0.455654 -0.076514
0.104223 0.455654 -0.076515
0.191508 0.455654 -0.076515
0.267395 0.455654 -0.076516
0.340220 0.455654 -0.076516
0.411801 0.455654 -0.076518
0.482735 0.455653 -0.076518
0.559730 0.460935 -0.076520
0.635767 0.464526 -0.076523
0.710460 0.466668 -0.076526
0.783818 0.467640 -0.076529
0.855438 0.467536 -0.076532
0.925066 0.466445 -0.076536
0.991410 0.464010 -0.076543
1.049785 0.458347 -0.076546
-0.104850 0.528312 -0.076261
-0.085884 0.528312 -0.076519
0.106151 0.528312 -0.076519
0.194020 0.528312 -0.076520
0.270657 0.528312 -0.076520
0.344247 0.528312 -0.076521
0.416628 0.528312 -0.076522
0.488338 0.528312 -0.076524
0.559730 0.528312 -0.076526
0.635767 0.532400 -0.076528
0.710460 0.534876 -0.076531
0.783817 0.535945 -0.076534
0.855438 0.535855 -0.076538
0.925066 0.534586 -0.076545
0.991410 0.531831 -0.076548
1.049785 0.525372 -0.076551
-0.104855 0.600077 -0.075900
-0.085895 0.600077 -0.076526
0.107451 0.600077 -0.076526
0.195712 0.600077 -0.076526
0.272841 0.600077 -0.076527
0.346987 0.600077 -0.076528
0.419894 0.600077 -0.076529
0.492141 0.600077 -0.076531
0.564078 0.600077 -0.076533
0.635767 0.600077 -0.076535
0.710459 0.602829 -0.076538
0.783817 0.604037 -0.076544
0.855437 0.603924 -0.076547
0.925066 0.602519 -0.076550
0.991410 0.599394 -0.076554
1.049785 0.592147 -0.076557
-0.104861 0.670615 -0.075684
-0.085898 0.670615 -0.076534
0.108215 0.670615 -0.076534
0.196733 0.670615 -0.076534
0.274182 0.670615 -0.076535
0.348622 0.670615 -0.076536
0.421832 0.670615 -0.076537
0.494444 0.670615 -0.076539
0.566658 0.670615 -0.076544
0.638690 0.670615 -0.076546
0.710459 0.670614 -0.076548
0.783817 0.671971 -0.076551
0.855437 0.671884 -0.076554
0.925066 0.670240 -0.076558
0.991410 0.666797 -0.076561
1.049784 0.658731 -0.076564
-0.104869 0.739816 -0.075594
-0.085907 0.739816 -0.076546
0.108558 0.739816 -0.076546
0.197181 0.739816 -0.076547
0.274750 0.739816 -0.076547
0.349343 0.739816 -0.076547
0.422711 0.739816 -0.076549
0.495432 0.739816 -0.076550
0.567805 0.739816 -0.076552
0.639964 0.739816 -0.076554
0.711938 0.739815 -0.076557
0.783816 0.739815 -0.076560
0.855437 0.739791 -0.076563
0.925065 0.738014 -0.076567
0.991409 0.734130 -0.076570
1.049784 0.725305 -0.076573
-0.104877 0.807428 -0.075612
-0.085916 0.807428 -0.076555
0.108517 0.807428 -0.076555
0.197123 0.807428 -0.076556
0.274704 0.807428 -0.076556
0.349290 0.807428 -0.076557
0.422624 0.807428 -0.076559
0.495341 0.807427 -0.076560
0.567706 0.807427 -0.076562
0.639839 0.807427 -0.076564
0.711790 0.807427 -0.076567
0.783737 0.807427 -0.076570
0.855436 0.807427 -0.076573
0.925065 0.805495 -0.076576
0.991409 0.801408 -0.076582
1.049784 0.791682 -0.076584
-0.104882 0.873169 -0.075737
-0.085921 0.873169 -0.076566
0.108110 0.873169 -0.076566
0.196598 0.873169 -0.076567
0.274020 0.873169 -0.076567
0.348448 0.873169 -0.076568
0.421629 0.873169 -0.076569
0.494157 0.873169 -0.076571
0.566389 0.873169 -0.076573
0.638386 0.873169 -0.076574
0.710103 0.873169 -0.076577
0.781863 0.873168 -0.076583
0.853419 0.873168 -0.076586
0.925064 0.873168 -0.076590
0.991408 0.868694 -0.076593
1.049784 0.858221 -0.076595
-0.104891 0.935712 -0.076001
-0.085943 0.935712 -0.076576
0.107229 0.935712 -0.076577
0.195456 0.935712 -0.076580
0.272534 0.935712 -0.076581
0.346593 0.935712 -0.076582
0.419437 0.935711 -0.076583
0.491583 0.935711 -0.076585
0.563424 0.935711 -0.076586
0.635048 0.935711 -0.076589
0.706492 0.935711 -0.076591
0.777871 0.935711 -0.076594
0.849049 0.935711 -0.076597
0.920299 0.935711 -0.076601
0.991408 0.935710 -0.076604
1.049783 0.924453 -0.076606
-0.104900 0.990868 -0.076591
-0.085948 0.990868 -0.076591
0.105169 0.990868 -0.076591
0.192767 0.990868 -0.076591
0.269050 0.990868 -0.076592
0.342279 0.990868 -0.076593
0.414264 0.990868 -0.076594
0.485590 0.990868 -0.076595
0.556611 0.990868 -0.076597
0.627389 0.990868 -0.076599
0.697942 0.990868 -0.076602
0.768511 0.990868 -0.076604
0.838747 0.990868 -0.076607
0.909308 0.990868 -0.076611
0.979423 0.990867 -0.076615
1.049783 0.990867 -0.076622
-0.104837 -0.098949 0.081620
-0.088917 -0.098949 0.081620
0.091603 -0.098949 0.081620
0.176899 -0.098950 0.080703
0.254116 -0.098950 0.084021
0.330096 -0.098951 0.087304
0.406152 -0.098953 0.090160
0.482737 -0.098955 0.092657
0.559732 -0.098957 0.094755
0.635768 -0.098960 0.096180
0.710461 -0.098963 0.097008
0.783818 -0.098968 0.097387
0.855439 -0.098972 0.097353
0.925067 -0.098963 0.096934
0.991411 -0.098969 0.095977
1.049785 -0.098973 0.093719
-0.104837 -0.083926 0.081620
-0.085869 -0.081050 0.081620
0.091603 -0.081050 0.081620
0.176899 -0.081050 0.082521
0.254116 -0.081051 0.085673
0.330096 -0.081052 0.088466
0.406152 -0.081053 0.090817
0.482736 -0.081054 0.092848
0.559732 -0.081056 0.094581
0.635768 -0.081058 0.095738
0.710461 -0.081061 0.096418
0.783818 -0.081066 0.096723
0.855439 -0.081069 0.096697
0.925067 -0.081073 0.096337
0.991411 -0.081076 0.095550
1.049785 -0.081080 0.093719
-0.104837 0.086467 0.081620
-0.085866 0.086467 0.081620
0.092849 0.086229 0.079812
0.189195 0.076266 0.068680
0.267306 0.066815 0.058166
0.341600 0.060585 0.051004
0.415748 0.056736 0.046410
0.490732 0.054389 0.043527
0.566422 0.052996 0.041781
0.641445 0.052213 0.040812
0.715411 0.051842 0.040367
0.788193 0.051735 0.040277
0.859242 0.051826 0.040449
0.928455 0.052055 0.040809
0.994479 0.052380 0.041288
1.049785 0.086445 0.081590
-0.104838 0.166962 0.080702
-0.085867 0.166962 0.082520
0.074545 0.169549 0.057448
0.178462 0.167226 0.054234
0.259769 0.167875 0.050184
0.336805 0.168310 0.046766
0.412728 0.168905 0.044181
0.488814 0.169693 0.042367
0.565194 0.170577 0.041200
0.640659 0.171185 0.040555
0.714915 0.171472 0.040292
0.787718 0.171486 0.040312
0.858888 0.171272 0.040547
0.928313 0.170764 0.040941
0.994272 0.169862 0.041440
1.049785 0.176911 0.081589
-0.104837 0.239854 0.084019
-0.085869 0.239854 0.085671
0.066699 0.241969 0.047318
0.176482 0.241130 0.046324
0.255205 0.240079 0.045076
0.333203 0.242968 0.043526
0.410105 0.245370 0.042239
0.486898 0.247538 0.041277
0.563795 0.249447 0.040648
0.639629 0.250667 0.040336
0.714076 0.251299 0.040278
0.787192 0.251426 0.040425
0.858467 0.251116 0.040737
0.927968 0.250347 0.041174
0.994007 0.248954 0.041696
1.049785 0.250892 0.081587
-0.104839 0.311545 0.087300
-0.085871 0.311545 0.088453
0.063456 0.313166 0.042802
0.176726 0.312808 0.042470
0.256873 0.312317 0.042024
0.330883 0.311740 0.041531
0.408125 0.315608 0.040964
0.485303 0.318976 0.040553
0.562537 0.321850 0.040320
0.638641 0.323686 0.040277
0.713287 0.324677 0.040399
0.786565 0.324954 0.040664
0.858024 0.324612 0.041047
0.927618 0.323638 0.041534
0.993667 0.321830 0.042080
1.049785 0.320977 0.081585
-0.104842 0.383352 0.090159
-0.085874 0.383352 0.090810
0.062079 0.384580 0.040859
0.177800 0.384434 0.040757
0.259043 0.384155 0.040624
0.334146 0.383871 0.040483
0.406740 0.383478 0.040358
0.484069 0.387953 0.040275
0.561494 0.391706 0.040304
0.637759 0.394157 0.040455
0.712602 0.395537 0.040714
0.785985 0.395964 0.041072
0.857488 0.395615 0.041518
0.927161 0.394485 0.042035
0.993390 0.392276 0.042599
1.049785 0.389467 0.081581
-0.104845 0.455654 0.092654
-0.085879 0.455654 0.092849
0.061603 0.456637 0.040276
0.179222 0.456539 0.040273
0.261404 0.456385 0.040272
0.337383 0.456201 0.040287
0.410896 0.455969 0.040332
0.483205 0.455753 0.040424
0.560650 0.460362 0.040622
0.637062 0.463419 0.040895
0.712029 0.465137 0.041246
0.785472 0.465732 0.041669
0.857067 0.465362 0.042157
0.926759 0.464065 0.042703
0.993058 0.461516 0.043272
1.049785 0.457175 0.081577
-0.104850 0.528312 0.094749
-0.085884 0.528312 0.094565
0.061647 0.529124 0.040521
0.180664 0.529047 0.040556
0.263641 0.528972 0.040615
0.340393 0.528859 0.040707
0.414666 0.528716 0.040837
0.487716 0.528537 0.041009
0.560098 0.528361 0.041243
0.636504 0.531981 0.041600
0.711485 0.534045 0.042011
0.785051 0.534785 0.042476
0.856650 0.534420 0.042988
0.926433 0.532972 0.043542
0.992700 0.530082 0.044108
1.049785 0.524482 0.081572
-0.104855 0.600077 0.096159
-0.085895 0.600077 0.095717
0.062022 0.600737 0.041293
0.181734 0.600701 0.041347
0.265198 0.600646 0.041434
0.342416 0.600586 0.041554
0.417185 0.600471 0.041726
0.490745 0.600386 0.041938
0.563640 0.600273 0.042214
0.636082 0.600146 0.042544
0.711021 0.602504 0.042992
0.784614 0.603412 0.043476
0.856335 0.603064 0.043999
0.926101 0.601465 0.044544
0.992382 0.598200 0.045102
1.049785 0.591470 0.081560
-0.104861 0.670615 0.097003
-0.085898 0.670615 0.096400
0.062630 0.671181 0.042415
0.182410 0.671188 0.042478
0.266130 0.671147 0.042573
0.343606 0.671015 0.042711
0.418621 0.670947 0.042896
0.492488 0.670916 0.043131
0.565635 0.670827 0.043417
0.638397 0.670765 0.043763
0.710766 0.670628 0.044163
0.784323 0.671712 0.044657
0.855997 0.671352 0.045179
0.925793 0.669582 0.045717
0.992226 0.665986 0.046248
1.049784 0.658210 0.081553
-0.104869 0.739816 0.097375
-0.085907 0.739816 0.096699
0.063409 0.740409 0.043784
0.182746 0.740381 0.043850
0.266510 0.740337 0.043948
0.344055 0.740278 0.044092
0.419171 0.740249 0.044279
0.493102 0.740157 0.044515
0.566387 0.740057 0.044808
0.639197 0.740040 0.045149
0.711710 0.739923 0.045551
0.784049 0.739898 0.046015
0.855805 0.739553 0.046522
0.925610 0.737543 0.047038
0.991956 0.733713 0.047542
1.049784 0.724988 0.081545
-0.104877 0.807428 0.097332
-0.085916 0.807428 0.096664
0.064317 0.807823 0.045322
0.182815 0.807809 0.045383
0.266408 0.807787 0.045479
0.343859 0.807784 0.045620
0.418927 0.807745 0.045807
0.492775 0.807699 0.046045
0.565979 0.807646 0.046328
0.638783 0.807588 0.046663
0.711211 0.807525 0.047058
0.783558 0.807488 0.047506
0.855613 0.807478 0.048008
0.925420 0.805397 0.048507
0.991796 0.801073 0.048973
1.049784 0.791469 0.081539
-0.104882 0.873169 0.096892
-0.085921 0.873169 0.096305
0.065330 0.873573 0.046968
0.182583 0.873562 0.047031
0.265815 0.873545 0.047127
0.342990 0.873521 0.047263
0.417805 0.873491 0.047444
0.491445 0.873454 0.047668
0.564448 0.873412 0.047943
0.637059 0.873431 0.048268
0.709305 0.873380 0.048645
0.781414 0.873326 0.049075
0.853322 0.873271 0.049555
0.925277 0.873215 0.050090
0.991574 0.868545 0.050528
1.049784 0.858065 0.081529
-0.104891 0.935712 0.095925
-0.085943 0.935712 0.095520
0.066397 0.936039 0.048658
0.181894 0.936030 0.048713
0.264539 0.936017 0.048805
0.341251 0.935998 0.048935
0.415618 0.935973 0.049110
0.488810 0.935944 0.049321
0.561422 0.935910 0.049585
0.633607 0.935871 0.049890
0.705483 0.935940 0.050256
0.777246 0.935896 0.050663
0.848673 0.935849 0.051120
0.920255 0.935801 0.051635
0.991496 0.935753 0.052190
1.049783 0.924412 0.081513
-0.104900 0.990868 0.093682
-0.085948 0.990868 0.093684
0.067419 0.991174 0.050224
0.180128 0.991167 0.050276
0.261554 0.991156 0.050361
0.337205 0.991141 0.050485
0.410589 0.991121 0.050640
0.482927 0.991097 0.050851
0.554604 0.991069 0.051094
0.625873 0.991037 0.051384
0.696844 0.991002 0.051720
0.767766 0.990969 0.052102
0.838310 0.991031 0.052535
0.909041 0.990995 0.053012
0.979353 0.990953 0.053540
1.049783 0.990867 0.081503
-0.104837 -0.098949 0.157592
-0.089117 -0.098949 0.157592
0.090578 -0.098949 0.157592
0.176899 -0.098950 0.157592
0.254116 -0.098950 0.161069
0.330096 -0.098951 0.164612
0.406152 -0.098953 0.167740
0.482736 -0.098955 0.170546
0.559732 -0.098957 0.172929
0.635768 -0.098960 0.174554
0.710461 -0.098963 0.175508
0.783818 -0.098968 0.175958
0.855439 -0.098972 0.175896
0.925067 -0.098963 0.175417
0.991411 -0.098969 0.174309
1.049785 -0.098973 0.171746
-0.104837 -0.084112 0.157592
-0.085869 -0.081050 0.157592
0.092627 -0.081050 0.157592
0.176899 -0.081050 0.157592
0.254116 -0.081051 0.161489
0.330096 -0.081052 0.164987
0.406152 -0.081053 0.167993
0.482736 -0.081054 0.170620
0.559732 -0.081056 0.172847
0.635768 -0.081058 0.174372
0.710461 -0.081061 0.175263
0.783818 -0.081066 0.175671
0.855439 -0.081069 0.175629
0.925067 -0.081073 0.175161
0.991411 -0.081076 0.174135
1.049785 -0.081080 0.171746
-0.104837 0.085505 0.157592
-0.085866 0.087433 0.157592
0.090441 0.083546 0.170625
0.188533 0.073211 0.165871
0.267693 0.062798 0.162055
0.342407 0.055271 0.159525
0.416672 0.050229 0.158478
0.491616 0.046942 0.158377
0.567232 0.044858 0.158730
0.642163 0.043618 0.159016
0.716015 0.042951 0.159128
0.788790 0.042687 0.159043
0.859724 0.042709 0.158745
0.928971 0.042938 0.158225
0.994834 0.043313 0.157326
1.049785 0.086445 0.166995
-0.104838 0.166962 0.157591
-0.085867 0.166962 0.157591
0.068336 0.169349 0.158234
0.179310 0.166496 0.154099
0.269451 0.159180 0.145900
0.353190 0.148850 0.134371
0.431897 0.138657 0.123108
0.508338 0.129826 0.113232
0.583831 0.122648 0.105066
0.658007 0.117083 0.098603
0.730809 0.112821 0.093549
0.802363 0.109561 0.089629
0.872346 0.107077 0.086594
0.940621 0.105182 0.084251
0.998396 0.141099 0.128693
1.049785 0.166949 0.157578
-0.104837 0.239854 0.161068
-0.085869 0.239854 0.161488
0.055978 0.242283 0.153302
0.161121 0.243962 0.131706
0.257726 0.240202 0.126202
0.342381 0.237784 0.119185
0.422673 0.235110 0.112099
0.500976 0.232658 0.105490
0.578219 0.230651 0.099684
0.653727 0.228757 0.094860
0.727591 0.226981 0.090935
0.799958 0.225299 0.087791
0.870502 0.223654 0.085289
0.939178 0.221947 0.083325
0.998393 0.233163 0.125461
1.049785 0.245044 0.157578
-0.104839 0.311545 0.164610
-0.085871 0.311545 0.164985
0.049869 0.313557 0.152243
0.145755 0.316603 0.113163
0.249313 0.314538 0.110330
0.333243 0.312096 0.106896
0.414717 0.312499 0.102546
0.494316 0.312733 0.098294
0.572772 0.312793 0.094362
0.649342 0.312334 0.090974
0.724033 0.311406 0.088111
0.797182 0.310178 0.085734
