src/luts/Glowing Sky.cube
LUT_3D_SIZE 6
-0.104837 -0.098949 -0.093404
0.176899 -0.098949 -0.093405
0.406152 -0.098953 -0.093409
0.635768 -0.098960 -0.093403
0.855439 -0.098972 -0.093415
1.049785 -0.098973 -0.093429
-0.104838 0.166962 -0.093406
0.176899 0.166961 -0.093407
0.406152 0.177742 -0.093411
0.635768 0.184938 -0.093405
0.855439 0.186377 -0.093417
1.049785 0.181969 -0.093431
-0.104842 0.383352 -0.093403
0.188287 0.383352 -0.093404
0.406151 0.383352 -0.093407
0.635768 0.396389 -0.093416
0.855438 0.398997 -0.093427
1.049785 0.391023 -0.093433
-0.104855 0.600077 -0.093425
0.195927 0.600077 -0.093426
0.419919 0.600077 -0.093429
0.635767 0.600077 -0.093428
0.855437 0.603954 -0.093440
1.049785 0.592147 -0.093453
-0.104877 0.807428 -0.093451
0.197435 0.807428 -0.093451
0.422723 0.807428 -0.093455
0.639872 0.807427 -0.093453
0.855436 0.807427 -0.093451
1.049784 0.791682 -0.093462
-0.104900 0.990868 -0.093470
0.192767 0.990868 -0.093471
0.414263 0.990868 -0.093466
0.627389 0.990868 -0.093473
0.838747 0.990868 -0.093484
1.049783 0.990867 -0.093490
-0.104837 -0.098949 0.157592
0.176899 -0.098950 0.157592
0.406152 -0.098953 0.167740
0.635768 -0.098960 0.174554
0.855439 -0.098972 0.175896
1.049785 -0.098973 0.171746
-0.104838 0.166962 0.157591
0.179310 0.166496 0.154099
0.431897 0.138657 0.123108
0.658007 0.117083 0.098603
0.872346 0.107077 0.086594
1.049785 0.166949 0.157578
-0.104842 0.383352 0.167749
0.135715 0.388047 0.100530
0.408761 0.383895 0.095012
0.645377 0.388132 0.087413
0.866016 0.385692 0.082273
1.049785 0.386553 0.157575
-0.104855 0.600077 0.174547
0.122573 0.603165 0.082708
0.408891 0.602094 0.081711
0.637223 0.600415 0.080232
0.860120 0.600698 0.078795
1.049785 0.590181 0.157576
-0.104877 0.807428 0.175898
0.119267 0.809515 0.078107
0.406708 0.809151 0.077976
0.635501 0.808496 0.077819
0.856463 0.807622 0.077764
1.049784 0.790910 0.157565
-0.104900 0.990868 0.171736
0.118954 0.992445 0.078045
0.397347 0.992299 0.078122
0.620687 0.991984 0.078306
0.836825 0.991551 0.078646
1.049783 0.990867 0.157542
-0.104837 -0.098950 0.361823
0.188290 -0.098951 0.361823
0.406152 -0.098954 0.361823
0.635768 -0.098961 0.374092
0.855439 -0.098973 0.376582
1.049785 -0.098974 0.369074
-0.104839 0.177743 0.361823
0.171535 0.157818 0.394878
0.430130 0.130220 0.379585
0.658853 0.106216 0.371305
0.873840 0.093365 0.363521
1.049785 0.166949 0.364902
-0.104842 0.383352 0.361822
0.118817 0.387719 0.363357
0.411652 0.382313 0.353812
0.677831 0.358677 0.327315
0.912919 0.328405 0.293779
1.049785 0.383347 0.361817
-0.104856 0.600077 0.374089
0.096226 0.603723 0.357543
0.357985 0.610703 0.288046
0.643886 0.601069 0.274175
0.884634 0.588084 0.257828
1.049785 0.588798 0.361814
-0.104877 0.807428 0.376576
0.088886 0.810125 0.353807
0.320532 0.818675 0.242222
0.616046 0.814309 0.236388
0.861918 0.808633 0.228619
1.049784 0.790382 0.361810
-0.104901 0.990868 0.369064
0.087289 0.992925 0.344558
0.338214 0.997734 0.273244
0.594119 0.997576 0.241707
0.828743 0.995540 0.210513
1.049783 0.990867 0.361803
-0.104839 -0.098952 0.566397
0.195936 -0.098952 0.566397
0.419923 -0.098956 0.566397
0.635768 -0.098963 0.566396
0.855439 -0.098975 0.570088
1.049785 -0.098976 0.558935
-0.104838 0.184937 0.566397
0.155122 0.139507 0.618167
0.432970 0.120339 0.599156
0.655489 0.103144 0.581663
0.872258 0.092223 0.573266
1.049785 0.166948 0.557088
-0.104844 0.396390 0.566396
0.113522 0.394099 0.584249
0.406376 0.376370 0.603701
0.675386 0.352126 0.591582
0.913129 0.320195 0.569395
1.049785 0.383347 0.555709
-0.104857 0.600077 0.566395
0.095449 0.603006 0.567615
0.344161 0.609457 0.567068
0.644412 0.598377 0.553851
0.900154 0.579890 0.533703
1.049785 0.600075 0.566393
-0.104878 0.807428 0.570086
0.088735 0.809828 0.563189
0.290350 0.820102 0.527468
0.593369 0.820100 0.490479
0.868381 0.808268 0.472993
1.049784 0.794859 0.566392
-0.104902 0.990868 0.558930
0.087288 0.992858 0.548814
0.333420 0.997785 0.521628
0.604830 0.997566 0.522573
0.829343 0.996972 0.492361
1.049783 0.990867 0.566390
-0.104838 -0.098955 0.762119
0.197453 -0.098955 0.762119
0.422729 -0.098959 0.762119
0.639875 -0.098966 0.762119
0.855438 -0.098965 0.762118
1.049785 -0.098979 0.747324
-0.104839 0.186383 0.762119
0.139762 0.122462 0.814833
0.426891 0.111081 0.799528
0.653502 0.099117 0.784060
0.870146 0.090675 0.773531
1.049785 0.166947 0.746481
-0.104846 0.398999 0.762119
0.108725 0.391996 0.787631
0.397925 0.367037 0.827852
0.669037 0.342405 0.820341
0.909412 0.311902 0.801481
1.049785 0.383347 0.746035
-0.104859 0.603955 0.762118
0.094247 0.604041 0.770398
0.337774 0.603415 0.800901
0.639954 0.593454 0.797806
0.897995 0.574654 0.784059
1.049785 0.600075 0.750180
-0.104880 0.807428 0.762117
0.088497 0.809461 0.762927
0.287277 0.817835 0.765370
0.585879 0.817630 0.759121
0.867042 0.805158 0.745256
1.049784 0.807426 0.762115
-0.104903 0.990868 0.747320
0.087285 0.992587 0.743837
0.324661 0.997676 0.733518
0.600692 0.997397 0.732548
0.840743 0.996531 0.729552
1.049783 0.990867 0.762113
-0.104840 -0.098958 0.935221
0.192789 -0.098959 0.935221
0.414276 -0.098962 0.935221
0.627394 -0.098969 0.935221
0.838750 -0.098968 0.935220
1.049785 -0.098983 0.935220
-0.104842 0.181977 0.935221
0.135662 0.118624 0.978326
0.413015 0.104039 0.972886
0.636849 0.095986 0.960517
0.850609 0.089532 0.950847
1.049785 0.166946 0.935220
-0.104848 0.391027 0.935221
0.104942 0.381398 0.964470
0.397498 0.370598 0.977050
0.637433 0.359243 0.976336
0.867997 0.337337 0.974932
1.049785 0.383346 0.935219
-0.104860 0.592148 0.935220
0.093549 0.590857 0.948209
0.363536 0.587967 0.974568
0.634936 0.592917 0.973248
0.865950 0.581099 0.971170
1.049784 0.600075 0.935219
-0.104877 0.791683 0.935219
0.088463 0.792484 0.940047
0.286872 0.797954 0.962999
0.597706 0.798809 0.965805
0.862279 0.802027 0.960266
1.049784 0.807426 0.935217
-0.104906 0.990868 0.935217
0.087289 0.992439 0.935873
0.309036 0.997601 0.937716
0.593340 0.997158 0.936096
0.835355 0.996023 0.930791
1.049783 0.990867 0.935216
