src/luts/Golden Light.cube
LUT_3D_SIZE 16
-0.080372 -0.073698 -0.067583
-0.044304 -0.073698 -0.067583
0.089627 -0.073698 -0.067583
0.154820 -0.073699 -0.067584
0.224796 -0.073699 -0.067584
0.300753 -0.073700 -0.067585
0.381580 -0.073702 -0.067587
0.466050 -0.073707 -0.067590
0.552778 -0.073710 -0.067593
0.638481 -0.073714 -0.067600
0.721996 -0.073719 -0.067600
0.802840 -0.073717 -0.067606
0.879985 -0.073723 -0.067612
0.953119 -0.073729 -0.067618
1.019978 -0.073732 -0.067621
1.074731 -0.073737 -0.067626
-0.080373 -0.040628 -0.067583
-0.044305 -0.040629 -0.067583
0.089627 -0.058075 -0.067583
0.154820 -0.058865 -0.067584
0.224796 -0.057029 -0.067584
0.300753 -0.054295 -0.067586
0.381580 -0.051153 -0.067587
0.466050 -0.047836 -0.067590
0.552778 -0.044487 -0.067593
0.638481 -0.041644 -0.067600
0.721996 -0.039459 -0.067601
0.802840 -0.037998 -0.067606
0.879985 -0.037330 -0.067612
0.953119 -0.037443 -0.067618
1.019978 -0.038394 -0.067621
1.074731 -0.040712 -0.067627
-0.080373 0.082185 -0.067584
-0.063333 0.082185 -0.067584
0.089627 0.082185 -0.067584
0.154820 0.079538 -0.067584
0.224796 0.085450 -0.067585
0.300753 0.092912 -0.067586
0.381580 0.100020 -0.067588
0.466050 0.106299 -0.067591
0.552778 0.111611 -0.067597
0.638481 0.115482 -0.067601
0.721996 0.118110 -0.067601
0.802840 0.119725 -0.067607
0.879985 0.120428 -0.067613
0.953119 0.120328 -0.067615
1.019978 0.119333 -0.067622
1.074731 0.116695 -0.067627
-0.080373 0.141976 -0.067585
-0.064194 0.141976 -0.067585
0.086735 0.141976 -0.067585
0.154820 0.141976 -0.067585
0.224796 0.149042 -0.067586
0.300753 0.158250 -0.067587
0.381580 0.167299 -0.067589
0.466050 0.175468 -0.067592
0.552778 0.182470 -0.067598
0.638481 0.187659 -0.067598
0.721996 0.191202 -0.067603
0.802840 0.193375 -0.067609
0.879985 0.194330 -0.067615
0.953119 0.194191 -0.067617
1.019978 0.192840 -0.067623
1.074731 0.189291 -0.067629
-0.080374 0.206149 -0.067586
-0.062190 0.206149 -0.067586
0.093189 0.206149 -0.067587
0.162528 0.206149 -0.067587
0.224795 0.206149 -0.067588
0.300753 0.217867 -0.067589
0.381580 0.229427 -0.067591
0.466050 0.239916 -0.067597
0.552778 0.248969 -0.067601
0.638481 0.255646 -0.067601
0.721996 0.260224 -0.067606
0.802840 0.263043 -0.067612
0.879985 0.264285 -0.067618
0.953119 0.264115 -0.067620
1.019978 0.262378 -0.067626
1.074731 0.257777 -0.067632
-0.080376 0.275781 -0.067590
-0.059213 0.275781 -0.067590
0.101317 0.275781 -0.067590
0.172569 0.275780 -0.067590
0.237582 0.275780 -0.067591
0.300753 0.275780 -0.067592
0.381579 0.290016 -0.067597
0.466050 0.302924 -0.067600
0.552777 0.314061 -0.067600
0.638480 0.322328 -0.067605
0.721996 0.327991 -0.067610
0.802840 0.331466 -0.067616
0.879985 0.333013 -0.067618
0.953118 0.332796 -0.067624
1.019978 0.330622 -0.067631
1.074731 0.324953 -0.067636
-0.080379 0.349911 -0.067597
-0.055794 0.349911 -0.067597
0.109074 0.349911 -0.067597
0.182457 0.349910 -0.067598
0.250198 0.349910 -0.067598
0.316255 0.349910 -0.067600
0.381579 0.349910 -0.067601
0.466049 0.365289 -0.067601
0.552777 0.378611 -0.067605
0.638480 0.388438 -0.067610
0.721995 0.395156 -0.067616
0.802839 0.399381 -0.067617
0.879985 0.401207 -0.067623
0.953118 0.400903 -0.067630
1.019978 0.398358 -0.067636
1.074731 0.391552 -0.067635
-0.080384 0.427353 -0.067600
-0.052175 0.427353 -0.067600
0.115915 0.427353 -0.067600
0.191347 0.427353 -0.067601
0.261638 0.427352 -0.067601
0.330343 0.427352 -0.067603
0.398368 0.427352 -0.067604
0.466049 0.427352 -0.067606
0.552777 0.442826 -0.067611
0.638480 0.454271 -0.067617
0.721995 0.462105 -0.067618
0.802839 0.466928 -0.067624
0.879984 0.469078 -0.067630
0.953118 0.468764 -0.067631
1.019978 0.465777 -0.067637
1.074731 0.457911 -0.067642
-0.080387 0.506894 -0.067609
-0.048533 0.506894 -0.067609
0.121710 0.506894 -0.067609
0.199000 0.506894 -0.067610
0.271506 0.506894 -0.067611
0.342511 0.506894 -0.067612
0.412872 0.506894 -0.067614
0.482908 0.506894 -0.067616
0.552776 0.506894 -0.067619
0.638480 0.519940 -0.067620
0.721995 0.528864 -0.067627
0.802839 0.534413 -0.067633
0.879984 0.536855 -0.067633
0.953118 0.536487 -0.067639
1.019978 0.533051 -0.067645
1.074730 0.524075 -0.067650
-0.080394 0.585472 -0.067616
-0.045441 0.585472 -0.067616
0.125934 0.585472 -0.067616
0.204633 0.585472 -0.067617
0.278796 0.585472 -0.067618
0.351513 0.585471 -0.067619
0.423608 0.585471 -0.067621
0.495375 0.585471 -0.067624
0.566986 0.585471 -0.067627
0.638479 0.585471 -0.067630
0.721994 0.595558 -0.067636
0.802839 0.601757 -0.067637
0.879984 0.604484 -0.067643
0.953117 0.604062 -0.067649
1.019978 0.600275 -0.067651
1.074730 0.590144 -0.067655
-0.080410 0.662107 -0.067629
-0.043073 0.662107 -0.067629
0.128797 0.662107 -0.067629
0.208489 0.662107 -0.067630
0.283776 0.662107 -0.067631
0.357661 0.662107 -0.067633
0.430944 0.662107 -0.067635
0.503926 0.662107 -0.067631
0.576742 0.662107 -0.067634
0.649438 0.662107 -0.067638
0.721994 0.662107 -0.067642
0.802838 0.668990 -0.067648
0.879984 0.672027 -0.067651
0.953117 0.671577 -0.067657
1.019977 0.667356 -0.067665
1.074730 0.656112 -0.067669
-0.080417 0.736268 -0.067638
-0.041497 0.736268 -0.067638
0.130550 0.736268 -0.067638
0.210861 0.736268 -0.067639
0.286855 0.736268 -0.067640
0.361459 0.736268 -0.067641
0.435489 0.736268 -0.067643
0.509209 0.736268 -0.067646
0.582773 0.736268 -0.067649
0.656179 0.736268 -0.067649
0.729539 0.736267 -0.067653
0.802838 0.736267 -0.067661
0.879983 0.739639 -0.067667
0.953117 0.739098 -0.067667
1.019977 0.734500 -0.067673
1.074730 0.722128 -0.067676
-0.080427 0.806950 -0.067650
-0.040785 0.806950 -0.067650
0.131319 0.806950 -0.067650
0.211897 0.806950 -0.067651
0.288220 0.806950 -0.067652
0.363177 0.806950 -0.067654
0.437497 0.806950 -0.067656
0.511528 0.806950 -0.067661
0.585410 0.806950 -0.067664
0.659171 0.806949 -0.067668
0.732811 0.806949 -0.067666
0.806521 0.806949 -0.067671
0.879983 0.806949 -0.067677
0.953116 0.806426 -0.067683
1.019977 0.801407 -0.067684
1.074730 0.787923 -0.067687
-0.080438 0.873926 -0.067670
-0.040922 0.873926 -0.067670
0.131192 0.873926 -0.067670
0.211742 0.873926 -0.067671
0.287999 0.873926 -0.067666
0.362930 0.873926 -0.067667
0.437206 0.873926 -0.067669
0.511192 0.873926 -0.067672
0.585027 0.873926 -0.067675
0.658728 0.873925 -0.067679
0.732311 0.873925 -0.067683
0.806006 0.873925 -0.067684
0.879445 0.873925 -0.067690
0.953116 0.873925 -0.067696
1.019977 0.868507 -0.067701
1.074729 0.853911 -0.067703
-0.080450 0.935316 -0.067682
-0.041972 0.935316 -0.067682
0.130116 0.935316 -0.067682
0.210276 0.935316 -0.067683
0.286105 0.935316 -0.067684
0.360564 0.935316 -0.067685
0.434402 0.935316 -0.067683
0.507956 0.935316 -0.067686
0.581325 0.935316 -0.067689
0.654582 0.935316 -0.067692
0.727652 0.935316 -0.067697
0.800866 0.935316 -0.067702
0.873898 0.935316 -0.067703
0.947057 0.935315 -0.067709
1.019976 0.935315 -0.067716
1.074729 0.919669 -0.067717
-0.080460 0.985568 -0.067693
-0.044504 0.985568 -0.067693
0.127226 0.985568 -0.067693
0.206405 0.985568 -0.067694
0.281093 0.985568 -0.067695
0.354392 0.985568 -0.067697
0.427011 0.985568 -0.067698
0.499321 0.985567 -0.067701
0.571526 0.985567 -0.067704
0.643585 0.985567 -0.067703
0.715474 0.985567 -0.067707
0.787472 0.985567 -0.067712
0.859257 0.985567 -0.067718
0.931227 0.985567 -0.067717
1.002872 0.985566 -0.067727
1.074729 0.985566 -0.067734
-0.080372 -0.073698 -0.037258
-0.044304 -0.073698 -0.037258
0.089627 -0.073698 -0.053256
0.154820 -0.073699 -0.053982
0.224796 -0.073699 -0.052296
0.300753 -0.073700 -0.049793
0.381580 -0.073702 -0.046913
0.466050 -0.073707 -0.043867
0.552778 -0.073710 -0.040798
0.638481 -0.073714 -0.038191
0.721996 -0.073719 -0.036192
0.802840 -0.073717 -0.034856
0.879985 -0.073723 -0.034242
0.953119 -0.073729 -0.034351
1.019978 -0.073732 -0.035224
1.074731 -0.073737 -0.037348
-0.080373 -0.040629 -0.037258
-0.044305 -0.040629 -0.037259
0.089627 -0.040629 -0.037259
0.154820 -0.040630 -0.037260
0.224796 -0.040631 -0.037261
0.300753 -0.040630 -0.037261
0.381580 -0.040636 -0.037264
0.466050 -0.040641 -0.037270
0.552778 -0.040645 -0.037276
0.638481 -0.040649 -0.037283
0.721996 -0.040660 -0.037291
0.802840 -0.040668 -0.037301
0.879985 -0.040677 -0.037313
0.953119 -0.040689 -0.037324
1.019978 -0.040703 -0.037338
1.074731 -0.040712 -0.037349
-0.080373 0.082185 -0.053257
-0.044306 0.082185 -0.037259
0.089627 0.082185 -0.037260
0.154820 0.085569 -0.037261
0.224796 0.091462 -0.037262
0.300753 0.097596 -0.037262
0.381580 0.103280 -0.037266
0.466050 0.108294 -0.037271
0.552778 0.112578 -0.037278
0.638481 0.115708 -0.037284
0.721996 0.117855 -0.037294
0.802840 0.119165 -0.037303
0.879985 0.119741 -0.037315
0.953119 0.119651 -0.037326
1.019978 0.118837 -0.037340
1.074731 0.116695 -0.037350
-0.080373 0.141976 -0.053978
-0.044307 0.141976 -0.037261
0.093310 0.141976 -0.037262
0.154820 0.141976 -0.037262
0.224796 0.150811 -0.037261
0.300753 0.160073 -0.037264
0.381580 0.168706 -0.037269
0.466050 0.176387 -0.037273
0.552778 0.182928 -0.037282
0.638481 0.187767 -0.037288
0.721996 0.191056 -0.037298
0.802840 0.193083 -0.037307
0.879985 0.193985 -0.037319
0.953119 0.193856 -0.037332
1.019978 0.192611 -0.037341
1.074731 0.189291 -0.037352
-0.080374 0.206149 -0.052300
-0.044311 0.206149 -0.037263
0.099746 0.206149 -0.037263
0.164462 0.206149 -0.037264
0.224795 0.206149 -0.037265
0.300753 0.218549 -0.037269
0.381580 0.230127 -0.037271
0.466050 0.240421 -0.037279
0.552778 0.249234 -0.037284
0.638481 0.255719 -0.037293
0.721996 0.260143 -0.037301
0.802840 0.262887 -0.037313
0.879985 0.264074 -0.037323
0.953119 0.263895 -0.037336
1.019978 0.262221 -0.037348
1.074731 0.257777 -0.037358
-0.080376 0.275781 -0.049795
-0.044315 0.275781 -0.037269
0.106435 0.275781 -0.037270
0.174565 0.275780 -0.037271
0.238325 0.275780 -0.037270
0.300753 0.275780 -0.037272
0.381579 0.290303 -0.037279
0.466050 0.303198 -0.037284
0.552777 0.314241 -0.037290
0.638480 0.322366 -0.037302
0.721996 0.327926 -0.037311
0.802840 0.331347 -0.037322
0.879985 0.332866 -0.037331
0.953118 0.332631 -0.037342
1.019978 0.330528 -0.037355
1.074731 0.324953 -0.037364
-0.080379 0.349911 -0.046918
-0.044325 0.349911 -0.037279
0.112622 0.349910 -0.037280
0.183970 0.349910 -0.037281
0.250955 0.349910 -0.037283
0.316580 0.349910 -0.037282
0.381579 0.349910 -0.037285
0.466049 0.365428 -0.037293
0.552777 0.378683 -0.037302
0.638480 0.388479 -0.037311
0.721995 0.395156 -0.037321
0.802839 0.399257 -0.037332
0.879985 0.401083 -0.037340
0.953118 0.400817 -0.037354
1.019978 0.398273 -0.037364
1.074731 0.391552 -0.037375
-0.080384 0.427353 -0.043881
-0.044336 0.427353 -0.037293
0.118094 0.427353 -0.037290
0.192336 0.427353 -0.037291
0.262178 0.427352 -0.037294
0.330618 0.427352 -0.037297
0.398484 0.427352 -0.037300
0.466049 0.427352 -0.037302
0.552777 0.442871 -0.037312
0.638480 0.454289 -0.037321
0.721995 0.462079 -0.037332
0.802839 0.466897 -0.037342
0.879984 0.469005 -0.037355
0.953118 0.468694 -0.037367
1.019978 0.465728 -0.037378
1.074731 0.457911 -0.037388
-0.080387 0.506894 -0.040830
-0.044347 0.506894 -0.037307
0.122754 0.506894 -0.037308
0.199500 0.506894 -0.037309
0.271789 0.506894 -0.037309
0.342688 0.506894 -0.037314
0.412970 0.506894 -0.037317
0.482931 0.506894 -0.037319
0.552776 0.506894 -0.037325
0.638480 0.519949 -0.037337
0.721995 0.528887 -0.037349
0.802839 0.534362 -0.037360
0.879984 0.536782 -0.037370
0.953118 0.536409 -0.037382
1.019978 0.533035 -0.037393
1.074730 0.524075 -0.037401
-0.080394 0.585472 -0.038236
-0.044365 0.585472 -0.037329
0.126177 0.585472 -0.037330
0.204770 0.585472 -0.037331
0.278867 0.585472 -0.037332
0.351558 0.585471 -0.037335
0.423608 0.585471 -0.037339
0.495397 0.585471 -0.037341
0.566993 0.585471 -0.037349
0.638479 0.585471 -0.037354
0.721994 0.595551 -0.037366
0.802839 0.601711 -0.037378
0.879984 0.604448 -0.037391
0.953118 0.604021 -0.037400
1.019978 0.600218 -0.037411
1.074730 0.590144 -0.037420
-0.080410 0.662107 -0.036254
-0.044380 0.662107 -0.037352
0.128507 0.662107 -0.037353
0.208346 0.662107 -0.037354
0.283697 0.662107 -0.037356
0.357606 0.662107 -0.037360
0.430902 0.662107 -0.037361
0.503895 0.662107 -0.037368
0.576728 0.662107 -0.037372
0.649431 0.662107 -0.037380
0.721994 0.662107 -0.037389
0.802838 0.668979 -0.037400
0.879984 0.672003 -0.037411
0.953117 0.671545 -0.037424
1.019977 0.667330 -0.037433
1.074730 0.656112 -0.037441
-0.080417 0.736268 -0.034940
-0.044401 0.736268 -0.037381
0.129942 0.736268 -0.037379
0.210547 0.736268 -0.037381
0.286671 0.736268 -0.037385
0.361349 0.736268 -0.037388
0.435400 0.736268 -0.037389
0.509131 0.736268 -0.037395
0.582733 0.736268 -0.037399
0.656153 0.736268 -0.037409
0.729520 0.736267 -0.037415
0.802838 0.736267 -0.037425
0.879983 0.739621 -0.037435
0.953117 0.739068 -0.037448
1.019977 0.734471 -0.037457
1.074730 0.722128 -0.037463
-0.080427 0.806950 -0.034352
-0.044429 0.806950 -0.037409
0.130568 0.806950 -0.037409
0.211526 0.806950 -0.037411
0.287988 0.806950 -0.037413
0.362968 0.806950 -0.037417
0.437376 0.806950 -0.037419
0.511455 0.806950 -0.037426
0.585365 0.806950 -0.037430
0.659128 0.806949 -0.037436
0.732768 0.806949 -0.037445
0.806507 0.806949 -0.037453
0.879983 0.806949 -0.037465
0.953116 0.806416 -0.037475
1.019977 0.801394 -0.037487
1.074730 0.787923 -0.037490
-0.080438 0.873926 -0.034479
-0.044452 0.873926 -0.037441
0.130468 0.873926 -0.037441
0.211382 0.873926 -0.037443
0.287788 0.873926 -0.037445
0.362758 0.873926 -0.037448
0.437084 0.873926 -0.037450
0.511084 0.873926 -0.037455
0.584945 0.873926 -0.037462
0.658722 0.873926 -0.037470
0.732259 0.873925 -0.037479
0.805983 0.873925 -0.037488
0.879433 0.873925 -0.037498
0.953116 0.873925 -0.037510
1.019977 0.868501 -0.037519
1.074729 0.853911 -0.037521
-0.080450 0.935316 -0.035373
-0.044476 0.935316 -0.037472
0.129579 0.935316 -0.037473
0.210007 0.935316 -0.037474
0.285950 0.935316 -0.037479
0.360422 0.935316 -0.037481
0.434314 0.935316 -0.037485
0.507869 0.935316 -0.037490
0.581268 0.935316 -0.037494
0.654507 0.935316 -0.037501
0.727608 0.935316 -0.037508
0.800876 0.935316 -0.037520
0.873883 0.935316 -0.037530
0.947049 0.935315 -0.037540
1.019976 0.935315 -0.037554
1.074729 0.919669 -0.037556
-0.080460 0.985568 -0.037506
-0.044504 0.985568 -0.037503
0.127226 0.985568 -0.037504
0.206405 0.985568 -0.037505
0.281093 0.985568 -0.037507
0.354392 0.985568 -0.037508
0.427011 0.985567 -0.037512
0.499321 0.985567 -0.037518
0.571526 0.985567 -0.037523
0.643585 0.985567 -0.037527
0.715474 0.985567 -0.037538
0.787472 0.985567 -0.037546
0.859256 0.985567 -0.037557
0.931227 0.985567 -0.037567
1.002872 0.985566 -0.037578
1.074729 0.985566 -0.037593
-0.080372 -0.073698 0.075363
-0.063332 -0.073698 0.075363
0.089627 -0.073698 0.075362
0.154820 -0.073699 0.072935
0.224796 -0.073699 0.078360
0.300753 -0.073700 0.085194
0.381580 -0.073702 0.091724
0.466050 -0.073707 0.097477
0.552778 -0.073710 0.102351
0.638481 -0.073714 0.105899
0.721996 -0.073719 0.108308
0.802840 -0.073717 0.109783
0.879985 -0.073723 0.110433
0.953119 -0.073729 0.110334
1.019978 -0.073732 0.109420
1.074731 -0.073737 0.107005
-0.080373 -0.058075 0.075363
-0.044305 -0.040629 0.075362
0.089627 -0.040629 0.075362
0.154820 -0.040630 0.078469
0.224796 -0.040631 0.083872
0.300753 -0.040630 0.089499
0.381580 -0.040636 0.094711
0.466050 -0.040641 0.099307
0.552778 -0.040645 0.103235
0.638481 -0.040649 0.106105
0.721996 -0.040660 0.108070
0.802840 -0.040668 0.109273
0.879985 -0.040679 0.109800
0.953119 -0.040689 0.109721
1.019978 -0.040703 0.108976
1.074731 -0.040712 0.107005
-0.080373 0.082185 0.075362
-0.044306 0.082185 0.075362
0.091958 0.081699 0.071792
0.167795 0.072613 0.061076
0.238351 0.063971 0.051184
0.312041 0.058358 0.044456
0.390597 0.055123 0.040379
0.473184 0.053361 0.038088
0.558499 0.052462 0.036940
0.643261 0.052105 0.036534
0.726028 0.052065 0.036592
0.806311 0.052238 0.036951
0.883015 0.052545 0.037503
0.955716 0.052947 0.038173
1.019978 0.082162 0.075335
1.074731 0.082154 0.075331
-0.080373 0.141976 0.072934
-0.044307 0.141976 0.078468
0.076619 0.144531 0.052016
0.157058 0.142047 0.049074
0.230862 0.145698 0.044779
0.307490 0.150102 0.041283
0.387849 0.154840 0.038870
0.471533 0.159520 0.037417
0.557503 0.163825 0.036699
0.642586 0.167045 0.036513
0.725640 0.169284 0.036691
0.806043 0.170627 0.037111
0.882831 0.171173 0.037693
0.955558 0.170943 0.038380
1.019978 0.177179 0.075334
1.074731 0.174630 0.075330
-0.080375 0.206149 0.078359
-0.044311 0.206149 0.083870
0.069461 0.208288 0.042610
0.158411 0.207369 0.041716
0.226262 0.206265 0.040600
0.304005 0.215483 0.038847
0.385409 0.224283 0.037587
0.469857 0.232279 0.036836
0.556343 0.239309 0.036529
0.641769 0.244474 0.036580
0.724991 0.247975 0.036892
0.805551 0.250067 0.037388
0.882461 0.250867 0.038007
0.955297 0.250496 0.038710
1.019978 0.252757 0.075332
1.074731 0.248733 0.075325
-0.080376 0.275781 0.085196
-0.044315 0.275781 0.089496
0.066501 0.277358 0.038402
0.163029 0.276980 0.038126
0.234947 0.276470 0.037760
0.301721 0.275884 0.037367
0.383567 0.288179 0.036800
0.468434 0.299194 0.036535
0.555237 0.308737 0.036557
0.640971 0.315691 0.036811
0.724361 0.320399 0.037246
0.805118 0.323195 0.037812
0.882118 0.324287 0.038472
0.955054 0.323793 0.039191
1.019978 0.324009 0.075329
1.074731 0.318693 0.075323
-0.080379 0.349911 0.091718
-0.044325 0.349911 0.094706
0.065326 0.351081 0.036777
0.168664 0.350894 0.036713
0.244201 0.350657 0.036632
0.314336 0.350320 0.036559
0.382322 0.349976 0.036514
0.467353 0.363824 0.036578
0.554390 0.375754 0.036839
0.640204 0.384482 0.037252
0.723789 0.390352 0.037787
0.804691 0.393861 0.038414
0.881731 0.395228 0.039100
0.954717 0.394664 0.039821
1.019978 0.393514 0.075323
1.074731 0.386971 0.075319
-0.080384 0.427353 0.097479
-0.044336 0.427353 0.099301
0.065002 0.428262 0.036552
0.174266 0.428160 0.036571
0.253014 0.428007 0.036610
0.326101 0.427842 0.036680
0.396914 0.427615 0.036788
0.466549 0.427405 0.036948
0.553676 0.441654 0.037382
0.639643 0.452054 0.037920
0.723304 0.459096 0.038533
0.804193 0.463286 0.039204
0.881373 0.464964 0.039908
0.954367 0.464338 0.040624
1.019978 0.462176 0.075318
1.074731 0.454426 0.075315
-0.080387 0.506894 0.102342
-0.044346 0.506894 0.103226
0.065158 0.507583 0.037177
0.179353 0.507544 0.037231
0.260871 0.507436 0.037322
0.336454 0.507344 0.037455
0.409711 0.507211 0.037637
0.481767 0.507061 0.037877
0.553149 0.506914 0.038174
0.639147 0.518998 0.038808
0.722920 0.527137 0.039480
0.803886 0.532063 0.040180
0.881066 0.534019 0.040892
0.954176 0.533309 0.041602
1.019978 0.530341 0.075313
1.074730 0.521419 0.075310
-0.080394 0.585472 0.105887
-0.044365 0.585472 0.106096
0.065624 0.586032 0.038332
0.183217 0.586012 0.038400
0.266720 0.585962 0.038514
0.344135 0.585896 0.038675
0.419150 0.585806 0.038891
0.492939 0.585715 0.039161
0.566088 0.585616 0.039497
0.638785 0.585503 0.039900
0.722513 0.594797 0.040617
0.803535 0.600393 0.041341
0.880768 0.602651 0.042047
0.953923 0.601872 0.042738
1.019978 0.598234 0.075307
1.074730 0.588111 0.075304
-0.080410 0.662107 0.108292
-0.044381 0.662107 0.108058
0.066290 0.662546 0.039812
0.185936 0.662553 0.039888
0.270757 0.662517 0.040010
0.349356 0.662468 0.040181
0.425570 0.662408 0.040408
0.500549 0.662347 0.040691
0.574886 0.662269 0.041040
0.648765 0.662188 0.041448
0.722275 0.662135 0.041926
0.803311 0.668380 0.042663
0.880557 0.670916 0.043365
0.953699 0.670098 0.044033
1.019977 0.665824 0.075299
1.074730 0.654552 0.075296
-0.080417 0.736268 0.109768
-0.044401 0.736268 0.109257
0.067111 0.736678 0.041505
0.187659 0.736650 0.041582
0.273245 0.736612 0.041706
0.352541 0.736560 0.041874
0.429439 0.736495 0.042101
0.505146 0.736508 0.042385
0.580173 0.736423 0.042727
0.654707 0.736328 0.043135
0.728939 0.736321 0.043605
0.803101 0.736304 0.044139
0.880375 0.739109 0.044829
0.953524 0.738205 0.045473
1.019977 0.733352 0.075287
1.074730 0.720971 0.075285
-0.080427 0.806950 0.110412
-0.044429 0.806950 0.109785
0.068026 0.807320 0.043304
0.188498 0.807308 0.043375
0.274303 0.807289 0.043498
0.353856 0.807262 0.043662
0.431034 0.807229 0.043879
0.507009 0.807225 0.044157
0.582295 0.807180 0.044488
0.657162 0.807131 0.044884
0.731597 0.807079 0.045336
0.806134 0.807025 0.045852
0.880220 0.806971 0.046428
0.953312 0.806087 0.047037
1.019977 0.800770 0.075278
1.074730 0.787111 0.075276
-0.080438 0.873926 0.110309
-0.044452 0.873926 0.109690
0.069014 0.874256 0.045149
0.188490 0.874246 0.045216
0.274067 0.874231 0.045325
0.353503 0.874211 0.045480
0.430536 0.874185 0.045689
0.506376 0.874154 0.045954
0.581542 0.874162 0.046274
0.656327 0.874122 0.046649
0.730720 0.874079 0.047075
0.805049 0.874035 0.047569
0.879059 0.873990 0.048122
0.953225 0.873945 0.048731
1.019977 0.868179 0.075266
1.074729 0.853437 0.075265
-0.080450 0.935316 0.109394
-0.044476 0.935316 0.108943
0.070003 0.935556 0.046927
0.187547 0.935549 0.046988
0.272393 0.935537 0.047099
0.351232 0.935521 0.047248
0.427685 0.935500 0.047443
0.502991 0.935510 0.047686
0.577662 0.935481 0.047986
0.651911 0.935448 0.048339
0.725747 0.935487 0.048745
0.799629 0.935450 0.049208
0.873187 0.935412 0.049721
0.946755 0.935371 0.050302
1.019976 0.935315 0.075251
1.074729 0.919441 0.075251
-0.080460 0.985568 0.106973
-0.044505 0.985568 0.106973
0.070876 0.985781 0.048445
0.184859 0.985775 0.048509
0.268025 0.985766 0.048603
0.345421 0.985753 0.048740
0.420494 0.985736 0.048917
0.494467 0.985715 0.049147
0.567821 0.985691 0.049421
0.640807 0.985664 0.049746
0.713406 0.985635 0.050121
0.785962 0.985604 0.050554
0.858201 0.985675 0.051029
0.930588 0.985641 0.051573
1.002614 0.985566 0.075242
1.074729 0.985566 0.075238
-0.080372 -0.073698 0.130187
-0.064193 -0.073698 0.130187
0.086736 -0.073698 0.130187
0.154820 -0.073699 0.130187
0.224796 -0.073699 0.136669
0.300753 -0.073701 0.145121
0.381580 -0.073702 0.153422
0.466050 -0.073707 0.160910
0.552778 -0.073711 0.167342
0.638481 -0.073715 0.172085
0.721996 -0.073719 0.175323
0.802840 -0.073717 0.177325
0.879985 -0.073723 0.178179
0.953119 -0.073729 0.178055
1.019978 -0.073732 0.176835
1.074731 -0.073737 0.173571
-0.080373 -0.058864 0.130187
-0.044305 -0.040629 0.130187
0.093311 -0.040629 0.130187
0.154820 -0.040630 0.130187
0.224796 -0.040631 0.138288
0.300753 -0.040630 0.146790
0.381580 -0.040636 0.154701
0.466050 -0.040641 0.161741
0.552778 -0.040645 0.167741
0.638481 -0.040650 0.172177
0.721996 -0.040661 0.175213
0.802840 -0.040668 0.177055
0.879985 -0.040679 0.177891
0.953119 -0.040689 0.177742
1.019978 -0.040703 0.176604
1.074731 -0.040712 0.173571
-0.080373 0.079539 0.130187
-0.044306 0.085570 0.130187
0.090070 0.079456 0.142470
0.168048 0.069241 0.137355
0.239915 0.058260 0.135863
0.313858 0.050412 0.136729
0.392208 0.045423 0.139490
0.474597 0.042452 0.143044
0.559761 0.040806 0.146655
0.644265 0.040032 0.149456
0.726980 0.039816 0.151439
0.807122 0.039959 0.152638
0.883713 0.040328 0.153094
0.956351 0.040851 0.152870
1.019978 0.082162 0.162461
1.074731 0.082154 0.160120
-0.080373 0.141976 0.130187
-0.044307 0.141976 0.130187
0.068869 0.144719 0.129533
0.158850 0.141121 0.124016
0.243117 0.131911 0.112945
0.324519 0.120703 0.100135
0.405110 0.111171 0.089192
0.487253 0.104093 0.080800
0.571268 0.099144 0.074722
0.654484 0.095833 0.070547
0.736005 0.093663 0.067727
0.815252 0.092205 0.065837
0.891119 0.091251 0.064603
0.962997 0.090646 0.063824
1.019978 0.141955 0.130167
1.074731 0.141953 0.130164
-0.080375 0.206149 0.136668
-0.044311 0.206149 0.138287
0.055149 0.209018 0.126263
0.140591 0.210100 0.100006
0.229354 0.206140 0.095051
0.312509 0.207856 0.087898
0.395960 0.209811 0.081348
0.480712 0.212088 0.075920
0.566689 0.214547 0.071724
0.651360 0.216359 0.068707
0.733795 0.217483 0.066587
0.813573 0.217910 0.065136
0.889828 0.217649 0.064181
0.962117 0.216705 0.063586
1.019978 0.233714 0.130165
1.074731 0.230859 0.130163
-0.080377 0.275781 0.145120
-0.044316 0.275781 0.146789
0.048250 0.278032 0.128628
0.127658 0.280157 0.083876
0.226283 0.278192 0.081694
0.304140 0.275958 0.079139
0.388999 0.283316 0.075131
0.475249 0.290095 0.071697
0.562517 0.296118 0.068940
0.648207 0.300370 0.066893
0.731352 0.303028 0.065428
0.811747 0.304339 0.064413
