src/luts/Golden Light.cube
LUT_3D_SIZE 6
-0.080372 -0.073698 -0.067583
0.154820 -0.073699 -0.067584
0.381580 -0.073702 -0.067587
0.638481 -0.073714 -0.067600
0.879985 -0.073723 -0.067612
1.074731 -0.073737 -0.067626
-0.080373 0.141976 -0.067585
0.154820 0.141976 -0.067585
0.381580 0.167299 -0.067589
0.638481 0.187659 -0.067598
0.879985 0.194330 -0.067615
1.074731 0.189291 -0.067629
-0.080379 0.349911 -0.067597
0.182457 0.349910 -0.067598
0.381579 0.349910 -0.067601
0.638480 0.388438 -0.067610
0.879985 0.401207 -0.067623
1.074731 0.391552 -0.067635
-0.080394 0.585472 -0.067616
0.204633 0.585472 -0.067617
0.423608 0.585471 -0.067621
0.638479 0.585471 -0.067630
0.879984 0.604484 -0.067643
1.074730 0.590144 -0.067655
-0.080427 0.806950 -0.067650
0.211897 0.806950 -0.067651
0.437497 0.806950 -0.067656
0.659171 0.806949 -0.067668
0.879983 0.806949 -0.067677
1.074730 0.787923 -0.067687
-0.080460 0.985568 -0.067693
0.206405 0.985568 -0.067694
0.427011 0.985568 -0.067698
0.643585 0.985567 -0.067703
0.859257 0.985567 -0.067718
1.074729 0.985566 -0.067734
-0.080372 -0.073698 0.130187
0.154820 -0.073699 0.130187
0.381580 -0.073702 0.153422
0.638481 -0.073715 0.172085
0.879985 -0.073723 0.178179
1.074731 -0.073737 0.173571
-0.080373 0.141976 0.130187
0.158850 0.141121 0.124016
0.405110 0.111171 0.089192
0.654484 0.095833 0.070547
0.891119 0.091251 0.064603
1.074731 0.141953 0.130164
-0.080380 0.349911 0.153420
0.120411 0.353683 0.074186
0.384138 0.350106 0.070613
0.645360 0.375740 0.065363
0.886951 0.382221 0.063374
1.074731 0.378377 0.130172
-0.080394 0.585472 0.172078
0.113026 0.587598 0.063753
0.409098 0.586823 0.063444
0.639734 0.585609 0.063128
0.883150 0.598855 0.063204
1.074730 0.584321 0.130160
-0.080427 0.806950 0.178166
0.112345 0.808335 0.063540
0.416572 0.808119 0.063701
0.652910 0.807620 0.064074
0.880819 0.807045 0.064752
1.074729 0.785695 0.130142
-0.080460 0.985568 0.173563
0.113173 0.986531 0.065776
0.405169 0.986466 0.065999
0.634555 0.986253 0.066465
0.856232 0.985924 0.067219
1.074728 0.985566 0.130129
-0.080373 -0.073699 0.320877
0.182459 -0.073700 0.320876
0.381580 -0.073706 0.320876
0.638481 -0.073716 0.356202
0.879985 -0.073724 0.367863
1.074731 -0.073738 0.359079
-0.080374 0.167300 0.320876
0.149294 0.129687 0.359739
0.405152 0.099193 0.335917
0.656541 0.078921 0.346640
0.893019 0.071545 0.348460
1.074731 0.141953 0.346940
-0.080380 0.349910 0.320876
0.095267 0.354110 0.321070
0.391536 0.347828 0.305672
0.692330 0.312260 0.263536
0.939030 0.280372 0.227240
1.074731 0.349907 0.320871
-0.080403 0.585472 0.356199
0.078096 0.588401 0.336392
0.329694 0.596334 0.225775
0.648370 0.585761 0.213170
0.907621 0.577035 0.198847
1.074730 0.572513 0.320870
-0.080428 0.806950 0.367857
0.075021 0.808968 0.341475
0.301039 0.816782 0.188733
0.627301 0.812662 0.184426
0.886880 0.807501 0.179015
1.074730 0.781143 0.320866
-0.080460 0.985568 0.359070
0.075804 0.987033 0.331043
0.289733 0.993673 0.172952
0.597658 0.991751 0.171195
0.846303 0.989075 0.168795
1.074728 0.985566 0.320861
-0.080374 -0.073701 0.536888
0.204641 -0.073702 0.536888
0.423610 -0.073709 0.536888
0.638481 -0.073717 0.536887
0.879985 -0.073726 0.554347
1.074731 -0.073743 0.541170
-0.080376 0.187662 0.536888
0.129464 0.106737 0.589901
0.429250 0.089142 0.563816
0.653983 0.077299 0.547355
0.892060 0.071111 0.552545
1.074731 0.141952 0.535837
-0.080383 0.388439 0.536887
0.088887 0.380622 0.551387
0.384260 0.339275 0.585492
0.693217 0.299374 0.565706
0.944835 0.261108 0.538304
1.074731 0.349906 0.525011
-0.080404 0.585471 0.536886
0.077722 0.587853 0.537256
0.299633 0.597054 0.533573
0.655069 0.581993 0.511454
0.935695 0.558179 0.487399
1.074730 0.585470 0.536883
-0.080429 0.806950 0.554317
0.075012 0.808860 0.545802
0.246311 0.819999 0.495245
0.591018 0.821854 0.426094
0.899396 0.806595 0.406624
1.074729 0.786098 0.536880
-0.080462 0.985568 0.541165
0.075864 0.987017 0.529310
0.238957 0.996231 0.463926
0.591292 0.995810 0.456511
0.840778 0.994684 0.388556
1.074728 0.985566 0.536877
-0.080377 -0.073707 0.739979
0.211914 -0.073708 0.739979
0.437502 -0.073713 0.739979
0.659173 -0.073715 0.739978
0.879985 -0.073729 0.739978
1.074731 -0.073746 0.722484
-0.080378 0.194335 0.739979
0.116119 0.091235 0.786492
0.431969 0.082277 0.769199
0.666259 0.074700 0.755275
0.890596 0.070539 0.747213
1.074731 0.141951 0.720482
-0.080384 0.401150 0.739978
0.085094 0.386717 0.760302
0.372260 0.325150 0.825397
0.687963 0.287427 0.807692
0.939536 0.253508 0.777334
1.074731 0.349906 0.716281
-0.080408 0.604485 0.739977
0.076840 0.601479 0.745909
0.291878 0.594108 0.781938
0.649356 0.575252 0.783894
0.934131 0.551627 0.759585
1.074730 0.585469 0.720803
-0.080431 0.806950 0.739975
0.075007 0.808546 0.740301
0.243842 0.817765 0.740236
0.573210 0.820949 0.727293
0.902950 0.802147 0.704967
1.074729 0.806948 0.739973
-0.080464 0.985567 0.722480
0.075959 0.986883 0.718129
0.220639 0.996027 0.693743
0.585312 0.995645 0.688280
0.862671 0.993840 0.677189
1.074728 0.985566 0.739970
-0.080379 -0.073711 0.903748
0.206433 -0.073712 0.903748
0.427019 -0.073717 0.903748
0.643589 -0.073718 0.903748
0.859260 -0.073732 0.903748
1.074731 -0.073750 0.903747
-0.080381 0.189300 0.903748
0.109371 0.083047 0.943376
0.416486 0.078280 0.932579
0.646414 0.073365 0.921639
0.865986 0.070229 0.913998
1.074731 0.141950 0.903747
-0.080386 0.391556 0.903748
0.083039 0.374460 0.927024
0.369492 0.328817 0.964328
0.647913 0.306385 0.962965
0.901290 0.257791 0.960344
1.074731 0.349906 0.903747
-0.080409 0.590146 0.903747
0.076638 0.584963 0.913258
0.309207 0.571874 0.960082
0.641201 0.574036 0.957514
0.898129 0.553218 0.953695
1.074730 0.585469 0.903746
-0.080431 0.787924 0.903746
0.075008 0.786882 0.906973
0.245221 0.789159 0.929134
0.584730 0.792246 0.944137
0.898530 0.797396 0.930523
1.074729 0.806948 0.903745
-0.080467 0.985567 0.903745
0.076101 0.986628 0.903918
0.219191 0.994622 0.904621
0.574813 0.995323 0.901055
0.856167 0.992809 0.887503
1.074728 0.985566 0.903743
