src/luts/Grey Waters.cube
LUT_3D_SIZE 6
0.000000 0.000000 0.000000
0.171154 -0.000961 -0.000961
0.378967 -0.002106 -0.002106
0.603548 -0.003316 -0.003316
0.819991 -0.004468 -0.004468
1.000022 -0.005419 -0.005419
-0.001595 0.171788 -0.001595
0.171142 0.171787 -0.001775
0.378966 0.188501 -0.002588
0.603548 0.198020 -0.003636
0.819991 0.199780 -0.004682
1.000022 0.194017 -0.005579
-0.003492 0.379923 -0.003492
0.187801 0.379923 -0.003574
0.378962 0.379922 -0.003897
0.603547 0.399224 -0.004677
0.819990 0.402848 -0.005487
1.000021 0.391161 -0.006188
-0.005505 0.604282 -0.005505
0.197302 0.604282 -0.005556
0.398259 0.604281 -0.005752
0.603545 0.604281 -0.006130
0.819988 0.609866 -0.006739
1.000020 0.591935 -0.007224
-0.007401 0.820278 -0.007401
0.199054 0.820278 -0.007441
0.401860 0.820277 -0.007580
0.609133 0.820277 -0.007839
0.819985 0.820276 -0.008255
1.000020 0.796154 -0.008536
-0.008991 1.000020 -0.008991
0.193294 1.000020 -0.009020
0.390160 1.000020 -0.009106
0.591170 1.000020 -0.009310
0.795823 1.000020 -0.009613
1.000020 1.000020 -0.010027
-0.000613 -0.000613 0.235247
0.171154 -0.001087 0.235247
0.378967 -0.002164 0.256865
0.603548 -0.003351 0.269060
0.819991 -0.004491 0.271326
1.000022 -0.005436 0.263963
-0.001658 0.171787 0.235245
0.171142 0.171787 0.235245
0.428962 0.116628 0.162331
0.645432 0.067299 0.095007
0.850303 0.051019 0.072361
1.000022 0.171753 0.235231
-0.003523 0.379923 0.256858
0.066698 0.388437 0.094569
0.380599 0.381587 0.084703
0.618708 0.387109 0.072214
0.837164 0.382933 0.066441
1.000021 0.383883 0.235220
-0.005523 0.604282 0.269041
0.046340 0.609311 0.066088
0.378765 0.607716 0.065471
0.604519 0.605261 0.064869
0.826701 0.605217 0.064936
1.000020 0.588635 0.235233
-0.007418 0.820278 0.271301
0.046369 0.823585 0.066131
0.375553 0.823106 0.066479
0.601037 0.822152 0.067234
0.820686 0.820941 0.068553
1.000020 0.794793 0.235220
-0.008995 1.000020 0.263912
0.171115 1.000020 0.235204
0.382879 1.000020 0.235200
0.587857 1.000020 0.235193
0.794464 1.000020 0.235208
1.000020 1.000020 0.235192
-0.001345 -0.001345 0.484194
0.187808 -0.001616 0.484194
0.378966 -0.002382 0.484193
0.603548 -0.003491 0.504459
0.819991 -0.004586 0.508231
1.000022 -0.005507 0.496057
-0.002087 0.188503 0.484194
0.152799 0.153380 0.551720
0.419064 0.103410 0.525782
0.640760 0.064171 0.506485
0.848386 0.050323 0.492839
1.000022 0.171752 0.488361
-0.003638 0.379923 0.484190
0.063897 0.385810 0.490402
0.378962 0.379922 0.484189
0.677307 0.337006 0.437262
0.930765 0.268270 0.356803
1.000021 0.379910 0.484179
-0.005593 0.604282 0.504451
0.046167 0.608709 0.484671
0.239024 0.626768 0.321790
0.608562 0.609321 0.289079
0.868098 0.586610 0.252909
1.000020 0.586854 0.484172
-0.007466 0.820277 0.508215
0.046456 0.823486 0.480750
0.153637 0.840337 0.212297
0.558712 0.833439 0.202391
0.824122 0.824367 0.189804
1.000020 0.794126 0.484161
-0.009030 1.000020 0.496031
0.171115 1.000020 0.488378
0.378924 1.000020 0.484156
0.586056 1.000020 0.484154
0.793789 1.000020 0.484150
1.000020 1.000020 0.484146
-0.002115 -0.002115 0.690172
0.197314 -0.002292 0.690172
0.398233 -0.002890 0.690172
0.603548 -0.003750 0.690171
0.819991 -0.004769 0.694593
1.000022 -0.005645 0.680324
-0.002649 0.198025 0.690172
0.110662 0.111106 0.764807
0.416513 0.081446 0.737640
0.633218 0.059350 0.713246
0.845021 0.049137 0.701435
1.000022 0.171750 0.677703
-0.004046 0.399227 0.690171
0.057312 0.394472 0.710963
0.365080 0.366081 0.755173
0.670819 0.320765 0.741565
0.923542 0.254782 0.712524
1.000021 0.379909 0.676229
-0.005732 0.604282 0.690169
0.045890 0.607673 0.692896
0.229365 0.620307 0.702800
0.603545 0.604281 0.690169
0.897426 0.569827 0.662340
1.000020 0.604278 0.690167
-0.007560 0.820277 0.694589
0.046622 0.823083 0.688730
0.150924 0.837905 0.656618
0.475382 0.849100 0.580355
0.827095 0.827331 0.545361
1.000020 0.801067 0.690164
-0.009100 1.000020 0.680318
0.171113 1.000020 0.677696
0.378923 1.000020 0.676238
0.603537 1.000020 0.690162
0.800845 1.000020 0.690161
1.000020 1.000020 0.690160
-0.002846 -0.002846 0.849437
0.199087 -0.002967 0.849436
0.401884 -0.003423 0.849436
0.609138 -0.004154 0.849436
0.819991 -0.005045 0.849435
1.000022 -0.005842 0.831847
-0.003230 0.199790 0.849436
0.078786 0.079113 0.918277
0.403803 0.065993 0.897731
0.627426 0.054135 0.877794
0.840807 0.047786 0.864840
1.000022 0.171748 0.830831
-0.004422 0.402853 0.849436
0.052818 0.391326 0.875859
0.348613 0.349585 0.945254
0.650425 0.307083 0.940255
0.911066 0.237795 0.919866
1.000021 0.379908 0.830371
-0.005997 0.609867 0.849434
0.045579 0.608854 0.858085
0.217069 0.608755 0.907064
0.592369 0.593110 0.917676
0.891134 0.557218 0.903616
1.000020 0.604278 0.835434
-0.007703 0.820277 0.849431
0.046908 0.822515 0.851146
0.146950 0.834176 0.859693
0.462434 0.841562 0.865270
0.819984 0.820275 0.849430
1.000020 0.820274 0.849429
-0.009207 1.000020 0.831841
0.171111 1.000020 0.830825
0.378922 1.000020 0.830366
0.603537 1.000020 0.835430
0.820014 1.000020 0.849427
1.000020 1.000020 0.849426
-0.003457 -0.003457 1.000024
0.193359 -0.003543 1.000024
0.390198 -0.003888 1.000023
0.591179 -0.004488 1.000023
0.795832 -0.005247 1.000022
1.000021 -0.006125 1.000021
-0.003738 0.194032 1.000024
0.171158 0.171768 1.000024
0.382895 0.171766 1.000023
0.587866 0.171762 1.000023
0.794474 0.171754 1.000022
1.000021 0.171744 1.000021
-0.004706 0.391169 1.000023
0.171140 0.383892 1.000023
0.378958 0.379918 1.000023
0.586047 0.379916 1.000022
0.793797 0.379912 1.000022
1.000021 0.379906 1.000021
-0.006098 0.591937 1.000021
0.171126 0.588637 1.000021
0.378950 0.586856 1.000021
0.603544 0.604280 1.000021
0.800852 0.604279 1.000020
1.000020 0.604278 1.000020
-0.007681 0.796156 1.000020
0.171142 0.794795 1.000020
0.378938 0.794128 1.000020
0.603541 0.801069 1.000020
0.819984 0.820275 1.000020
1.000020 0.820273 1.000020
-0.009351 1.000020 1.000020
0.171121 1.000020 1.000020
0.378920 1.000020 1.000020
0.603537 1.000020 1.000020
0.820014 1.000020 1.000020
1.000020 1.000020 1.000020
