src/luts/Grey Waters.cube
LUT_3D_SIZE 16
0.000000 0.000000 0.000000
0.049025 -0.000277 -0.000277
0.107801 -0.000607 -0.000607
0.171154 -0.000961 -0.000961
0.237825 -0.001332 -0.001332
0.307184 -0.001716 -0.001716
0.378967 -0.002106 -0.002106
0.452755 -0.002509 -0.002509
0.528398 -0.002920 -0.002920
0.603548 -0.003316 -0.003316
0.677501 -0.003716 -0.003716
0.749919 -0.004097 -0.004097
0.819991 -0.004468 -0.004468
0.887313 -0.004817 -0.004817
0.949560 -0.005148 -0.005148
1.000022 -0.005419 -0.005419
-0.000459 0.049240 -0.000459
0.049025 0.049240 -0.000511
0.107800 0.053997 -0.000746
0.171154 0.056994 -0.001050
0.237825 0.059215 -0.001394
0.307184 0.061001 -0.001763
0.378967 0.062499 -0.002147
0.452755 0.063788 -0.002539
0.528398 0.064886 -0.002944
0.603548 0.065627 -0.003346
0.677501 0.066056 -0.003734
0.749919 0.066231 -0.004113
0.819991 0.066197 -0.004488
0.887313 0.065933 -0.004835
0.949560 0.065409 -0.005164
1.000022 0.064272 -0.005434
-0.001007 0.108232 -0.001007
0.053767 0.108232 -0.001031
0.107800 0.108232 -0.001121
0.171153 0.114257 -0.001353
0.237825 0.118725 -0.001634
0.307184 0.122312 -0.001957
0.378967 0.125346 -0.002307
0.452754 0.127938 -0.002676
0.528398 0.130149 -0.003060
0.603548 0.131643 -0.003440
0.677501 0.132513 -0.003823
0.749918 0.132885 -0.004191
0.819991 0.132822 -0.004546
0.887313 0.132302 -0.004898
0.949560 0.131253 -0.005221
1.000022 0.128996 -0.005485
-0.001595 0.171788 -0.001595
0.056749 0.171788 -0.001608
0.113803 0.171787 -0.001665
0.171142 0.171787 -0.001775
0.237825 0.178508 -0.002008
0.307183 0.183932 -0.002283
0.378966 0.188501 -0.002588
0.452754 0.192417 -0.002922
0.528398 0.195749 -0.003275
0.603548 0.198020 -0.003636
0.677501 0.199339 -0.003987
0.749918 0.199871 -0.004337
0.819991 0.199780 -0.004682
0.887312 0.199026 -0.005010
0.949560 0.197416 -0.005323
1.000022 0.194017 -0.005579
-0.002206 0.238624 -0.002206
0.058956 0.238624 -0.002215
0.118255 0.238624 -0.002260
0.177875 0.238624 -0.002338
0.237824 0.238624 -0.002457
0.307183 0.245874 -0.002700
0.378965 0.251992 -0.002966
0.452754 0.257234 -0.003260
0.528397 0.261719 -0.003587
0.603548 0.264736 -0.003912
0.677500 0.266495 -0.004235
0.749918 0.267268 -0.004565
0.819991 0.267120 -0.004883
0.887312 0.266103 -0.005202
0.949560 0.263965 -0.005489
1.000022 0.259399 -0.005732
-0.002843 0.308111 -0.002843
0.060729 0.308111 -0.002852
0.121828 0.308111 -0.002879
0.183246 0.308110 -0.002943
0.245058 0.308110 -0.003039
0.307182 0.308110 -0.003169
0.378964 0.315780 -0.003406
0.452753 0.322366 -0.003674
0.528396 0.328020 -0.003969
0.603547 0.331804 -0.004260
0.677500 0.334037 -0.004563
0.749918 0.334977 -0.004859
0.819991 0.334819 -0.005152
0.887312 0.333508 -0.005448
0.949559 0.330840 -0.005716
1.000022 0.325115 -0.005934
-0.003492 0.379923 -0.003492
0.062220 0.379923 -0.003503
0.124845 0.379923 -0.003524
0.187801 0.379923 -0.003574
0.251157 0.379923 -0.003654
0.314850 0.379923 -0.003762
0.378962 0.379922 -0.003897
0.452752 0.387817 -0.004139
0.528395 0.394610 -0.004400
0.603547 0.399224 -0.004677
0.677499 0.401932 -0.004943
0.749917 0.403021 -0.005211
0.819990 0.402848 -0.005487
0.887311 0.401274 -0.005750
0.949559 0.398060 -0.005997
1.000021 0.391161 -0.006188
-0.004163 0.453728 -0.004163
0.063493 0.453728 -0.004165
0.127426 0.453728 -0.004189
0.191708 0.453728 -0.004229
0.256394 0.453728 -0.004294
0.321413 0.453728 -0.004377
0.386821 0.453727 -0.004496
0.452751 0.453727 -0.004636
0.528394 0.461714 -0.004881
0.603547 0.467066 -0.005128
0.677499 0.470214 -0.005376
0.749917 0.471585 -0.005617
0.819989 0.471377 -0.005867
0.887311 0.469511 -0.006098
0.949558 0.465748 -0.006331
1.000021 0.457582 -0.006488
-0.004836 0.529275 -0.004836
0.064579 0.529275 -0.004839
0.129634 0.529274 -0.004858
0.195047 0.529274 -0.004897
0.260861 0.529274 -0.004946
0.327062 0.529274 -0.005026
0.393603 0.529274 -0.005126
0.460763 0.529273 -0.005246
0.528392 0.529273 -0.005394
0.603546 0.535499 -0.005616
0.677498 0.539116 -0.005840
0.749916 0.540656 -0.006064
0.819989 0.540422 -0.006282
0.887310 0.538253 -0.006506
0.949558 0.533910 -0.006702
1.000021 0.524536 -0.006840
-0.005505 0.604282 -0.005505
0.065307 0.604282 -0.005507
0.131116 0.604282 -0.005523
0.197302 0.604282 -0.005556
0.263869 0.604282 -0.005598
0.330840 0.604282 -0.005666
0.398259 0.604281 -0.005752
0.466122 0.604281 -0.005864
0.534615 0.604281 -0.005993
0.603545 0.604281 -0.006130
0.677497 0.608383 -0.006340
0.749915 0.610150 -0.006543
0.819988 0.609866 -0.006739
0.887309 0.607429 -0.006928
0.949557 0.602523 -0.007104
1.000020 0.591935 -0.007224
-0.006156 0.677996 -0.006156
0.065718 0.677996 -0.006158
0.131977 0.677996 -0.006164
0.198598 0.677996 -0.006193
0.265653 0.677996 -0.006244
0.333069 0.677996 -0.006303
0.400916 0.677996 -0.006371
0.469287 0.677995 -0.006462
0.538277 0.677995 -0.006575
0.607630 0.677995 -0.006710
0.677496 0.677994 -0.006865
0.749914 0.679971 -0.007049
0.819987 0.679686 -0.007227
0.887308 0.676978 -0.007396
0.949554 0.671526 -0.007542
1.000020 0.659682 -0.007632
-0.006790 0.750265 -0.006790
0.065880 0.750265 -0.006791
0.132349 0.750265 -0.006811
0.199169 0.750264 -0.006822
0.266395 0.750264 -0.006867
0.334024 0.750264 -0.006920
0.402070 0.750264 -0.006979
0.470624 0.750264 -0.007073
0.539799 0.750264 -0.007173
0.609444 0.750263 -0.007281
0.679439 0.750263 -0.007420
0.749913 0.750263 -0.007566
0.819986 0.749899 -0.007726
0.887307 0.746965 -0.007879
0.949553 0.740883 -0.008008
1.000020 0.727801 -0.008083
-0.007401 0.820278 -0.007401
0.065823 0.820278 -0.007402
0.132266 0.820278 -0.007419
0.199054 0.820278 -0.007441
0.266245 0.820277 -0.007469
0.333866 0.820277 -0.007516
0.401860 0.820277 -0.007580
0.470422 0.820277 -0.007652
0.539521 0.820277 -0.007742
0.609133 0.820277 -0.007839
0.679096 0.820276 -0.007965
0.749434 0.820276 -0.008097
0.819985 0.820276 -0.008255
0.887306 0.817020 -0.008383
0.949551 0.810343 -0.008497
1.000020 0.796154 -0.008536
-0.008000 0.887446 -0.008000
0.065547 0.887446 -0.008000
0.131757 0.887446 -0.008005
0.198297 0.887446 -0.008014
0.265230 0.887446 -0.008050
0.332536 0.887446 -0.008091
0.400299 0.887445 -0.008139
0.468552 0.887445 -0.008215
0.537363 0.887445 -0.008296
0.606714 0.887445 -0.008384
0.676433 0.887444 -0.008497
0.746549 0.887444 -0.008618
0.816832 0.887444 -0.008762
0.887304 0.887443 -0.008913
0.949550 0.880183 -0.008995
1.000020 0.864769 -0.009022
-0.008538 0.949587 -0.008538
0.064998 0.949587 -0.008539
0.130694 0.949587 -0.008543
0.196690 0.949587 -0.008570
0.263103 0.949587 -0.008583
0.329888 0.949587 -0.008621
0.397093 0.949587 -0.008665
0.464780 0.949587 -0.008733
0.533033 0.949586 -0.008806
0.601795 0.949586 -0.008887
0.670873 0.949586 -0.008991
0.740455 0.949585 -0.009102
0.810137 0.949585 -0.009234
0.880028 0.949585 -0.009373
0.949548 0.949584 -0.009515
1.000020 0.932940 -0.009513
-0.008991 1.000020 -0.008991
0.063844 1.000020 -0.008992
0.128434 1.000020 -0.008996
0.193294 1.000020 -0.009020
0.258547 1.000020 -0.009032
0.324163 1.000020 -0.009067
0.390160 1.000020 -0.009106
0.456641 1.000020 -0.009169
0.523631 1.000020 -0.009237
0.591170 1.000020 -0.009310
0.659058 1.000020 -0.009406
0.727400 1.000020 -0.009507
0.795823 1.000020 -0.009613
0.864580 1.000020 -0.009742
0.932882 1.000020 -0.009874
1.000020 1.000020 -0.010027
-0.000177 -0.000177 0.069869
0.049025 -0.000313 0.069869
0.107801 -0.000623 0.076516
0.171154 -0.000970 0.080696
0.237825 -0.001338 0.083784
0.307184 -0.001718 0.086269
0.378967 -0.002112 0.088358
0.452755 -0.002511 0.090142
0.528398 -0.002921 0.091672
0.603548 -0.003326 0.092700
0.677501 -0.003717 0.093284
0.749919 -0.004098 0.093525
0.819991 -0.004469 0.093476
0.887313 -0.004818 0.093122
0.949560 -0.005149 0.092391
1.000022 -0.005429 0.090810
-0.000478 0.049240 0.069869
0.049025 0.049240 0.069868
0.121834 0.033485 0.047723
0.182655 0.019247 0.027541
0.245758 0.014368 0.020586
0.312921 0.013153 0.018853
0.383254 0.013389 0.019191
0.456141 0.014293 0.020481
0.531099 0.015561 0.022289
0.605829 0.016990 0.024327
0.679447 0.018509 0.026491
0.751482 0.020052 0.028687
0.821460 0.021580 0.030859
0.888519 0.023082 0.032997
0.950665 0.024494 0.034996
1.000022 0.049141 0.069729
-0.001014 0.108232 0.076514
0.019180 0.110644 0.027569
0.108283 0.108724 0.024662
0.175293 0.110790 0.020926
0.242325 0.112720 0.019115
0.311198 0.114722 0.018857
0.382344 0.116740 0.019640
0.455628 0.118679 0.021046
0.530834 0.120461 0.022846
0.605655 0.121701 0.024876
0.679269 0.122445 0.026976
0.751346 0.122806 0.029136
0.821349 0.122799 0.031274
0.888500 0.122409 0.033365
0.950608 0.121560 0.035333
1.000022 0.124047 0.069728
-0.001597 0.171788 0.080692
0.013315 0.173174 0.019170
0.108304 0.172724 0.018995
0.171406 0.172044 0.018826
0.239574 0.177065 0.018937
0.309396 0.181280 0.019580
0.381143 0.184984 0.020688
0.454848 0.188279 0.022185
0.530305 0.191200 0.023976
0.605308 0.193137 0.025924
0.679038 0.194267 0.027950
0.751242 0.194740 0.030021
0.821228 0.194590 0.032077
0.888396 0.193860 0.034097
0.950576 0.192307 0.036000
1.000022 0.191301 0.069728
-0.002212 0.238624 0.083778
0.013480 0.239506 0.019409
0.110561 0.239364 0.019528
0.175517 0.239114 0.019786
0.237997 0.238798 0.020209
0.308119 0.245081 0.021177
0.380187 0.250486 0.022424
0.454128 0.255200 0.023930
0.529793 0.259280 0.025652
0.604895 0.261995 0.027507
0.678691 0.263545 0.029414
0.751049 0.264183 0.031369
0.821101 0.263979 0.033311
0.888220 0.262928 0.035223
0.950445 0.260802 0.037027
1.000022 0.257626 0.069715
-0.002844 0.308111 0.086257
0.015202 0.308740 0.021876
0.113124 0.308680 0.022030
0.179632 0.308568 0.022330
0.243776 0.308401 0.022799
0.307291 0.308205 0.023469
0.379455 0.315290 0.024736
0.453518 0.321385 0.026200
0.529306 0.326689 0.027843
0.604468 0.330218 0.029560
0.678354 0.332242 0.031344
0.750717 0.333032 0.033156
0.820911 0.332783 0.034958
0.888145 0.331419 0.036743
0.950313 0.328730 0.038422
1.000022 0.323827 0.069704
-0.003493 0.379923 0.088328
0.017546 0.380319 0.025231
0.115613 0.380257 0.025367
0.183490 0.380211 0.025639
0.249064 0.380210 0.026085
0.314060 0.380102 0.026685
0.378996 0.379932 0.027465
0.453121 0.387503 0.028874
0.528925 0.393982 0.030429
0.604146 0.398250 0.032031
0.678157 0.400720 0.033663
0.750615 0.401748 0.035330
0.820694 0.401439 0.036994
0.887937 0.399860 0.038627
0.950125 0.396525 0.040162
1.000021 0.390217 0.069679
-0.004164 0.453728 0.090102
0.020199 0.454051 0.029025
0.117943 0.454032 0.029142
0.187035 0.454015 0.029387
0.253810 0.453977 0.029770
0.320074 0.453920 0.030314
0.386299 0.453855 0.030994
0.452799 0.453774 0.031849
0.528664 0.461441 0.033321
0.603897 0.466597 0.034816
0.677885 0.469551 0.036314
0.750349 0.470755 0.037838
0.820506 0.470435 0.039351
0.887742 0.468530 0.040838
0.950068 0.464681 0.042223
1.000021 0.456874 0.069661
-0.004837 0.529275 0.091611
0.023032 0.529567 0.033069
0.120081 0.529550 0.033176
0.190169 0.529519 0.033383
0.258018 0.529475 0.033720
0.325370 0.529432 0.034198
0.392715 0.529422 0.034803
0.460348 0.529383 0.035562
0.528480 0.529360 0.036441
0.603709 0.535304 0.037841
0.677680 0.538686 0.039235
0.750127 0.540093 0.040616
0.820420 0.539748 0.041992
0.887662 0.537589 0.043327
0.949827 0.533185 0.044559
1.000021 0.524022 0.069637
-0.005506 0.604282 0.092629
0.025899 0.604506 0.037156
0.121635 0.604501 0.037248
0.192341 0.604491 0.037429
0.260890 0.604475 0.037724
0.328937 0.604454 0.038144
0.397061 0.604377 0.038681
0.465462 0.604347 0.039348
0.534336 0.604335 0.040139
0.603583 0.604319 0.041066
0.677613 0.608230 0.042350
0.750047 0.609865 0.043619
0.820282 0.609496 0.044856
0.887542 0.606999 0.046054
0.949854 0.602005 0.047141
1.000020 0.591476 0.069599
-0.006156 0.677996 0.093211
0.028746 0.678196 0.041201
0.122709 0.678192 0.041286
0.193701 0.678192 0.041445
0.262603 0.678216 0.041706
0.331059 0.678199 0.042080
0.399620 0.678178 0.042555
0.468410 0.678154 0.043141
0.537748 0.678087 0.043854
0.607408 0.678059 0.044679
0.677532 0.678030 0.045613
0.750032 0.679930 0.046774
0.820185 0.679445 0.047902
0.887470 0.676667 0.048970
0.949708 0.671160 0.049911
1.000020 0.659368 0.069562
-0.006791 0.750265 0.093428
0.031548 0.750440 0.045182
0.123385 0.750437 0.045253
0.194362 0.750431 0.045401
0.263384 0.750422 0.045625
0.332003 0.750410 0.045955
0.400704 0.750395 0.046384
0.469667 0.750377 0.046907
0.539123 0.750358 0.047543
0.609051 0.750336 0.048281
0.679311 0.750314 0.049135
0.749942 0.750292 0.050082
0.820080 0.749909 0.051101
0.887466 0.746701 0.052047
0.949576 0.740602 0.052858
1.000020 0.727587 0.069520
-0.007401 0.820278 0.093351
0.034275 0.820388 0.049057
0.123738 0.820386 0.049112
0.194478 0.820381 0.049243
0.263347 0.820375 0.049442
0.331841 0.820365 0.049731
0.400435 0.820353 0.050120
0.469413 0.820340 0.050591
0.538816 0.820324 0.051155
0.608629 0.820307 0.051827
0.678950 0.820289 0.052589
0.749408 0.820271 0.053448
0.820009 0.820299 0.054413
0.887380 0.817017 0.055250
0.949595 0.810209 0.055937
1.000020 0.795898 0.069471
-0.008000 0.887446 0.092966
0.036897 0.887536 0.052768
0.123712 0.887534 0.052821
0.193940 0.887531 0.052944
0.262432 0.887525 0.053120
0.330605 0.887518 0.053381
0.398866 0.887509 0.053714
0.467541 0.887498 0.054144
0.536692 0.887484 0.054657
0.606171 0.887471 0.055259
0.676099 0.887457 0.055954
0.746284 0.887442 0.056739
0.816723 0.887475 0.057601
0.887323 0.887461 0.058564
0.949608 0.880078 0.059138
1.000020 0.864586 0.069410
-0.008538 0.949587 0.092195
0.039336 0.949622 0.056216
0.123251 0.949621 0.056266
0.192631 0.949618 0.056368
0.260477 0.949614 0.056542
0.328037 0.949608 0.056774
0.395725 0.949601 0.057084
0.463772 0.949592 0.057460
0.532299 0.949583 0.057926
0.601250 0.949572 0.058469
0.670525 0.949643 0.059098
0.740127 0.949628 0.059812
0.809970 0.949617 0.060603
0.879974 0.949606 0.061475
0.949563 0.949597 0.062426
1.000020 0.932945 0.069353
-0.008991 1.000020 0.090589
0.048703 1.000020 0.069408
0.123506 1.000020 0.069412
0.190581 1.000020 0.069411
0.256750 1.000020 0.069414
0.322871 1.000020 0.069412
0.389199 1.000020 0.069403
0.455914 1.000020 0.069396
0.523112 1.000020 0.069387
0.590718 1.000020 0.069375
0.658701 1.000020 0.069366
0.727063 1.000020 0.069362
0.795566 1.000020 0.069343
0.864436 1.000020 0.069323
0.932887 1.000020 0.069304
1.000020 1.000020 0.069289
-0.000387 -0.000387 0.151002
0.053769 -0.000466 0.151002
0.107801 -0.000686 0.151002
0.171154 -0.001011 0.159141
0.237825 -0.001366 0.165144
0.307184 -0.001741 0.169958
0.378967 -0.002130 0.174017
0.452755 -0.002525 0.177468
0.528398 -0.002933 0.180456
0.603548 -0.003332 0.182437
0.677501 -0.003721 0.183593
0.749919 -0.004109 0.184077
0.819991 -0.004472 0.183994
0.887313 -0.004832 0.183316
0.949560 -0.005152 0.181895
1.000022 -0.005431 0.178885
-0.000601 0.053998 0.151002
0.043790 0.043980 0.176084
0.119074 0.029704 0.166240
0.181341 0.018360 0.159802
0.245263 0.014185 0.158947
0.312687 0.013139 0.160489
0.383085 0.013419 0.162776
0.456102 0.014333 0.165213
0.531100 0.015602 0.167530
0.605806 0.017030 0.169140
0.679429 0.018543 0.170121
0.751467 0.020083 0.170589
0.821449 0.021611 0.170570
0.888509 0.023113 0.170073
0.950657 0.024515 0.168922
1.000022 0.049140 0.172275
-0.001048 0.108232 0.151001
0.018376 0.109896 0.153258
0.107800 0.108232 0.151001
0.191665 0.095896 0.134272
0.268977 0.073540 0.103634
0.337313 0.054367 0.077027
0.404552 0.042230 0.060041
0.474171 0.035294 0.050279
0.546332 0.031526 0.044960
0.618849 0.029661 0.042321
0.690705 0.028902 0.041247
0.761558 0.028815 0.041126
0.830395 0.029135 0.041576
0.896555 0.029725 0.042408
0.957870 0.030439 0.043419
1.000022 0.108197 0.150961
-0.001620 0.171788 0.159139
0.013268 0.173000 0.151932
0.067795 0.178044 0.096089
0.172537 0.173176 0.085823
0.250722 0.170829 0.071874
0.323704 0.168872 0.060181
0.395644 0.167899 0.051794
0.468415 0.167794 0.046381
0.542574 0.168253 0.043202
0.616297 0.168505 0.041621
0.688883 0.168496 0.041097
0.760310 0.168171 0.041253
0.829412 0.167533 0.041862
0.895893 0.166509 0.042754
0.957457 0.164961 0.043803
1.000022 0.183207 0.150959
-0.002223 0.238624 0.165139
0.013510 0.239453 0.154807
0.042090 0.243977 0.060100
0.162955 0.242108 0.057301
0.238911 0.239710 0.053791
0.313943 0.242127 0.049229
0.388143 0.244307 0.045666
0.462918 0.246404 0.043205
0.538606 0.248419 0.041743
0.613398 0.249597 0.041141
0.686725 0.249993 0.041155
0.758571 0.249764 0.041613
0.828212 0.248936 0.042385
0.894912 0.247465 0.043358
0.956598 0.245102 0.044424
1.000022 0.252430 0.150948
-0.002855 0.308111 0.169949
0.015238 0.308696 0.158243
0.032457 0.312137 0.046472
0.160497 0.311336 0.045727
0.237662 0.310223 0.044730
0.307976 0.308917 0.043645
0.382996 0.313565 0.042323
0.458559 0.317644 0.041470
0.535111 0.321227 0.041105
0.610592 0.323403 0.041185
0.684627 0.324360 0.041608
0.756867 0.324343 0.042320
0.826841 0.323465 0.043215
0.893805 0.321659 0.044245
0.955672 0.318656 0.045328
1.000022 0.320174 0.150950
-0.003506 0.379923 0.174017
0.017579 0.380298 0.161591
0.029205 0.382954 0.041860
0.160854 0.382536 0.041691
0.238947 0.381980 0.041485
0.310458 0.381269 0.041283
0.379495 0.380485 0.041132
0.455444 0.386351 0.041109
0.532353 0.391425 0.041366
0.608228 0.394574 0.041865
0.682615 0.396131 0.042567
0.755163 0.396424 0.043430
0.825360 0.395512 0.044407
0.892628 0.393425 0.045472
0.954693 0.389783 0.046537
1.000021 0.387483 0.150943
-0.004167 0.453728 0.177480
0.020229 0.454045 0.164711
0.028698 0.456129 0.041137
0.162204 0.455924 0.041169
0.241231 0.455614 0.041233
0.313772 0.455201 0.041347
0.383940 0.454711 0.041535
0.453192 0.454167 0.041823
0.530258 0.460662 0.042435
0.606386 0.464762 0.043165
0.680965 0.466918 0.044016
0.753773 0.467423 0.044967
0.824130 0.466522 0.045973
0.891555 0.464192 0.047028
0.953887 0.459991 0.048062
1.000021 0.454784 0.150942
-0.004840 0.529275 0.180435
0.023056 0.529560 0.167601
0.029560 0.531251 0.042363
0.163909 0.531152 0.042462
0.243794 0.530925 0.042619
0.317241 0.530678 0.042859
0.388363 0.530357 0.043182
0.458713 0.530051 0.043606
0.528785 0.529664 0.044130
0.604978 0.534699 0.044999
0.679596 0.537384 0.045909
0.752578 0.538128 0.046883
0.823078 0.537334 0.047896
0.890619 0.534722 0.048910
0.953002 0.529929 0.049874
1.000021 0.522397 0.150938
-0.005508 0.604282 0.182411
0.025921 0.604504 0.169668
0.031143 0.605974 0.044610
0.165170 0.605869 0.044727
0.245584 0.605784 0.044923
0.319583 0.605586 0.045194
0.391358 0.605426 0.045552
0.462355 0.605168 0.046017
0.533073 0.604891 0.046580
0.603859 0.604577 0.047251
0.678554 0.607817 0.048190
0.751512 0.608821 0.049154
0.822139 0.607954 0.050123
0.889680 0.605114 0.051077
0.952166 0.599790 0.051973
1.000020 0.590255 0.150924
-0.006159 0.677996 0.183561
0.028766 0.678195 0.171130
0.033105 0.679443 0.047394
0.165925 0.679445 0.047516
0.246576 0.679342 0.047711
0.320837 0.679285 0.047988
0.392868 0.679114 0.048347
0.464259 0.678907 0.048810
0.535404 0.678707 0.049358
0.606565 0.678543 0.050016
0.677752 0.678343 0.050766
0.750678 0.679619 0.051704
0.821363 0.678637 0.052627
0.889006 0.675557 0.053511
0.951461 0.669720 0.054315
1.000020 0.658346 0.150908
-0.006793 0.750265 0.184050
0.031566 0.750439 0.172046
0.035268 0.751506 0.050459
0.166265 0.751457 0.050573
0.246869 0.751385 0.050760
0.321153 0.751279 0.051025
0.393280 0.751259 0.051369
0.464704 0.751230 0.051814
0.535977 0.751052 0.052334
0.607233 0.750851 0.052963
0.678581 0.750641 0.053675
0.750030 0.750492 0.054498
0.820767 0.749584 0.055353
0.888385 0.746131 0.056156
0.950927 0.739830 0.056863
1.000020 0.726834 0.150905
-0.007403 0.820278 0.183943
0.034288 0.820387 0.172498
0.037519 0.821353 0.053641
0.166191 0.821360 0.053754
0.246525 0.821332 0.053934
0.320642 0.821245 0.054182
0.392572 0.821135 0.054506
0.463861 0.821125 0.054905
0.535048 0.821006 0.055410
0.606154 0.820834 0.055983
0.677468 0.820728 0.056652
0.748823 0.820596 0.057409
0.820304 0.820472 0.058256
0.887917 0.816805 0.058984
0.950502 0.809751 0.059591
1.000020 0.795450 0.150884
-0.008001 0.887446 0.183255
0.036912 0.887535 0.172489
0.039784 0.888353 0.056843
0.165686 0.888319 0.056940
0.245475 0.888267 0.057100
0.319112 0.888244 0.057328
0.390682 0.888251 0.057628
0.461608 0.888188 0.058012
0.532340 0.888055 0.058461
0.603184 0.888051 0.058994
0.674093 0.887887 0.059617
0.745208 0.887760 0.060324
0.816276 0.887680 0.061105
0.887473 0.887489 0.061974
0.950012 0.880032 0.062500
1.000020 0.864219 0.150862
-0.008540 0.949587 0.181851
0.039352 0.949621 0.171854
0.041946 0.950443 0.059897
0.164576 0.950414 0.059988
0.243497 0.950370 0.060134
0.316451 0.950308 0.060344
0.387312 0.950347 0.060626
0.457555 0.950249 0.060966
0.527681 0.950212 0.061384
0.597875 0.950081 0.061883
0.668137 0.950055 0.062460
0.738647 0.949981 0.063102
0.809083 0.949808 0.063831
0.879673 0.949803 0.064634
0.949674 0.949708 0.065510
1.000020 0.932737 0.150844
-0.008993 1.000020 0.178811
0.048703 1.000020 0.172207
0.107692 1.000020 0.150863
0.182492 1.000020 0.150862
0.251579 1.000020 0.150862
0.319230 1.000020 0.150860
0.386460 1.000020 0.150857
0.453822 1.000020 0.150863
0.521503 1.000020 0.150860
0.589465 1.000020 0.150855
0.657754 1.000020 0.150850
0.726390 1.000020 0.150845
0.795116 1.000020 0.150839
0.864028 1.000020 0.150831
0.932679 1.000020 0.150824
1.000020 1.000020 0.150823
-0.000613 -0.000613 0.235247
0.056754 -0.000663 0.235247
0.113805 -0.000836 0.235247
0.171154 -0.001087 0.235247
0.237825 -0.001422 0.243989
0.307184 -0.001784 0.250970
0.378967 -0.002164 0.256865
0.452755 -0.002552 0.261888
0.528398 -0.002956 0.266153
0.603548 -0.003351 0.269060
0.677501 -0.003746 0.270741
0.749918 -0.004123 0.271448
0.819991 -0.004491 0.271326
0.887313 -0.004838 0.270353
0.949560 -0.005167 0.268326
1.000022 -0.005436 0.263963
-0.000766 0.056995 0.235247
0.031602 0.031741 0.270519
0.118855 0.023268 0.257349
0.179290 0.016984 0.245826
0.244393 0.013897 0.246736
0.312290 0.013123 0.249722
0.382906 0.013480 0.253399
0.455967 0.014415 0.257100
0.531014 0.015683 0.260594
0.605778 0.017111 0.262990
0.679390 0.018615 0.264366
0.751439 0.020148 0.264878
0.821425 0.021670 0.264690
0.888489 0.023164 0.263716
0.950640 0.024566 0.261755
1.000022 0.049140 0.260471
-0.001172 0.114257 0.235246
0.016408 0.112875 0.244800
0.103853 0.104272 0.266120
0.189874 0.091207 0.259517
0.266512 0.070064 0.250775
0.335433 0.052622 0.240841
0.403425 0.041433 0.235062
0.473469 0.034934 0.232632
0.545895 0.031369 0.232061
0.618563 0.029597 0.231834
0.690544 0.028889 0.231470
0.761386 0.028823 0.230867
0.830277 0.029155 0.229914
0.896422 0.029747 0.228554
0.957843 0.030467 0.226421
1.000022 0.108197 0.250033
-0.001658 0.171787 0.235245
0.013190 0.172722 0.236461
0.065055 0.176228 0.241038
0.171142 0.171787 0.235245
0.261358 0.160606 0.220687
0.348203 0.141196 0.195134
0.428962 0.116628 0.162331
0.503047 0.095054 0.133135
0.574980 0.078668 0.110701
0.645432 0.067299 0.095007
0.714869 0.059620 0.084346
0.783425 0.054460 0.077163
0.850303 0.051019 0.072361
0.914707 0.048762 0.069198
0.974439 0.047337 0.067202
1.000022 0.171753 0.235231
-0.002253 0.238624 0.243992
0.013568 0.239360 0.241183
0.041371 0.243299 0.225741
0.130359 0.247149 0.181408
0.239859 0.240669 0.166830
0.327859 0.235306 0.146885
0.408643 0.229676 0.127199
0.485887 0.224898 0.110003
0.561780 0.221396 0.096246
0.635643 0.218486 0.086110
0.707643 0.215978 0.078873
0.777986 0.213669 0.073779
0.846213 0.211438 0.070276
0.911616 0.209034 0.067924
0.972015 0.206232 0.066429
1.000022 0.245400 0.235229
-0.002877 0.308111 0.250966
0.015313 0.308678 0.246376
0.032269 0.311827 0.221731
0.089587 0.318047 0.126180
0.221642 0.314472 0.119521
0.309297 0.310239 0.111632
0.391963 0.309988 0.101286
0.471689 0.309634 0.091997
0.550168 0.309392 0.084206
0.626409 0.308436 0.078212
0.700413 0.306958 0.073736
0.772323 0.305024 0.070478
0.841611 0.302708 0.068168
0.907995 0.299795 0.066628
0.969285 0.296104 0.065660
1.000022 0.315301 0.235225
-0.003523 0.379923 0.256858
0.017644 0.380255 0.251318
0.029163 0.382797 0.221928
0.066698 0.388437 0.094569
0.212366 0.386559 0.091815
0.301794 0.384246 0.088443
0.380599 0.381587 0.084703
0.461337 0.384261 0.079793
0.541059 0.386398 0.075550
0.618708 0.387109 0.072214
