src/luts/Icy Fjords.cube
LUT_3D_SIZE 6
-0.067430 -0.075689 -0.084958
0.117497 -0.075689 -0.084959
0.286834 -0.075690 -0.084960
0.482938 -0.075694 -0.084963
0.674503 -0.075699 -0.084968
0.842708 -0.075709 -0.084971
-0.067431 0.131887 -0.084959
0.117497 0.131887 -0.084959
0.286833 0.151718 -0.084961
0.482938 0.171709 -0.084964
0.674503 0.180593 -0.084970
0.842708 0.180311 -0.084972
-0.067440 0.321964 -0.084964
0.135162 0.321964 -0.084964
0.286832 0.321963 -0.084965
0.482937 0.359154 -0.084970
0.674502 0.375883 -0.084972
0.842707 0.375355 -0.084979
-0.067456 0.542034 -0.084973
0.152960 0.542034 -0.084974
0.319963 0.542034 -0.084975
0.482936 0.542034 -0.084978
0.674502 0.566969 -0.084985
0.842707 0.566240 -0.084997
-0.067489 0.757154 -0.084997
0.160862 0.757154 -0.084998
0.334876 0.757153 -0.084999
0.505103 0.757153 -0.085002
0.674500 0.757153 -0.085007
0.842706 0.756122 -0.085014
-0.067529 0.945889 -0.085023
0.160610 0.945889 -0.085024
0.334413 0.945889 -0.085025
0.504439 0.945888 -0.085028
0.673657 0.945888 -0.085038
0.842704 0.945888 -0.085045
-0.067430 -0.075689 0.148035
0.117497 -0.075689 0.148035
0.286834 -0.075691 0.170298
0.482938 -0.075694 0.192743
0.674503 -0.075699 0.202699
0.842708 -0.075709 0.202389
-0.067432 0.131887 0.148035
0.110281 0.132664 0.155866
0.316253 0.101075 0.130502
0.506091 0.076473 0.109545
0.690876 0.067255 0.102220
0.855085 0.063991 0.099653
-0.067440 0.321964 0.170296
0.062856 0.325527 0.119527
0.283626 0.324290 0.085403
0.491318 0.348489 0.077726
0.685093 0.357457 0.073574
0.853190 0.353239 0.071592
-0.067456 0.542034 0.192737
0.055999 0.543981 0.114125
0.300014 0.544573 0.072281
0.481513 0.543232 0.071638
0.677572 0.562438 0.070739
0.847664 0.558593 0.070440
-0.067490 0.757154 0.202696
0.057003 0.758335 0.113857
0.308919 0.758993 0.070424
0.496273 0.758564 0.070483
0.673680 0.757943 0.070632
0.844158 0.753937 0.070903
-0.067529 0.945889 0.202376
0.060040 0.946764 0.114824
0.306527 0.947304 0.071809
0.492474 0.947111 0.072006
0.668821 0.946769 0.072335
0.842137 0.946451 0.072813
-0.067431 -0.075690 0.361374
0.135165 -0.075690 0.361374
0.286833 -0.075691 0.361374
0.482938 -0.075695 0.403110
0.674503 -0.075700 0.421903
0.842708 -0.075710 0.421360
-0.067433 0.151718 0.361374
0.089391 0.115702 0.407417
0.306077 0.091692 0.393572
0.501886 0.074024 0.405601
0.689115 0.066565 0.410157
0.854284 0.063782 0.403981
-0.067441 0.321963 0.361373
0.061757 0.324122 0.366613
0.269224 0.323845 0.380498
0.528309 0.295434 0.358318
0.745679 0.251810 0.322985
0.913302 0.222571 0.297613
-0.067458 0.542034 0.403107
0.055951 0.543679 0.391007
0.186077 0.553604 0.317576
0.468393 0.549990 0.268098
0.701717 0.543664 0.249017
0.886895 0.523949 0.235012
-0.067491 0.757153 0.421900
0.057085 0.758234 0.403122
0.155809 0.766193 0.293600
0.436632 0.768740 0.218200
0.666263 0.763036 0.212788
0.855570 0.747105 0.207996
-0.067533 0.945889 0.421354
0.060134 0.946713 0.400733
0.144242 0.953002 0.284859
0.412255 0.956446 0.196238
0.638749 0.953737 0.194051
0.836927 0.950488 0.191375
-0.067434 -0.075692 0.608433
0.152968 -0.075692 0.608433
0.319965 -0.075694 0.608433
0.482938 -0.075696 0.608433
0.674503 -0.075702 0.636416
0.842708 -0.075712 0.635566
-0.067437 0.171709 0.608433
0.070349 0.099417 0.648346
0.320130 0.077685 0.644278
0.496075 0.070608 0.629082
0.686471 0.065479 0.642092
0.852944 0.063441 0.633975
-0.067441 0.359154 0.608432
0.058615 0.351004 0.620014
0.248057 0.307653 0.692632
0.519730 0.277358 0.683183
0.735420 0.241616 0.664652
0.906215 0.217145 0.632403
-0.067460 0.542034 0.608432
0.055898 0.543175 0.611030
0.181740 0.549289 0.628086
0.453285 0.545265 0.640702
0.716020 0.522377 0.622602
0.914822 0.498502 0.599786
-0.067494 0.757153 0.636414
0.057249 0.758045 0.631101
0.154625 0.764782 0.609232
0.355561 0.776082 0.569908
0.643795 0.769747 0.531958
0.878533 0.740490 0.512071
-0.067527 0.945888 0.635562
0.060325 0.946613 0.627196
0.143849 0.952361 0.590824
0.306389 0.965070 0.529050
0.558668 0.969854 0.450893
0.819678 0.959016 0.438573
-0.067440 -0.075695 0.849870
0.160887 -0.075696 0.849870
0.334881 -0.075697 0.849870
0.505107 -0.075700 0.849870
0.674503 -0.075708 0.849870
0.842708 -0.075715 0.848775
-0.067442 0.180595 0.849870
0.061581 0.092360 0.879268
0.323565 0.069876 0.880722
0.508806 0.066700 0.871229
0.683405 0.064324 0.863584
0.851144 0.063071 0.854730
-0.067447 0.375884 0.849870
0.056954 0.361669 0.863031
0.237490 0.293619 0.938992
0.506630 0.270153 0.937340
0.721797 0.228802 0.929731
0.896748 0.209838 0.892751
-0.067465 0.566969 0.849869
0.055928 0.563225 0.854976
0.174459 0.551327 0.893575
0.447935 0.534416 0.928983
0.700621 0.515233 0.924869
0.911583 0.484403 0.905947
-0.067493 0.757153 0.849868
0.057523 0.757881 0.851481
0.152936 0.762623 0.863251
0.348177 0.769607 0.888533
0.633307 0.761609 0.894657
0.870252 0.743428 0.880504
-0.067535 0.945888 0.848772
0.060626 0.946584 0.846218
0.143248 0.951344 0.838272
0.303325 0.961984 0.831917
0.539188 0.968800 0.831080
0.800875 0.959211 0.812372
-0.067440 -0.075699 1.061753
0.160647 -0.075699 1.061753
0.334422 -0.075701 1.061753
0.504445 -0.075707 1.061753
0.673661 -0.075712 1.061753
0.842707 -0.075719 1.061753
-0.067443 0.180314 1.061753
0.117489 0.131880 1.061753
0.322639 0.131879 1.061753
0.499283 0.131876 1.061753
0.671668 0.131873 1.061753
0.842707 0.131867 1.061753
-0.067454 0.375356 1.061753
0.117484 0.362151 1.061753
0.286830 0.321962 1.061753
0.484729 0.321962 1.061753
0.666096 0.321961 1.061753
0.842707 0.321960 1.061753
-0.067474 0.566240 1.061752
0.117473 0.560446 1.061753
0.286827 0.544105 1.061753
0.482935 0.542033 1.061752
0.665402 0.542033 1.061752
0.842706 0.542032 1.061752
-0.067499 0.756122 1.061752
0.117466 0.753902 1.061752
0.286823 0.747689 1.061752
0.482932 0.746890 1.061752
0.674500 0.757152 1.061752
0.842705 0.757152 1.061751
-0.067541 0.945888 1.061751
0.117444 0.945888 1.061751
0.286816 0.945888 1.061751
0.482929 0.945888 1.061751
0.674498 0.945888 1.061751
0.842704 0.945887 1.061750
