src/luts/Icy Fjords.cube
LUT_3D_SIZE 16
-0.067430 -0.075689 -0.084958
-0.037173 -0.075689 -0.084958
0.068489 -0.075689 -0.084959
0.117497 -0.075689 -0.084959
0.169670 -0.075689 -0.084959
0.226333 -0.075690 -0.084959
0.286834 -0.075690 -0.084960
0.350340 -0.075691 -0.084960
0.416193 -0.075692 -0.084961
0.482938 -0.075694 -0.084963
0.548483 -0.075695 -0.084964
0.612560 -0.075697 -0.084966
0.674503 -0.075699 -0.084968
0.734147 -0.075701 -0.084970
0.790637 -0.075707 -0.084973
0.842708 -0.075709 -0.084971
-0.067430 -0.041726 -0.084959
-0.037171 -0.041726 -0.084959
0.068489 -0.061761 -0.084959
0.117497 -0.063530 -0.084959
0.169670 -0.062651 -0.084959
0.226333 -0.060955 -0.084959
0.286834 -0.058928 -0.084960
0.350340 -0.056777 -0.084961
0.416193 -0.054602 -0.084962
0.482938 -0.052579 -0.084963
0.548483 -0.050958 -0.084964
0.612560 -0.049752 -0.084966
0.674503 -0.048960 -0.084968
0.734147 -0.048582 -0.084970
0.790637 -0.048590 -0.084973
0.842708 -0.049092 -0.084971
-0.067431 0.076873 -0.084959
-0.055026 0.076873 -0.084959
0.068488 0.076873 -0.084959
0.117497 0.069356 -0.084959
0.169670 0.073264 -0.084959
0.226333 0.079897 -0.084960
0.286834 0.086654 -0.084960
0.350340 0.092798 -0.084961
0.416193 0.098204 -0.084962
0.482938 0.102638 -0.084963
0.548483 0.105844 -0.084965
0.612560 0.108068 -0.084967
0.674503 0.109458 -0.084969
0.734147 0.110109 -0.084971
0.790637 0.110092 -0.084973
0.842708 0.109253 -0.084971
-0.067431 0.131887 -0.084959
-0.056599 0.131887 -0.084959
0.061789 0.131887 -0.084959
0.117497 0.131887 -0.084959
0.169670 0.136160 -0.084960
0.226332 0.143714 -0.084960
0.286833 0.151718 -0.084961
0.350340 0.159252 -0.084962
0.416193 0.166037 -0.084963
0.482938 0.171709 -0.084964
0.548483 0.175863 -0.084966
0.612560 0.178743 -0.084968
0.674503 0.180593 -0.084970
0.734147 0.181450 -0.084972
0.790637 0.181428 -0.084970
0.842708 0.180311 -0.084972
-0.067433 0.190461 -0.084960
-0.055818 0.190461 -0.084960
0.065268 0.190461 -0.084960
0.121308 0.190461 -0.084960
0.169669 0.190461 -0.084961
0.226332 0.199913 -0.084961
0.286833 0.210004 -0.084962
0.350340 0.219583 -0.084963
0.416193 0.228198 -0.084964
0.482937 0.235484 -0.084966
0.548483 0.240813 -0.084967
0.612560 0.244538 -0.084969
0.674503 0.246884 -0.084971
0.734146 0.247985 -0.084973
0.790637 0.247962 -0.084971
0.842708 0.246546 -0.084974
-0.067436 0.254034 -0.084962
-0.054312 0.254034 -0.084962
0.071178 0.254034 -0.084962
0.128025 0.254034 -0.084962
0.178100 0.254034 -0.084962
0.226332 0.254034 -0.084962
0.286833 0.266395 -0.084963
0.350340 0.278102 -0.084965
0.416192 0.288727 -0.084966
0.482937 0.297664 -0.084967
0.548482 0.304206 -0.084969
0.612560 0.308811 -0.084971
0.674503 0.311693 -0.084973
0.734146 0.313045 -0.084971
0.790637 0.313039 -0.084973
0.842708 0.311306 -0.084976
-0.067440 0.321964 -0.084964
-0.052509 0.321964 -0.084964
0.077192 0.321964 -0.084964
0.135162 0.321964 -0.084964
0.187091 0.321963 -0.084965
0.237324 0.321963 -0.084965
0.286832 0.321963 -0.084965
0.350340 0.335903 -0.084967
0.416192 0.348513 -0.084968
0.482937 0.359154 -0.084970
0.548482 0.366999 -0.084972
0.612560 0.372440 -0.084970
0.674502 0.375883 -0.084972
0.734146 0.377468 -0.084974
0.790637 0.377457 -0.084976
0.842707 0.375355 -0.084979
-0.067445 0.393260 -0.084967
-0.050593 0.393260 -0.084967
0.082664 0.393260 -0.084968
0.141876 0.393260 -0.084968
0.195632 0.393260 -0.084968
0.247765 0.393260 -0.084968
0.299254 0.393260 -0.084969
0.350339 0.393259 -0.084969
0.416191 0.407926 -0.084971
0.482937 0.420262 -0.084973
0.548482 0.429377 -0.084971
0.612559 0.435737 -0.084973
0.674502 0.439728 -0.084975
0.734146 0.441598 -0.084978
0.790637 0.441566 -0.084980
0.842707 0.439139 -0.084982
-0.067447 0.467160 -0.084972
-0.048665 0.467160 -0.084972
0.087473 0.467160 -0.084972
0.147903 0.467160 -0.084972
0.203315 0.467160 -0.084973
0.257216 0.467160 -0.084973
0.310489 0.467160 -0.084974
0.363441 0.467160 -0.084970
0.416191 0.467160 -0.084971
0.482936 0.481249 -0.084973
0.548481 0.491589 -0.084975
0.612559 0.498835 -0.084978
0.674502 0.503413 -0.084980
0.734145 0.505568 -0.084982
0.790636 0.505512 -0.084984
0.842707 0.502750 -0.084991
-0.067456 0.542034 -0.084973
-0.046874 0.542034 -0.084973
0.091422 0.542034 -0.084973
0.152960 0.542034 -0.084974
0.209783 0.542034 -0.084974
0.265184 0.542034 -0.084974
0.319963 0.542034 -0.084975
0.374413 0.542034 -0.084976
0.428715 0.542034 -0.084977
0.482936 0.542034 -0.084978
0.548481 0.553687 -0.084980
0.612559 0.561818 -0.084983
0.674502 0.566969 -0.084985
0.734145 0.569380 -0.084992
0.790636 0.569336 -0.084995
0.842707 0.566240 -0.084997
-0.067463 0.615672 -0.084980
-0.045449 0.615672 -0.084980
0.094286 0.615672 -0.084980
0.156663 0.615672 -0.084981
0.214529 0.615672 -0.084981
0.271035 0.615672 -0.084981
0.326921 0.615672 -0.084982
0.382512 0.615672 -0.084983
0.437972 0.615672 -0.084983
0.493284 0.615672 -0.084985
0.548480 0.615672 -0.084986
0.612558 0.624699 -0.084994
0.674501 0.630406 -0.084996
0.734144 0.633058 -0.084999
0.790636 0.633031 -0.084997
0.842706 0.629575 -0.084998
-0.067479 0.687597 -0.084993
-0.044393 0.687597 -0.084993
0.096256 0.687597 -0.084993
0.159253 0.687597 -0.084993
0.217865 0.687597 -0.084994
0.275110 0.687597 -0.084994
0.331802 0.687597 -0.084995
0.388188 0.687597 -0.084995
0.444430 0.687597 -0.084996
0.500529 0.687597 -0.084998
0.556535 0.687597 -0.084999
0.612558 0.687597 -0.084996
0.674501 0.693858 -0.084999
0.734144 0.696781 -0.085001
0.790635 0.696757 -0.085004
0.842706 0.692935 -0.085006
-0.067489 0.757154 -0.084997
-0.043707 0.757154 -0.084997
0.097497 0.757154 -0.084997
0.160862 0.757154 -0.084998
0.219954 0.757153 -0.084998
0.277685 0.757153 -0.084998
0.334876 0.757153 -0.084999
0.391740 0.757153 -0.085000
0.448480 0.757153 -0.085001
0.505103 0.757153 -0.085002
0.561616 0.757153 -0.085004
0.618147 0.757153 -0.085005
0.674500 0.757153 -0.085007
0.734143 0.760387 -0.085010
0.790635 0.760317 -0.085012
0.842706 0.756122 -0.085014
-0.067499 0.824029 -0.085007
-0.043389 0.824029 -0.085007
0.098058 0.824029 -0.085007
0.161633 0.824029 -0.085007
0.220908 0.824029 -0.085008
0.278894 0.824029 -0.085008
0.336304 0.824029 -0.085009
0.393420 0.824029 -0.085010
0.450387 0.824029 -0.085011
0.507258 0.824029 -0.085012
0.563984 0.824029 -0.085014
0.620786 0.824029 -0.085015
0.677377 0.824029 -0.085017
0.734142 0.824029 -0.085019
0.790635 0.823977 -0.085021
0.842705 0.819527 -0.085019
-0.067512 0.887444 -0.085017
-0.043420 0.887444 -0.085017
0.098045 0.887444 -0.085018
0.161602 0.887444 -0.085018
0.220905 0.887444 -0.085018
0.278862 0.887444 -0.085019
0.336275 0.887444 -0.085019
0.393400 0.887444 -0.085020
0.450341 0.887444 -0.085021
0.507202 0.887444 -0.085018
0.563939 0.887444 -0.085019
0.620731 0.887444 -0.085021
0.677312 0.887443 -0.085023
0.734036 0.887443 -0.085025
0.790634 0.887443 -0.085027
0.842705 0.882655 -0.085029
-0.067529 0.945889 -0.085023
-0.043882 0.945889 -0.085023
0.097290 0.945889 -0.085024
0.160610 0.945889 -0.085024
0.219619 0.945889 -0.085024
0.277314 0.945889 -0.085025
0.334413 0.945889 -0.085025
0.391230 0.945888 -0.085026
0.447905 0.945888 -0.085027
0.504439 0.945888 -0.085028
0.560932 0.945888 -0.085035
0.617359 0.945888 -0.085036
0.673657 0.945888 -0.085038
0.730062 0.945888 -0.085040
0.786370 0.945888 -0.085042
0.842704 0.945888 -0.085045
-0.067430 -0.075689 -0.046838
-0.037173 -0.075689 -0.046838
0.068489 -0.075689 -0.069325
0.117497 -0.075689 -0.071309
0.169670 -0.075690 -0.070324
0.226333 -0.075690 -0.068421
0.286834 -0.075690 -0.066142
0.350340 -0.075691 -0.063728
0.416193 -0.075692 -0.061286
0.482938 -0.075694 -0.059013
0.548483 -0.075695 -0.057194
0.612560 -0.075697 -0.055842
0.674503 -0.075699 -0.054947
0.734147 -0.075701 -0.054520
0.790637 -0.075707 -0.054534
0.842708 -0.075709 -0.055090
-0.067430 -0.041726 -0.046838
-0.037171 -0.041726 -0.046838
0.068489 -0.041726 -0.046838
0.117497 -0.041726 -0.046836
0.169670 -0.041727 -0.046836
0.226333 -0.041728 -0.046837
0.286834 -0.041729 -0.046839
0.350340 -0.041731 -0.046841
0.416193 -0.041733 -0.046837
0.482938 -0.041736 -0.046841
0.548483 -0.041740 -0.046846
0.612560 -0.041744 -0.046848
0.674503 -0.041751 -0.046854
0.734147 -0.041756 -0.046861
0.790637 -0.041761 -0.046865
0.842708 -0.041768 -0.046872
-0.067431 0.076873 -0.069326
-0.037172 0.076873 -0.046836
0.068488 0.076873 -0.046836
0.117497 0.078473 -0.046836
0.169670 0.083270 -0.046837
0.226333 0.088652 -0.046838
0.286834 0.093823 -0.046840
0.350340 0.098511 -0.046842
0.416193 0.102665 -0.046839
0.482938 0.106126 -0.046843
0.548483 0.108652 -0.046847
0.612560 0.110405 -0.046850
0.674503 0.111513 -0.046856
0.734147 0.112028 -0.046862
0.790637 0.112017 -0.046867
0.842708 0.111354 -0.046874
-0.067431 0.131887 -0.071310
-0.037174 0.131887 -0.046837
0.069908 0.131887 -0.046838
0.117497 0.131887 -0.046838
0.169670 0.138955 -0.046839
0.226332 0.146953 -0.046840
0.286833 0.154703 -0.046842
0.350340 0.161780 -0.046838
0.416193 0.168090 -0.046841
0.482938 0.173350 -0.046845
0.548483 0.177194 -0.046847
0.612560 0.179882 -0.046853
0.674503 0.181594 -0.046859
0.734147 0.182380 -0.046863
0.790637 0.182365 -0.046869
0.842708 0.181354 -0.046876
-0.067433 0.190461 -0.070326
-0.037177 0.190461 -0.046840
0.074188 0.190461 -0.046840
0.123803 0.190461 -0.046841
0.169669 0.190461 -0.046841
0.226332 0.201131 -0.046843
0.286833 0.211473 -0.046838
0.350340 0.220944 -0.046841
0.416193 0.229402 -0.046845
0.482938 0.236459 -0.046847
0.548483 0.241633 -0.046851
0.612560 0.245236 -0.046857
0.674503 0.247510 -0.046863
0.734146 0.248576 -0.046867
0.790637 0.248559 -0.046874
0.842708 0.247205 -0.046874
-0.067436 0.254034 -0.068420
-0.037184 0.254034 -0.046838
0.078978 0.254034 -0.046838
0.130917 0.254034 -0.046838
0.179174 0.254034 -0.046839
0.226332 0.254034 -0.046840
0.286833 0.266985 -0.046843
0.350340 0.278867 -0.046846
0.416192 0.289439 -0.046847
0.482937 0.298284 -0.046852
0.548482 0.304757 -0.046858
0.612560 0.309271 -0.046864
0.674503 0.312151 -0.046867
0.734146 0.313463 -0.046874
0.790637 0.313437 -0.046874
0.842708 0.311749 -0.046878
-0.067440 0.321964 -0.066150
-0.037190 0.321964 -0.046845
0.083574 0.321964 -0.046845
0.137824 0.321964 -0.046846
0.188410 0.321963 -0.046846
0.237862 0.321963 -0.046847
0.286832 0.321963 -0.046846
0.350340 0.336199 -0.046850
0.416192 0.348922 -0.046855
0.482937 0.359538 -0.046860
0.548482 0.367317 -0.046863
0.612560 0.372753 -0.046869
0.674503 0.376175 -0.046876
0.734146 0.377778 -0.046880
0.790637 0.377780 -0.046880
0.842707 0.375712 -0.046886
-0.067445 0.393260 -0.063736
-0.037201 0.393260 -0.046852
0.087756 0.393260 -0.046852
0.144134 0.393260 -0.046853
0.196854 0.393260 -0.046854
0.248432 0.393260 -0.046855
0.299523 0.393260 -0.046856
0.350339 0.393260 -0.046858
0.416191 0.408122 -0.046864
0.482937 0.420504 -0.046867
0.548482 0.429600 -0.046873
0.612559 0.435956 -0.046880
0.674502 0.439941 -0.046877
0.734146 0.441811 -0.046884
0.790637 0.441803 -0.046891
0.842707 0.439410 -0.046895
-0.067447 0.467160 -0.061304
-0.037212 0.467160 -0.046863
0.091448 0.467160 -0.046863
0.149739 0.467160 -0.046864
0.204369 0.467160 -0.046865
0.257860 0.467160 -0.046866
0.310846 0.467160 -0.046868
0.363587 0.467160 -0.046870
0.416191 0.467160 -0.046872
0.482936 0.481336 -0.046879
0.548481 0.491739 -0.046876
0.612559 0.498998 -0.046883
0.674502 0.503580 -0.046890
0.734145 0.505729 -0.046895
0.790636 0.505688 -0.046902
0.842707 0.502943 -0.046906
-0.067456 0.542034 -0.059038
-0.037232 0.542034 -0.046880
0.094533 0.542034 -0.046874
0.154437 0.542034 -0.046874
0.210662 0.542034 -0.046880
0.265735 0.542034 -0.046874
0.320324 0.542034 -0.046876
0.374655 0.542034 -0.046878
0.428818 0.542034 -0.046881
0.482936 0.542034 -0.046884
0.548481 0.553721 -0.046889
0.612559 0.561935 -0.046896
0.674502 0.567069 -0.046904
0.734145 0.569490 -0.046909
0.790636 0.569456 -0.046916
0.842707 0.566384 -0.046917
-0.067463 0.615672 -0.057230
-0.037251 0.615672 -0.046891
0.096771 0.615672 -0.046889
0.157864 0.615672 -0.046889
0.215263 0.615672 -0.046890
0.271514 0.615672 -0.046892
0.327237 0.615672 -0.046894
0.382721 0.615672 -0.046896
0.438077 0.615672 -0.046900
0.493355 0.615672 -0.046903
0.548480 0.615672 -0.046907
0.612559 0.624743 -0.046912
0.674501 0.630473 -0.046915
0.734145 0.633172 -0.046920
0.790636 0.633131 -0.046927
0.842706 0.629695 -0.046933
-0.067479 0.687597 -0.055888
-0.037277 0.687598 -0.046910
0.098343 0.687598 -0.046911
0.160257 0.687598 -0.046911
0.218463 0.687598 -0.046912
0.275526 0.687598 -0.046914
0.332097 0.687597 -0.046916
0.388383 0.687597 -0.046913
0.444539 0.687597 -0.046916
0.500632 0.687597 -0.046920
0.556587 0.687597 -0.046921
0.612558 0.687597 -0.046926
0.674501 0.693892 -0.046934
0.734144 0.696837 -0.046939
0.790635 0.696788 -0.046946
0.842706 0.693074 -0.046951
-0.067489 0.757154 -0.055006
-0.037302 0.757154 -0.046929
0.099317 0.757154 -0.046930
0.161752 0.757154 -0.046930
0.220504 0.757154 -0.046931
0.278073 0.757154 -0.046933
0.335133 0.757153 -0.046935
0.391922 0.757153 -0.046934
0.448626 0.757153 -0.046937
0.505195 0.757153 -0.046941
0.561670 0.757153 -0.046945
0.618174 0.757153 -0.046950
0.674501 0.757153 -0.046953
0.734143 0.760414 -0.046954
0.790635 0.760358 -0.046960
0.842706 0.756191 -0.046963
-0.067499 0.824029 -0.054598
-0.037332 0.824029 -0.046953
0.099767 0.824029 -0.046953
0.162466 0.824029 -0.046954
0.221454 0.824029 -0.046955
0.279248 0.824029 -0.046956
0.336554 0.824029 -0.046951
0.393600 0.824029 -0.046954
0.450538 0.824029 -0.046957
0.507359 0.824029 -0.046960
0.564083 0.824029 -0.046962
0.620831 0.824029 -0.046967
0.677399 0.824029 -0.046972
0.734143 0.824029 -0.046978
0.790635 0.824001 -0.046983
0.842705 0.819573 -0.046988
-0.067512 0.887444 -0.054623
-0.037362 0.887444 -0.046974
0.099761 0.887444 -0.046974
0.162441 0.887444 -0.046975
0.221429 0.887444 -0.046976
0.279246 0.887444 -0.046977
0.336533 0.887444 -0.046979
0.393595 0.887444 -0.046979
0.450504 0.887444 -0.046982
0.507318 0.887444 -0.046985
0.564049 0.887444 -0.046990
0.620791 0.887444 -0.046988
0.677352 0.887443 -0.046990
0.734065 0.887443 -0.046997
0.790634 0.887443 -0.047003
0.842705 0.882679 -0.047005
-0.067529 0.945889 -0.055190
-0.037395 0.945889 -0.046992
0.099164 0.945889 -0.046992
0.161553 0.945889 -0.046993
0.220211 0.945889 -0.046994
0.277738 0.945889 -0.046996
0.334738 0.945889 -0.046998
0.391463 0.945889 -0.047000
0.448069 0.945888 -0.047003
0.504581 0.945888 -0.047004
0.561016 0.945888 -0.047008
0.617436 0.945888 -0.047013
0.673715 0.945888 -0.047018
0.730118 0.945888 -0.047022
0.786389 0.945888 -0.047028
0.842704 0.945888 -0.047031
-0.067430 -0.075689 0.086284
-0.055025 -0.075689 0.086284
0.068489 -0.075689 0.086284
0.117497 -0.075689 0.077849
0.169670 -0.075690 0.082236
0.226333 -0.075690 0.089681
0.286834 -0.075690 0.097263
0.350340 -0.075691 0.104167
0.416193 -0.075692 0.110220
0.482938 -0.075694 0.115204
0.548483 -0.075695 0.118812
0.612560 -0.075697 0.121308
0.674503 -0.075699 0.122865
0.734147 -0.075701 0.123591
0.790637 -0.075707 0.123579
0.842708 -0.075709 0.122632
-0.067430 -0.061761 0.086284
-0.037171 -0.041726 0.086284
0.068489 -0.041726 0.086284
0.117497 -0.041727 0.088081
0.169670 -0.041727 0.093464
0.226333 -0.041728 0.099510
0.286834 -0.041729 0.105306
0.350340 -0.041731 0.110575
0.416193 -0.041733 0.115243
0.482938 -0.041736 0.119120
0.548483 -0.041740 0.121954
0.612560 -0.041744 0.123928
0.674503 -0.041751 0.125168
0.734147 -0.041756 0.125750
0.790637 -0.041761 0.125737
0.842708 -0.041768 0.125000
-0.067431 0.076873 0.086284
-0.037172 0.076873 0.086284
0.064285 0.077327 0.090860
0.128834 0.070068 0.085196
0.186886 0.058437 0.075655
0.242267 0.049809 0.068210
0.300133 0.044188 0.063537
0.361161 0.040697 0.060752
0.425040 0.038598 0.059112
0.490283 0.037400 0.058168
0.554732 0.036800 0.057657
0.617949 0.036573 0.057412
0.679271 0.036599 0.057341
0.738318 0.036797 0.057384
0.794339 0.037104 0.057504
0.846098 0.037480 0.057676
-0.067432 0.131887 0.077849
-0.037174 0.131887 0.088080
0.043909 0.134621 0.075404
0.114128 0.133760 0.063045
0.176047 0.135675 0.057480
0.235920 0.138220 0.052439
0.296974 0.141323 0.048464
0.359966 0.144748 0.045574
0.424858 0.148242 0.043594
0.490616 0.151414 0.042320
0.555352 0.153751 0.041567
0.618707 0.155383 0.041175
0.680047 0.156350 0.041041
0.739179 0.156701 0.041083
0.795188 0.156456 0.041251
0.846929 0.155445 0.041492
-0.067433 0.190461 0.082234
-0.037177 0.190461 0.093471
0.036426 0.192514 0.069514
0.110169 0.193078 0.050580
0.167876 0.191799 0.049392
0.229057 0.199402 0.047002
0.291607 0.206835 0.045002
0.355955 0.213767 0.043462
0.421897 0.220111 0.042355
0.488469 0.225479 0.041632
0.553711 0.229378 0.041226
0.617511 0.232030 0.041052
0.679121 0.233625 0.041053
0.738439 0.234203 0.041182
0.794645 0.233877 0.041407
0.846452 0.232381 0.041682
-0.067436 0.254034 0.089678
-0.037184 0.254034 0.099508
0.033518 0.255496 0.067306
0.112086 0.256214 0.044760
0.172164 0.255651 0.044363
0.225158 0.254963 0.043869
0.288184 0.265833 0.042838
0.353061 0.275794 0.042053
0.419555 0.284745 0.041504
0.486591 0.292222 0.041181
0.552256 0.297627 0.041046
0.616285 0.301320 0.041063
0.678176 0.303499 0.041182
0.737584 0.304347 0.041398
0.794008 0.303998 0.041670
0.845941 0.302099 0.041977
-0.067440 0.321964 0.097258
-0.037191 0.321964 0.105303
0.032612 0.323032 0.066481
0.116046 0.323656 0.042122
0.178314 0.323385 0.041990
0.233478 0.323039 0.041823
0.286043 0.322630 0.041643
0.351076 0.335337 0.041290
0.417828 0.346713 0.041093
0.485081 0.356184 0.041034
0.550961 0.363050 0.041094
0.615228 0.367745 0.041252
0.677283 0.370544 0.041474
0.736916 0.371693 0.041753
0.793383 0.371366 0.042066
0.845386 0.369070 0.042395
-0.067445 0.393260 0.104161
-0.037201 0.393260 0.110569
0.032761 0.394081 0.066285
0.120513 0.394628 0.041139
0.184799 0.394486 0.041115
0.241960 0.394261 0.041083
0.296519 0.394073 0.041053
0.349772 0.393787 0.041039
0.416592 0.407450 0.041072
0.483963 0.418822 0.041195
0.549981 0.427113 0.041395
0.614335 0.432757 0.041649
0.676452 0.436226 0.041948
0.736175 0.437663 0.042273
0.792760 0.437301 0.042617
0.844872 0.434680 0.042957
-0.067447 0.467160 0.110216
-0.037213 0.467160 0.115234
0.033565 0.467790 0.066452
0.124882 0.468233 0.041125
0.191007 0.468148 0.041139
0.249963 0.468037 0.041173
0.306306 0.467894 0.041219
0.361372 0.467742 0.041280
0.415731 0.467553 0.041366
0.483153 0.480832 0.041630
0.549216 0.490456 0.041928
0.613647 0.497069 0.042257
0.675831 0.501129 0.042604
0.735600 0.502877 0.042964
0.792251 0.502532 0.043329
0.844353 0.499566 0.043669
-0.067456 0.542034 0.115192
-0.037233 0.542034 0.119116
0.034819 0.542541 0.066868
0.128719 0.542920 0.041721
0.196388 0.542900 0.041762
0.256852 0.542783 0.041821
0.314705 0.542714 0.041903
0.371294 0.542621 0.042006
0.427169 0.542512 0.042136
0.482551 0.542387 0.042298
0.548636 0.553363 0.042678
0.613076 0.560899 0.043061
0.675336 0.565552 0.043446
0.735113 0.567586 0.043829
0.791728 0.567228 0.044198
0.843930 0.563919 0.044533
-0.067464 0.615672 0.118803
-0.037251 0.615672 0.121938
0.036356 0.616093 0.067447
0.131645 0.616400 0.042721
0.200399 0.616366 0.042772
0.261961 0.616293 0.042843
0.320896 0.616256 0.042939
0.378550 0.616186 0.043063
0.435531 0.616105 0.043215
0.492035 0.616038 0.043398
0.548225 0.615915 0.043614
0.612661 0.624424 0.044043
0.674850 0.629653 0.044456
0.734702 0.631944 0.044852
0.791383 0.631610 0.045216
0.843568 0.627946 0.045542
-0.067479 0.687597 0.121287
-0.037277 0.687598 0.123917
0.038088 0.687943 0.068161
0.133797 0.688236 0.043986
0.203243 0.688170 0.044039
0.265534 0.688134 0.044117
0.325203 0.688090 0.044224
0.383641 0.688096 0.044354
0.441347 0.688034 0.044510
0.498627 0.687964 0.044703
0.555552 0.687928 0.044930
0.612306 0.687805 0.045183
0.674542 0.693593 0.045619
0.734460 0.696203 0.046023
0.791055 0.695800 0.046389
0.843301 0.691829 0.046687
-0.067490 0.757154 0.122840
-0.037302 0.757154 0.125153
0.039936 0.757410 0.068983
0.135254 0.757692 0.045421
0.205084 0.757674 0.045472
0.267787 0.757649 0.045554
0.327913 0.757620 0.045660
0.386789 0.757580 0.045796
0.444936 0.757533 0.045955
0.502657 0.757481 0.046150
0.560081 0.757423 0.046375
0.617343 0.757360 0.046633
0.674352 0.757367 0.046922
0.734079 0.760174 0.047332
0.790846 0.759824 0.047681
0.843035 0.755481 0.047954
-0.067499 0.824029 0.123569
-0.037333 0.824029 0.125730
0.041840 0.824294 0.069877
0.136085 0.824567 0.046964
0.205979 0.824553 0.047022
0.268830 0.824533 0.047103
0.329121 0.824508 0.047205
0.388167 0.824477 0.047335
0.446521 0.824440 0.047496
0.504447 0.824399 0.047682
0.562049 0.824352 0.047908
0.619504 0.824302 0.048157
0.676759 0.824285 0.048442
0.733918 0.824229 0.048763
0.790631 0.823846 0.049108
0.842893 0.819117 0.049352
-0.067512 0.887444 0.123551
-0.037363 0.887444 0.125710
0.043743 0.887643 0.070815
0.136348 0.887857 0.048557
0.206028 0.887846 0.048611
0.268775 0.887830 0.048686
0.328996 0.887810 0.048785
0.387973 0.887785 0.048912
0.446278 0.887756 0.049068
0.504136 0.887772 0.049252
0.561694 0.887735 0.049467
0.619105 0.887693 0.049712
0.676268 0.887649 0.049985
0.733540 0.887602 0.050293
0.790461 0.887554 0.050628
0.842689 0.882509 0.050851
-0.067529 0.945889 0.122610
-0.037395 0.945889 0.124966
0.045569 0.946140 0.071755
0.135877 0.946318 0.050118
0.204983 0.946309 0.050167
0.267309 0.946296 0.050240
0.327138 0.946280 0.050341
0.385752 0.946260 0.050457
0.443712 0.946236 0.050601
0.501221 0.946207 0.050779
0.558437 0.946176 0.050976
0.615524 0.946142 0.051214
0.672365 0.946105 0.051475
0.729241 0.946145 0.051766
0.785844 0.946104 0.052092
0.842573 0.946062 0.052448
-0.067430 -0.075689 0.148035
-0.056598 -0.075689 0.148035
0.061790 -0.075689 0.148035
0.117497 -0.075689 0.148035
0.169670 -0.075690 0.152832
0.226333 -0.075690 0.161312
0.286834 -0.075691 0.170298
0.350340 -0.075691 0.178742
0.416193 -0.075693 0.186361
0.482938 -0.075694 0.192743
0.548483 -0.075696 0.197407
0.612560 -0.075697 0.200656
0.674503 -0.075699 0.202699
0.734147 -0.075701 0.203653
0.790637 -0.075707 0.203640
0.842708 -0.075709 0.202389
-0.067430 -0.063530 0.148035
-0.037171 -0.041726 0.148035
0.069909 -0.041726 0.148035
0.117497 -0.041727 0.148035
0.169670 -0.041727 0.155981
0.226333 -0.041728 0.164952
0.286834 -0.041729 0.173647
0.350340 -0.041731 0.181588
0.416193 -0.041733 0.188676
0.482938 -0.041736 0.194577
0.548483 -0.041740 0.198895
0.612560 -0.041744 0.201917
0.674503 -0.041751 0.203819
0.734147 -0.041756 0.204721
0.790637 -0.041761 0.204702
0.842708 -0.041769 0.203561
-0.067431 0.069356 0.148035
-0.037172 0.078473 0.148035
0.058926 0.073214 0.168651
0.126627 0.065554 0.166216
0.184234 0.056004 0.165113
0.240543 0.048622 0.164799
0.299106 0.043605 0.166470
0.360610 0.040411 0.169393
0.424702 0.038455 0.172830
0.490052 0.037334 0.176091
0.554567 0.036771 0.178586
0.617831 0.036567 0.180356
0.679143 0.036606 0.181427
0.738217 0.036810 0.181803
0.794285 0.037123 0.181570
0.846055 0.037501 0.180482
-0.067432 0.131887 0.148035
-0.037174 0.131887 0.148035
0.042890 0.133599 0.152642
0.110281 0.132664 0.155866
0.181315 0.126227 0.150797
0.250847 0.114285 0.141639
0.316253 0.101075 0.130502
0.379139 0.090423 0.121271
0.442346 0.082351 0.114402
0.506091 0.076473 0.109545
0.569011 0.072314 0.106195
0.630765 0.069355 0.103858
0.690876 0.067255 0.102220
0.748852 0.065762 0.101058
0.804051 0.064711 0.100231
0.855085 0.063991 0.099653
-0.067433 0.190461 0.152832
-0.037177 0.190461 0.155980
0.036170 0.192170 0.152048
0.084484 0.195165 0.136958
0.162326 0.193668 0.125473
0.236167 0.193882 0.115904
0.305039 0.193685 0.106676
0.371995 0.193704 0.098539
0.438540 0.194208 0.091772
0.504648 0.194960 0.086420
0.569044 0.195350 0.082353
0.631740 0.195398 0.079272
0.692353 0.195061 0.076947
0.750742 0.194255 0.075194
0.806167 0.192986 0.073882
0.857299 0.190941 0.072924
-0.067436 0.254034 0.161311
-0.037182 0.254034 0.164951
0.033451 0.255367 0.155839
0.070369 0.258444 0.125351
0.149939 0.259557 0.101783
0.221577 0.257005 0.099048
0.291966 0.262877 0.093797
0.360769 0.268264 0.089051
0.429248 0.273195 0.084941
0.497170 0.277321 0.081550
0.563076 0.280024 0.078887
0.627000 0.281588 0.076797
