src/luts/Natural Glare.cube
LUT_3D_SIZE 6
0.000000 0.000000 0.000000
0.188348 -0.000765 -0.000765
0.402928 -0.001637 -0.001637
0.629303 -0.002557 -0.002557
0.851228 -0.003458 -0.003458
1.056270 -0.004291 -0.004291
-0.001180 0.175231 -0.001180
0.188348 0.175231 -0.001339
0.402928 0.187412 -0.001957
0.629303 0.195143 -0.002761
0.851228 0.197979 -0.003600
1.056270 0.196519 -0.004396
-0.002525 0.374845 -0.002525
0.201444 0.374845 -0.002594
0.402927 0.374844 -0.002864
0.629303 0.390267 -0.003461
0.851228 0.395956 -0.004136
1.056269 0.393046 -0.004808
-0.003943 0.585443 -0.003943
0.209742 0.585443 -0.003985
0.419524 0.585443 -0.004155
0.629302 0.585443 -0.004473
0.851227 0.593964 -0.004997
1.056269 0.589620 -0.005521
-0.005334 0.791934 -0.005334
0.212785 0.791934 -0.005362
0.425618 0.791934 -0.005480
0.638462 0.791933 -0.005709
0.851226 0.791933 -0.006051
1.056268 0.786113 -0.006447
-0.006618 0.982751 -0.006618
0.211232 0.982751 -0.006640
0.422494 0.982751 -0.006726
0.633803 0.982751 -0.006897
0.845002 0.982751 -0.007158
1.056267 0.982750 -0.007508
-0.000461 -0.000461 0.177770
0.188348 -0.000853 0.177770
0.402928 -0.001675 0.190138
0.629303 -0.002579 0.197976
0.851228 -0.003474 0.200863
1.056270 -0.004303 0.199374
-0.001230 0.175231 0.177769
0.190254 0.174593 0.177673
0.424414 0.154093 0.157725
0.653675 0.125059 0.129591
0.871444 0.107000 0.112336
1.056270 0.175235 0.177758
-0.002545 0.374845 0.190136
0.149469 0.379912 0.132023
0.406405 0.375210 0.123942
0.641439 0.379896 0.111502
0.864780 0.378672 0.102050
1.056269 0.386160 0.177755
-0.003955 0.585443 0.197971
0.125268 0.589448 0.103627
0.405956 0.588019 0.101643
0.631556 0.585768 0.098526
0.857548 0.589558 0.094862
1.056269 0.586571 0.177748
-0.005342 0.791934 0.200851
0.116733 0.794796 0.092976
0.404895 0.794206 0.092486
0.632887 0.793361 0.091638
0.852760 0.792189 0.090685
1.056268 0.784935 0.177739
-0.006625 0.982751 0.199377
0.114142 0.984827 0.089720
0.399207 0.984585 0.089638
0.624609 0.984145 0.089509
0.842303 0.983519 0.089422
1.056267 0.982750 0.177758
-0.000985 -0.000985 0.380284
0.201447 -0.001211 0.380284
0.402928 -0.001824 0.380283
0.629303 -0.002672 0.395943
0.851228 -0.003538 0.401724
1.056270 -0.004350 0.398778
-0.001516 0.187413 0.380283
0.185124 0.168761 0.403887
0.421963 0.148614 0.396773
0.651748 0.122643 0.394224
0.870485 0.106049 0.388658
1.056270 0.175235 0.391801
-0.002632 0.374845 0.380282
0.142108 0.378705 0.384882
0.407023 0.373520 0.380061
0.657743 0.357837 0.364808
0.896097 0.331645 0.339332
1.056269 0.374840 0.380277
-0.004008 0.585443 0.395941
0.112182 0.589469 0.379962
0.366825 0.593606 0.335310
0.637220 0.585734 0.321045
0.879019 0.576170 0.301853
1.056269 0.581615 0.380275
-0.005378 0.791934 0.401747
0.099896 0.794979 0.377431
0.321528 0.802835 0.284491
0.613849 0.798523 0.277126
0.858716 0.792719 0.267146
1.056268 0.783007 0.380271
-0.006651 0.982751 0.398769
0.095568 0.985075 0.371381
0.292559 0.992954 0.251114
0.590260 0.990638 0.247451
0.833512 0.987425 0.242235
1.056267 0.982750 0.380265
-0.001539 -0.001539 0.593951
0.209750 -0.001684 0.593951
0.419528 -0.002169 0.593951
0.629303 -0.002848 0.593951
0.851228 -0.003663 0.602642
1.056270 -0.004443 0.598206
-0.001912 0.195146 0.593951
0.172826 0.154669 0.634542
0.428677 0.137344 0.624775
0.648467 0.118437 0.610891
0.868710 0.104297 0.606954
1.056270 0.175234 0.595097
-0.002910 0.390268 0.593951
0.134564 0.386442 0.614348
0.403030 0.368976 0.623019
0.655694 0.353028 0.615523
0.894699 0.326534 0.604436
1.056269 0.374839 0.590073
-0.004110 0.585443 0.593950
0.110806 0.588525 0.597487
0.361707 0.591389 0.601456
0.635736 0.583364 0.593601
0.883400 0.569969 0.580545
1.056269 0.585441 0.593948
-0.005449 0.791934 0.602640
0.099520 0.794663 0.596162
0.310064 0.802331 0.572756
0.601300 0.800156 0.555512
0.862129 0.791615 0.541134
1.056268 0.784454 0.593946
-0.006703 0.982751 0.598203
0.095479 0.984941 0.587336
0.276256 0.993321 0.545143
0.581978 0.992478 0.536947
0.827276 0.990385 0.506490
1.056267 0.982750 0.593944
-0.002081 -0.002081 0.803462
0.212801 -0.002183 0.803462
0.425623 -0.002559 0.803462
0.638465 -0.003146 0.803461
0.851228 -0.003853 0.803461
1.056270 -0.004587 0.797522
-0.002354 0.197984 0.803462
0.157624 0.137210 0.850126
0.426229 0.125912 0.839829
0.650871 0.112526 0.826934
0.866290 0.101935 0.816847
1.056270 0.175233 0.796322
-0.003203 0.395959 0.803461
0.127290 0.386339 0.831534
0.396415 0.361510 0.852733
0.653953 0.344903 0.848054
0.891570 0.319604 0.838227
1.056269 0.374839 0.794358
-0.004329 0.593965 0.803461
0.108370 0.593351 0.814512
0.354410 0.588986 0.838426
0.632234 0.579444 0.834367
0.881268 0.565893 0.826373
1.056269 0.585441 0.795877
-0.005559 0.791934 0.803459
0.098966 0.794160 0.805974
0.306227 0.800159 0.813249
0.597529 0.797655 0.811353
0.859875 0.789069 0.802923
1.056268 0.791932 0.803458
-0.006785 0.982751 0.797520
0.095351 0.984686 0.794525
0.272133 0.992233 0.783349
0.575721 0.991924 0.778665
0.832996 0.989167 0.774313
1.056267 0.982750 0.803456
-0.002583 -0.002583 0.996951
0.211240 -0.002658 0.996951
0.422502 -0.002949 0.996951
0.633807 -0.003442 0.996950
0.845006 -0.004071 0.996950
1.056269 -0.004780 0.996949
-0.002788 0.196527 0.996951
0.186501 0.173090 0.999391
0.415221 0.172359 0.999399
0.631429 0.170716 0.999416
0.845399 0.167605 0.999437
1.056269 0.175231 0.996949
-0.003491 0.393050 0.996950
0.184513 0.385685 0.999415
0.402401 0.374063 0.999419
0.625822 0.373489 0.999433
0.843212 0.372355 0.999454
1.056269 0.374838 0.996949
-0.004509 0.589622 0.996950
0.179229 0.586597 0.999452
0.400749 0.581476 0.999456
0.629195 0.584946 0.999354
0.844513 0.584277 0.999371
1.056269 0.585441 0.996948
-0.005670 0.786114 0.996949
0.164042 0.785464 0.999384
0.396229 0.783390 0.999387
0.627121 0.784596 0.999393
0.851638 0.791452 0.999397
1.056268 0.791932 0.996947
-0.006899 0.982751 0.996947
0.095197 0.984407 0.998892
0.374470 0.984777 0.999460
0.615499 0.984576 0.999403
0.844378 0.984150 0.999179
1.056267 0.982750 0.996946
