src/luts/Natural Glare.cube
LUT_3D_SIZE 16
0.000000 0.000000 0.000000
0.060320 -0.000245 -0.000245
0.122638 -0.000498 -0.000498
0.188348 -0.000765 -0.000765
0.257421 -0.001046 -0.001046
0.329179 -0.001337 -0.001337
0.402928 -0.001637 -0.001637
0.477892 -0.001942 -0.001942
0.553684 -0.002250 -0.002250
0.629303 -0.002557 -0.002557
0.704205 -0.002861 -0.002861
0.778320 -0.003162 -0.003162
0.851228 -0.003458 -0.003458
0.922817 -0.003749 -0.003749
0.991984 -0.004030 -0.004030
1.056270 -0.004291 -0.004291
-0.000378 0.056117 -0.000378
0.060320 0.056117 -0.000429
0.122638 0.057050 -0.000596
0.188348 0.058415 -0.000826
0.257421 0.059873 -0.001089
0.329179 0.061249 -0.001370
0.402928 0.062474 -0.001663
0.477892 0.063511 -0.001963
0.553684 0.064382 -0.002268
0.629303 0.065041 -0.002572
0.704205 0.065501 -0.002874
0.778320 0.065806 -0.003174
0.851228 0.065976 -0.003469
0.922817 0.066007 -0.003758
0.991984 0.065893 -0.004039
1.056270 0.065477 -0.004299
-0.000769 0.114095 -0.000769
0.061323 0.114095 -0.000790
0.122638 0.114095 -0.000872
0.188348 0.116830 -0.001036
0.257421 0.119740 -0.001251
0.329179 0.122499 -0.001499
0.402928 0.124945 -0.001768
0.477892 0.127025 -0.002051
0.553684 0.128782 -0.002342
0.629303 0.130093 -0.002636
0.704205 0.131018 -0.002931
0.778320 0.131642 -0.003224
0.851228 0.131984 -0.003513
0.922817 0.132050 -0.003798
0.991984 0.131842 -0.004075
1.056270 0.131009 -0.004331
-0.001180 0.175231 -0.001180
0.062784 0.175231 -0.001193
0.125573 0.175231 -0.001244
0.188348 0.175231 -0.001339
0.257421 0.179595 -0.001511
0.329179 0.183745 -0.001720
0.402928 0.187412 -0.001957
0.477891 0.190552 -0.002214
0.553684 0.193169 -0.002484
0.629303 0.195143 -0.002761
0.704205 0.196539 -0.003041
0.778320 0.197454 -0.003321
0.851228 0.197979 -0.003600
0.922817 0.198080 -0.003877
0.991984 0.197745 -0.004146
1.056270 0.196519 -0.004396
-0.001613 0.239486 -0.001613
0.064352 0.239486 -0.001621
0.128705 0.239486 -0.001657
0.193065 0.239486 -0.001727
0.257420 0.239486 -0.001830
0.329179 0.245002 -0.002009
0.402928 0.249898 -0.002216
0.477891 0.254066 -0.002445
0.553684 0.257561 -0.002690
0.629303 0.260196 -0.002945
0.704205 0.262054 -0.003206
0.778320 0.263289 -0.003470
0.851228 0.263978 -0.003735
0.922817 0.264128 -0.003999
0.991984 0.263691 -0.004256
1.056270 0.262046 -0.004497
-0.002063 0.306233 -0.002063
0.065832 0.306233 -0.002069
0.131674 0.306233 -0.002096
0.197494 0.306233 -0.002149
0.263352 0.306233 -0.002231
0.329179 0.306232 -0.002340
0.402927 0.312364 -0.002524
0.477891 0.317572 -0.002728
0.553684 0.321956 -0.002949
0.629303 0.325222 -0.003182
0.704204 0.327570 -0.003421
0.778320 0.329110 -0.003667
0.851228 0.329974 -0.003914
0.922817 0.330171 -0.004163
0.991984 0.329597 -0.004407
1.056270 0.327559 -0.004634
-0.002525 0.374845 -0.002525
0.067146 0.374845 -0.002530
0.134303 0.374845 -0.002551
0.201444 0.374845 -0.002594
0.268611 0.374845 -0.002660
0.335772 0.374844 -0.002751
0.402927 0.374844 -0.002864
0.477891 0.381104 -0.003049
0.553684 0.386338 -0.003250
0.629303 0.390267 -0.003461
0.704204 0.393080 -0.003680
0.778320 0.394915 -0.003906
0.851228 0.395956 -0.004136
0.922817 0.396185 -0.004367
0.991984 0.395519 -0.004596
1.056269 0.393046 -0.004808
-0.002995 0.444592 -0.002995
0.068259 0.444592 -0.002999
0.136539 0.444592 -0.003016
0.204807 0.444592 -0.003052
0.273078 0.444592 -0.003107
0.341360 0.444592 -0.003183
0.409622 0.444591 -0.003280
0.477890 0.444591 -0.003397
0.553683 0.450731 -0.003582
0.629303 0.455327 -0.003775
0.704204 0.458588 -0.003975
0.778319 0.460761 -0.004182
0.851228 0.461965 -0.004393
0.922817 0.462212 -0.004608
0.991983 0.461440 -0.004819
1.056269 0.458559 -0.005016
-0.003470 0.515109 -0.003470
0.069193 0.515109 -0.003473
0.138414 0.515109 -0.003488
0.207620 0.515109 -0.003518
0.276836 0.515109 -0.003565
0.346043 0.515109 -0.003630
0.415267 0.515109 -0.003713
0.484469 0.515109 -0.003816
0.553683 0.515109 -0.003936
0.629302 0.520391 -0.004114
0.704204 0.524135 -0.004298
0.778319 0.526605 -0.004488
0.851228 0.527981 -0.004682
0.922816 0.528270 -0.004880
0.991983 0.527376 -0.005075
1.056269 0.524098 -0.005255
-0.003943 0.585443 -0.003943
0.069896 0.585443 -0.003946
0.139830 0.585443 -0.003959
0.209742 0.585443 -0.003985
0.279681 0.585443 -0.004025
0.349584 0.585443 -0.004082
0.419524 0.585443 -0.004155
0.489410 0.585443 -0.004245
0.559372 0.585443 -0.004351
0.629302 0.585443 -0.004473
0.704203 0.589673 -0.004644
0.778319 0.592421 -0.004818
0.851227 0.593964 -0.004997
0.922816 0.594347 -0.005178
0.991983 0.593309 -0.005357
1.056269 0.589620 -0.005521
-0.004413 0.655146 -0.004413
0.070383 0.655146 -0.004415
0.140828 0.655146 -0.004426
0.211246 0.655146 -0.004449
0.281666 0.655146 -0.004484
0.352111 0.655145 -0.004533
0.422522 0.655145 -0.004598
0.492932 0.655145 -0.004677
0.563359 0.655145 -0.004772
0.633810 0.655145 -0.004882
0.704203 0.655145 -0.005006
0.778319 0.658209 -0.005168
0.851227 0.659961 -0.005332
0.922816 0.660351 -0.005499
0.991983 0.659201 -0.005662
1.056269 0.655108 -0.005810
-0.004877 0.724057 -0.004877
0.070710 0.724057 -0.004880
0.141487 0.724057 -0.004889
0.212237 0.724057 -0.004909
0.282996 0.724057 -0.004940
0.353768 0.724057 -0.004984
0.424508 0.724056 -0.005041
0.495263 0.724056 -0.005112
0.566018 0.724056 -0.005197
0.636800 0.724056 -0.005296
0.707565 0.724056 -0.005408
0.778318 0.724056 -0.005533
0.851227 0.725982 -0.005684
0.922816 0.726430 -0.005838
0.991982 0.725238 -0.005988
1.056269 0.720582 -0.006120
-0.005334 0.791934 -0.005334
0.070882 0.791934 -0.005336
0.141857 0.791934 -0.005345
0.212785 0.791934 -0.005362
0.283758 0.791934 -0.005390
0.354661 0.791934 -0.005429
0.425618 0.791934 -0.005480
0.496540 0.791934 -0.005544
0.567509 0.791933 -0.005620
0.638462 0.791933 -0.005709
0.709330 0.791933 -0.005811
0.780379 0.791933 -0.005925
0.851226 0.791933 -0.006051
0.922815 0.792339 -0.006192
0.991982 0.791025 -0.006329
1.056268 0.786113 -0.006447
-0.005782 0.858479 -0.005782
0.070907 0.858479 -0.005784
0.141927 0.858479 -0.005792
0.212906 0.858479 -0.005808
0.283886 0.858479 -0.005832
0.354897 0.858479 -0.005868
0.425849 0.858479 -0.005913
0.496826 0.858479 -0.005970
0.567809 0.858478 -0.006040
0.638809 0.858478 -0.006121
0.709780 0.858478 -0.006214
0.780793 0.858478 -0.006318
0.851677 0.858478 -0.006433
0.922815 0.858478 -0.006560
0.991981 0.857058 -0.006685
1.056268 0.851715 -0.006790
-0.006216 0.922872 -0.006216
0.070771 0.922872 -0.006218
0.141681 0.922872 -0.006225
0.212554 0.922872 -0.006238
0.283430 0.922872 -0.006261
0.354306 0.922872 -0.006293
0.425134 0.922872 -0.006334
0.495980 0.922872 -0.006386
0.566883 0.922872 -0.006449
0.637749 0.922872 -0.006523
0.708637 0.922872 -0.006607
0.779489 0.922872 -0.006702
0.850267 0.922872 -0.006808
0.921216 0.922871 -0.006925
0.991981 0.922871 -0.007052
1.056268 0.917078 -0.007143
-0.006618 0.982751 -0.006618
0.070323 0.982751 -0.006620
0.140796 0.982751 -0.006627
0.211232 0.982751 -0.006640
0.281661 0.982751 -0.006659
0.352087 0.982751 -0.006688
0.422494 0.982751 -0.006726
0.492896 0.982751 -0.006773
0.563328 0.982751 -0.006830
0.633803 0.982751 -0.006897
0.704159 0.982751 -0.006974
0.774667 0.982751 -0.007061
0.845002 0.982751 -0.007158
0.915540 0.982751 -0.007265
0.985838 0.982750 -0.007382
1.056267 0.982750 -0.007508
-0.000147 -0.000147 0.056934
0.060320 -0.000273 0.056934
0.122638 -0.000510 0.057881
0.188348 -0.000772 0.059262
0.257421 -0.001050 0.060744
0.329179 -0.001341 0.062142
0.402928 -0.001640 0.063381
0.477892 -0.001944 0.064439
0.553684 -0.002252 0.065319
0.629303 -0.002558 0.065985
0.704205 -0.002862 0.066458
0.778320 -0.003164 0.066763
0.851228 -0.003459 0.066937
0.922817 -0.003750 0.066971
0.991984 -0.004031 0.066850
1.056270 -0.004292 0.066426
-0.000394 0.056117 0.056934
0.060933 0.055916 0.056898
0.129141 0.050231 0.051365
0.196294 0.041499 0.042901
0.264196 0.035245 0.036904
0.334558 0.031534 0.033398
0.407171 0.029501 0.031501
0.481337 0.028522 0.030593
0.556499 0.028224 0.030307
0.631656 0.028379 0.030439
0.706193 0.028845 0.030857
0.780005 0.029526 0.031476
0.852686 0.030368 0.032244
0.924052 0.031319 0.033119
0.993124 0.032338 0.034064
1.056270 0.056068 0.056887
-0.000775 0.114095 0.057881
0.048985 0.115712 0.043553
0.123798 0.114211 0.040943
0.192438 0.114377 0.037001
0.262012 0.115043 0.033519
0.333402 0.116170 0.031066
0.406558 0.117522 0.029578
0.480992 0.118874 0.028834
0.556332 0.120139 0.028634
0.631553 0.121159 0.028823
0.706134 0.121929 0.029291
0.779978 0.122480 0.029967
0.852679 0.122830 0.030789
0.924058 0.122974 0.031724
0.993141 0.122886 0.032724
1.056270 0.127767 0.056886
-0.001184 0.175231 0.059261
0.041008 0.176582 0.034270
0.122102 0.176096 0.033566
0.189137 0.175331 0.032442
0.259599 0.178479 0.030951
0.331794 0.181584 0.029764
0.405499 0.184425 0.029005
0.480304 0.186944 0.028666
0.555855 0.189141 0.028684
0.631250 0.190805 0.028993
0.705926 0.192010 0.029524
0.779902 0.192810 0.030227
0.852580 0.193262 0.031065
0.923967 0.193372 0.032001
0.993038 0.193078 0.032994
1.056270 0.194720 0.056884
-0.001616 0.239486 0.060741
0.037753 0.240464 0.030245
0.122881 0.240284 0.030054
0.191576 0.239969 0.029727
0.257943 0.239569 0.029338
0.330453 0.244376 0.028899
0.404506 0.248668 0.028663
0.479567 0.252350 0.028662
0.555339 0.255466 0.028891
0.630873 0.257813 0.029321
0.705690 0.259469 0.029921
0.779664 0.260562 0.030659
0.852372 0.261160 0.031508
0.923896 0.261257 0.032442
0.992949 0.260800 0.033426
1.056270 0.260872 0.056881
-0.002065 0.306233 0.062136
0.036611 0.306962 0.028804
0.124606 0.306900 0.028768
0.194738 0.306751 0.028711
0.262573 0.306543 0.028654
0.329549 0.306296 0.028634
0.403725 0.311972 0.028715
0.478956 0.316792 0.028946
0.554838 0.320845 0.029330
0.630463 0.323869 0.029861
0.705337 0.326014 0.030516
0.779379 0.327404 0.031281
0.852246 0.328177 0.032136
0.923759 0.328296 0.033059
0.992882 0.327700 0.034030
1.056270 0.326719 0.056877
-0.002526 0.374845 0.063376
0.036500 0.375354 0.028720
0.126535 0.375333 0.028739
0.197936 0.375297 0.028779
0.267043 0.375164 0.028854
0.335307 0.375006 0.028981
0.403206 0.374873 0.029173
0.478449 0.380841 0.029549
0.554453 0.385817 0.030040
0.630127 0.389531 0.030639
0.705033 0.392146 0.031329
0.779175 0.393857 0.032107
0.852051 0.394805 0.032957
0.923541 0.394915 0.033871
0.992690 0.394206 0.034814
1.056269 0.392471 0.056871
-0.002995 0.444592 0.064425
0.036990 0.445014 0.029438
0.128381 0.444990 0.029475
0.200867 0.444943 0.029553
0.271024 0.444884 0.029681
0.340379 0.444817 0.029870
0.409351 0.444729 0.030124
0.478110 0.444620 0.030453
0.554085 0.450517 0.031012
0.629796 0.454929 0.031649
0.704795 0.458041 0.032361
0.778937 0.460066 0.033138
0.851869 0.461177 0.033979
0.923396 0.461368 0.034864
0.992605 0.460526 0.035780
1.056269 0.458082 0.056864
-0.003471 0.515109 0.065305
0.037884 0.515473 0.030676
0.130068 0.515457 0.030721
0.203414 0.515425 0.030813
0.274466 0.515378 0.030955
0.344724 0.515350 0.031166
0.414586 0.515276 0.031445
0.484283 0.515229 0.031793
0.553860 0.515144 0.032223
0.629590 0.520225 0.032881
0.704605 0.523850 0.033598
0.778731 0.526187 0.034367
0.851662 0.527490 0.035186
0.923302 0.527696 0.036043
0.992420 0.526789 0.036918
1.056269 0.523760 0.056856
-0.003944 0.585443 0.065968
0.039068 0.585717 0.032257
0.131438 0.585709 0.032303
0.205421 0.585695 0.032396
0.277118 0.585672 0.032546
0.348026 0.585642 0.032757
0.418592 0.585606 0.033035
0.488936 0.585553 0.033388
0.559255 0.585509 0.033813
0.629411 0.585463 0.034311
0.704420 0.589541 0.035023
0.778650 0.592208 0.035779
0.851538 0.593665 0.036568
0.923130 0.593921 0.037390
0.992365 0.592885 0.038221
1.056269 0.589363 0.056845
-0.004413 0.655146 0.066427
0.040465 0.655375 0.034070
0.132521 0.655370 0.034114
0.206894 0.655359 0.034206
0.279014 0.655343 0.034352
0.350415 0.655321 0.034558
0.421440 0.655294 0.034830
0.492263 0.655263 0.035171
0.563045 0.655270 0.035580
0.633717 0.655199 0.036062
0.704325 0.655163 0.036614
0.778525 0.658158 0.037343
0.851457 0.659804 0.038107
0.923095 0.660099 0.038890
0.992223 0.658891 0.039676
1.056269 0.654923 0.056835
-0.004878 0.724057 0.066731
0.042037 0.724278 0.036049
0.133364 0.724272 0.036092
0.207938 0.724261 0.036178
0.280325 0.724244 0.036317
0.351998 0.724221 0.036514
0.423306 0.724193 0.036770
0.494464 0.724159 0.037092
0.565538 0.724119 0.037481
0.636543 0.724163 0.037939
0.707530 0.724118 0.038466
0.778417 0.724078 0.039059
0.851395 0.725948 0.039788
0.922978 0.726286 0.040534
0.992212 0.725004 0.041269
1.056269 0.720528 0.056821
-0.005334 0.791934 0.066893
0.043730 0.792084 0.038123
0.133999 0.792081 0.038166
0.208584 0.792076 0.038247
0.281102 0.792067 0.038379
0.352895 0.792056 0.038564
0.424371 0.792042 0.038809
0.495685 0.792024 0.039110
0.566938 0.792005 0.039476
0.638090 0.791984 0.039908
0.709186 0.791963 0.040403
0.780323 0.791941 0.040963
0.851309 0.791945 0.041584
0.922886 0.792273 0.042287
0.992112 0.790896 0.042984
1.056268 0.785983 0.056805
-0.005783 0.858479 0.066922
0.045516 0.858632 0.040271
0.134427 0.858630 0.040307
0.208868 0.858626 0.040387
0.281337 0.858620 0.040502
0.353114 0.858611 0.040679
0.424622 0.858600 0.040904
0.495951 0.858587 0.041186
0.567188 0.858572 0.041531
0.638427 0.858556 0.041933
0.709480 0.858539 0.042396
0.780625 0.858522 0.042926
0.851631 0.858504 0.043515
0.922815 0.858488 0.044164
0.992037 0.857002 0.044812
1.056268 0.851628 0.056791
-0.006216 0.922872 0.066793
0.047339 0.923004 0.042414
0.134609 0.923003 0.042454
0.208726 0.923000 0.042523
0.280983 0.922995 0.042634
0.352564 0.922988 0.042797
0.423923 0.922980 0.043008
0.495114 0.922970 0.043272
0.566238 0.922959 0.043595
0.637249 0.922946 0.043970
0.708248 0.922933 0.044406
0.779259 0.922919 0.044899
0.850129 0.922905 0.045453
0.921243 0.922892 0.046064
0.992035 0.922879 0.046728
1.056268 0.917133 0.056771
-0.006619 0.982751 0.066356
0.049121 0.982762 0.044474
0.134246 0.982761 0.044510
0.207649 0.982759 0.044574
0.279366 0.982755 0.044678
0.350472 0.982750 0.044822
0.421322 0.982744 0.045025
0.492024 0.982736 0.045266
0.562689 0.982727 0.045563
0.633292 0.982717 0.045914
0.703830 0.982707 0.046318
0.774392 0.982696 0.046778
0.844806 0.982685 0.047297
0.915428 0.982670 0.047869
0.985805 0.982660 0.048486
1.056267 0.982750 0.056749
-0.000300 -0.000300 0.115759
0.061323 -0.000369 0.115759
0.122638 -0.000555 0.115759
0.188348 -0.000800 0.118521
0.257421 -0.001070 0.121488
0.329179 -0.001355 0.124284
0.402928 -0.001651 0.126774
0.477892 -0.001953 0.128883
0.553684 -0.002260 0.130650
0.629303 -0.002565 0.131986
0.704205 -0.002868 0.132933
0.778320 -0.003169 0.133559
0.851228 -0.003464 0.133903
0.922817 -0.003754 0.133979
0.991984 -0.004035 0.133752
1.056270 -0.004296 0.132918
-0.000461 0.057050 0.115759
0.059512 0.054307 0.122763
0.128492 0.048621 0.120781
0.195726 0.040714 0.118948
0.263876 0.034922 0.118231
0.334397 0.031399 0.118766
0.407117 0.029447 0.119888
0.481276 0.028506 0.121152
0.556516 0.028225 0.122380
0.631635 0.028387 0.123381
0.706178 0.028854 0.124150
0.779994 0.029540 0.124691
0.852678 0.030380 0.125043
0.924045 0.031334 0.125183
0.993116 0.032354 0.125083
1.056270 0.056068 0.129621
-0.000801 0.114095 0.115759
0.046908 0.115323 0.117219
0.123887 0.113691 0.115691
0.196728 0.109215 0.111325
0.271136 0.101019 0.103363
0.345293 0.091055 0.093690
0.418863 0.082154 0.085087
0.492585 0.075078 0.078286
0.566861 0.069707 0.073179
0.640985 0.065754 0.069446
0.714548 0.062895 0.066759
0.787620 0.060847 0.064851
0.859509 0.059416 0.063520
0.930331 0.058451 0.062624
0.998445 0.062748 0.066536
1.056270 0.114080 0.115736
-0.001199 0.175231 0.118520
0.037165 0.176598 0.114171
0.112381 0.177616 0.102872
0.190730 0.175301 0.098670
0.265874 0.174463 0.092200
0.340567 0.173208 0.085262
0.415215 0.172078 0.078841
0.490015 0.171287 0.073425
0.565081 0.170852 0.069082
0.639773 0.170557 0.065756
0.713833 0.170299 0.063266
0.787036 0.170010 0.061435
0.859186 0.169666 0.060130
0.930102 0.169217 0.059236
0.998442 0.169292 0.061989
1.056270 0.187610 0.115735
-0.001626 0.239486 0.121486
0.032569 0.240540 0.114367
0.098160 0.242794 0.086925
0.185866 0.241496 0.084691
0.259723 0.239724 0.081642
0.335300 0.241822 0.077364
0.410901 0.243584 0.073236
0.486644 0.245053 0.069566
0.562538 0.246324 0.066481
0.637823 0.247200 0.064013
0.712309 0.247703 0.062110
0.785929 0.247896 0.060682
0.858281 0.247800 0.059650
0.929445 0.247378 0.058943
0.998164 0.246545 0.058508
1.056270 0.256314 0.115734
-0.002073 0.306233 0.124282
0.030717 0.307038 0.115803
0.088211 0.309339 0.075442
0.183011 0.308632 0.074350
0.259374 0.307661 0.072796
0.331063 0.306507 0.070928
0.407262 0.310301 0.068360
0.483563 0.313448 0.066003
0.560014 0.316074 0.063940
0.635863 0.317917 0.062245
0.710740 0.319062 0.060902
0.784671 0.319680 0.059877
0.857304 0.319806 0.059138
0.928574 0.319415 0.058639
0.997519 0.318437 0.058351
1.056270 0.323514 0.115732
-0.002533 0.374845 0.126770
0.030348 0.375456 0.117583
0.081999 0.377432 0.068003
0.182060 0.377106 0.067460
0.260225 0.376565 0.066676
0.333401 0.375842 0.065688
0.404424 0.375040 0.064580
0.481046 0.379608 0.063104
0.557839 0.383465 0.061790
0.633982 0.386155 0.060695
0.709184 0.387987 0.059819
0.783393 0.388997 0.059152
0.856249 0.389317 0.058682
0.927711 0.388984 0.058385
0.996724 0.387909 0.058243
1.056269 0.390068 0.115730
-0.003001 0.444592 0.128877
0.030851 0.445081 0.119333
0.078239 0.446825 0.063354
0.182164 0.446583 0.063086
0.261697 0.446252 0.062685
0.336014 0.445822 0.062172
0.408151 0.445312 0.061582
0.479120 0.444772 0.060957
0.556083 0.449661 0.060161
0.632448 0.453222 0.059502
0.707740 0.455613 0.058985
0.782235 0.457034 0.058606
0.855205 0.457604 0.058360
0.926857 0.457349 0.058238
0.996016 0.456158 0.058227
1.056269 0.456297 0.115735
-0.003475 0.515109 0.130641
0.031921 0.515486 0.120944
0.076023 0.516994 0.060554
0.182801 0.516845 0.060425
0.263381 0.516664 0.060227
0.338606 0.516389 0.059975
0.411612 0.516032 0.059682
0.483499 0.515668 0.059366
0.554689 0.515271 0.059055
0.631135 0.519594 0.058706
0.706596 0.522555 0.058450
0.781200 0.524364 0.058290
0.854339 0.525150 0.058222
0.926015 0.524994 0.058241
0.995286 0.523708 0.058337
1.056269 0.522370 0.115731
-0.003948 0.585443 0.131975
0.033366 0.585759 0.122278
0.074802 0.587058 0.059013
0.183484 0.586952 0.058956
0.264790 0.586832 0.058871
0.340654 0.586644 0.058762
0.414326 0.586398 0.058637
0.486858 0.586137 0.058510
0.558714 0.585876 0.058391
0.630126 0.585589 0.058294
0.705705 0.589070 0.058226
0.780289 0.591221 0.058227
0.853522 0.592234 0.058290
0.925344 0.592141 0.058419
0.994693 0.590770 0.058604
1.056269 0.588297 0.115726
-0.004417 0.655146 0.132923
0.035064 0.655416 0.123355
0.074240 0.656510 0.058330
0.184035 0.656446 0.058313
0.265837 0.656348 0.058291
0.342148 0.656206 0.058262
0.416234 0.656081 0.058239
0.489180 0.655914 0.058222
0.561504 0.655702 0.058220
0.633387 0.655474 0.058244
0.704933 0.655259 0.058300
0.779555 0.657784 0.058416
0.852839 0.659009 0.058577
0.924661 0.658966 0.058785
0.994098 0.657513 0.059031
1.056269 0.654089 0.115721
-0.004881 0.724057 0.133547
0.036945 0.724334 0.124196
0.074128 0.725323 0.058246
0.184441 0.725254 0.058253
0.266524 0.725231 0.058264
0.343078 0.725166 0.058284
0.417404 0.724979 0.058319
0.490615 0.724838 0.058367
0.563226 0.724630 0.058439
0.635422 0.724564 0.058539
0.707241 0.724356 0.058670
0.778928 0.724140 0.058840
0.852262 0.725654 0.059071
0.924105 0.725688 0.059338
0.993549 0.724058 0.059624
1.056269 0.719927 0.115715
-0.005337 0.791934 0.133887
0.038945 0.792120 0.124856
0.074342 0.792954 0.058590
0.184679 0.792918 0.058611
0.266861 0.792863 0.058644
0.343486 0.792847 0.058692
0.417928 0.792769 0.058763
0.491289 0.792652 0.058852
0.563994 0.792518 0.058966
0.636308 0.792396 0.059112
0.708269 0.792237 0.059291
0.780179 0.792180 0.059506
0.851750 0.792009 0.059760
0.923664 0.792096 0.060061
0.993102 0.790426 0.060381
1.056268 0.785615 0.115708
-0.005785 0.858479 0.133961
0.041019 0.858667 0.125313
0.074788 0.859465 0.059253
0.184717 0.859437 0.059280
0.266797 0.859393 0.059325
0.343363 0.859333 0.059392
0.417809 0.859255 0.059480
0.491098 0.859218 0.059589
0.563808 0.859110 0.059734
0.636127 0.858988 0.059907
0.708171 0.858893 0.060111
0.779955 0.858813 0.060356
0.851588 0.858723 0.060637
0.923294 0.858574 0.060960
0.992703 0.856813 0.061292
1.056268 0.851408 0.115700
-0.006219 0.922872 0.133730
0.043114 0.923038 0.125543
0.075408 0.923738 0.060132
0.184489 0.923716 0.060165
0.266252 0.923680 0.060218
0.342604 0.923631 0.060291
0.416845 0.923569 0.060393
0.489932 0.923491 0.060519
0.562494 0.923469 0.060673
0.634613 0.923368 0.060859
0.706433 0.923257 0.061084
0.778182 0.923240 0.061340
0.849637 0.923155 0.061633
0.921206 0.923093 0.061968
0.992444 0.922963 0.062343
1.056268 0.916962 0.115699
-0.006621 0.982751 0.132888
0.045111 0.982795 0.125252
0.076124 0.983439 0.061131
0.183571 0.983421 0.061167
0.264635 0.983392 0.061220
0.340406 0.983352 0.061299
0.414022 0.983296 0.061402
0.486674 0.983339 0.061531
0.558702 0.983260 0.061690
0.630372 0.983175 0.061881
0.701702 0.983082 0.062109
0.772937 0.983082 0.062371
0.843966 0.982972 0.062670
0.915052 0.982866 0.063002
0.985818 0.982853 0.063379
1.056267 0.982750 0.115693
-0.000461 -0.000461 0.177770
0.062786 -0.000504 0.177770
0.125574 -0.000649 0.177770
0.188348 -0.000853 0.177770
0.257421 -0.001108 0.182212
0.329179 -0.001385 0.186427
0.402928 -0.001675 0.190138
0.477892 -0.001973 0.193309
0.553684 -0.002276 0.195963
0.629303 -0.002579 0.197976
0.704205 -0.002881 0.199383
0.778320 -0.003179 0.200345
0.851228 -0.003474 0.200863
0.922817 -0.003763 0.200972
0.991984 -0.004043 0.200633
1.056270 -0.004303 0.199374
-0.000572 0.058415 0.177770
0.056225 0.050538 0.189955
0.129455 0.045390 0.187515
0.194682 0.039333 0.183362
0.263304 0.034322 0.184068
0.334096 0.031144 0.185833
0.406935 0.029343 0.188043
0.481186 0.028472 0.190250
0.556401 0.028223 0.192300
0.631595 0.028402 0.193914
0.706147 0.028878 0.195086
0.779972 0.029568 0.195873
0.852661 0.030411 0.196310
0.924032 0.031362 0.196404
0.993105 0.032383 0.196083
1.056270 0.056068 0.197558
-0.000871 0.116830 0.177770
0.044719 0.116532 0.184429
0.122743 0.112391 0.186298
0.196122 0.107842 0.184086
0.270577 0.099645 0.183007
0.344711 0.090087 0.180480
0.418393 0.081530 0.178111
0.492252 0.074684 0.176474
0.566598 0.069464 0.175543
0.640805 0.065603 0.174971
0.714419 0.062797 0.174541
0.787513 0.060785 0.174150
0.859480 0.059377 0.173770
0.930261 0.058427 0.173280
0.998444 0.062260 0.173537
1.056270 0.114080 0.190339
-0.001230 0.175231 0.177769
0.036681 0.176271 0.178992
0.110942 0.176954 0.179974
0.190254 0.174593 0.177673
0.267304 0.170392 0.173569
0.345462 0.163661 0.167015
0.424414 0.154093 0.157725
0.502190 0.143590 0.147518
0.578675 0.133680 0.137913
0.653675 0.125059 0.129591
0.727381 0.117823 0.122652
0.800056 0.111862 0.116955
0.871444 0.107000 0.112336
0.941515 0.103054 0.108599
0.998442 0.153516 0.156632
1.056270 0.175235 0.177758
-0.001648 0.239486 0.182211
0.032428 0.240422 0.180417
0.094744 0.242657 0.173399
0.179437 0.242063 0.165669
0.260725 0.239419 0.161180
0.340261 0.237895 0.154219
0.419235 0.235337 0.146134
0.497252 0.232289 0.137804
0.574428 0.229247 0.129892
0.650260 0.226375 0.122830
0.724608 0.223758 0.116737
0.798050 0.221391 0.111582
0.869960 0.219254 0.107269
0.940466 0.217259 0.103704
0.998438 0.237236 0.154485
1.056270 0.248677 0.177757
-0.002089 0.306233 0.186425
0.030682 0.306994 0.183070
0.082306 0.309480 0.168928
0.163707 0.310804 0.148077
0.254037 0.308928 0.144672
0.332970 0.306501 0.140348
0.412617 0.307301 0.134388
0.491264 0.307472 0.128313
0.569177 0.307234 0.122455
0.645745 0.306555 0.117105
0.720962 0.305565 0.112377
0.794942 0.304338 0.108263
0.867438 0.302987 0.104746
0.938417 0.301377 0.101778
0.998430 0.311365 0.151198
1.056270 0.318229 0.177756
-0.002545 0.374845 0.190136
0.030351 0.375417 0.185982
0.073948 0.377687 0.166945
0.149469 0.379912 0.132023
0.247761 0.378668 0.129901
0.329885 0.377093 0.127156
0.406405 0.375210 0.123942
0.485649 0.377449 0.119639
0.564197 0.379139 0.115415
0.641439 0.379896 0.111502
