src/luts/Ocean Blues.cube
LUT_3D_SIZE 6
-0.071088 -0.075314 -0.079795
0.136931 -0.075314 -0.079795
0.337516 -0.075315 -0.079797
0.564711 -0.075320 -0.079801
0.778339 -0.075331 -0.079809
0.950562 -0.075340 -0.079815
-0.071090 0.145072 -0.079796
0.136931 0.145072 -0.079796
0.337516 0.170943 -0.079798
0.564711 0.191756 -0.079803
0.778339 0.198568 -0.079811
0.950562 0.193423 -0.079817
-0.071100 0.357538 -0.079802
0.161356 0.357538 -0.079802
0.337515 0.357538 -0.079804
0.564710 0.396948 -0.079811
0.778339 0.409941 -0.079817
0.950561 0.400117 -0.079829
-0.071116 0.598284 -0.079818
0.180989 0.598284 -0.079818
0.374685 0.598284 -0.079820
0.564709 0.598283 -0.079829
0.778338 0.617717 -0.079838
0.950559 0.603055 -0.079845
-0.071153 0.824599 -0.079848
0.187408 0.824599 -0.079849
0.386947 0.824599 -0.079851
0.583026 0.824599 -0.079855
0.778337 0.824598 -0.079862
0.950557 0.805143 -0.079871
-0.071197 1.007074 -0.079883
0.182549 1.007074 -0.079883
0.377654 1.007074 -0.079885
0.569203 1.007074 -0.079890
0.759930 1.007074 -0.079896
0.950556 1.007074 -0.079903
-0.071088 -0.075314 0.153708
0.136931 -0.075314 0.153708
0.337516 -0.075315 0.181135
0.564711 -0.075320 0.203165
0.778339 -0.075331 0.210382
0.950562 -0.075340 0.204926
-0.071090 0.145072 0.153708
0.133168 0.145575 0.158222
0.370229 0.107302 0.124131
0.588857 0.081841 0.101328
0.795290 0.073020 0.093829
0.963657 0.070129 0.091377
-0.071100 0.357538 0.181133
0.074783 0.362008 0.110023
0.336692 0.359263 0.085229
0.573522 0.384255 0.078399
0.788681 0.389650 0.075052
0.960735 0.377159 0.073711
-0.071116 0.598284 0.203158
0.065509 0.600663 0.102666
0.355340 0.600591 0.074233
0.564375 0.599154 0.073698
0.781825 0.612362 0.073164
0.955784 0.594924 0.073099
-0.071153 0.824599 0.210367
0.065814 0.826148 0.102313
0.361160 0.826391 0.073259
0.574631 0.825904 0.073402
0.778124 0.825227 0.073702
0.952466 0.802653 0.073961
-0.071198 1.007074 0.204922
0.136891 1.007074 0.153662
0.364947 1.007074 0.153661
0.563599 1.007074 0.153659
0.757797 1.007074 0.153656
0.950556 1.007074 0.153658
-0.071089 -0.075314 0.378841
0.161359 -0.075315 0.378841
0.337516 -0.075316 0.378841
0.564711 -0.075321 0.420531
0.778339 -0.075332 0.434325
0.950562 -0.075341 0.423934
-0.071092 0.170943 0.378841
0.111319 0.126348 0.433173
0.360897 0.099231 0.409120
0.585360 0.079916 0.418957
0.793926 0.072491 0.419166
0.963019 0.069974 0.404364
-0.071101 0.357538 0.378840
0.073514 0.360432 0.383650
0.328214 0.358829 0.389955
0.621882 0.322842 0.358390
0.858751 0.274459 0.315114
0.987907 0.312603 0.341136
-0.071118 0.598284 0.420529
0.065427 0.600370 0.405427
0.228917 0.612695 0.308210
0.559993 0.604273 0.267382
0.810242 0.591977 0.249905
0.986544 0.567403 0.281591
-0.071157 0.824599 0.434321
0.065876 0.826027 0.412480
0.189985 0.836359 0.275713
0.525144 0.835385 0.222919
0.776075 0.829194 0.217144
0.967634 0.795799 0.214155
-0.071199 1.007074 0.423927
0.136891 1.007074 0.409596
0.337505 1.007074 0.378826
0.552200 1.007074 0.378825
0.753381 1.007074 0.378824
0.950556 1.007074 0.378823
-0.071093 -0.075316 0.633864
0.180997 -0.075317 0.633864
0.374689 -0.075319 0.633864
0.564711 -0.075323 0.633864
0.778339 -0.075334 0.654416
0.950562 -0.075343 0.638907
-0.071096 0.191757 0.633864
0.087113 0.104318 0.685459
0.376866 0.085771 0.671009
0.580183 0.077034 0.653309
0.791596 0.071630 0.658376
0.961905 0.069702 0.636096
-0.071102 0.396948 0.633864
0.069639 0.387706 0.647523
0.310583 0.343342 0.718324
0.613909 0.305992 0.704064
0.849525 0.265748 0.674518
0.987819 0.306742 0.624962
-0.071123 0.598283 0.633863
0.065301 0.599803 0.636296
0.223953 0.607936 0.651563
0.549165 0.600385 0.652456
0.834375 0.572880 0.628172
0.986207 0.578341 0.621752
-0.071160 0.824599 0.654414
0.065997 0.825905 0.648075
0.188567 0.834661 0.620323
0.440289 0.847148 0.565313
0.766271 0.834432 0.526399
0.981173 0.796240 0.561967
-0.071196 1.007074 0.638904
0.136890 1.007074 0.632605
0.337505 1.007074 0.619816
0.564705 1.007074 0.633859
0.758188 1.007074 0.633859
0.950556 1.007074 0.633858
-0.071098 -0.075320 0.873663
0.187427 -0.075320 0.873663
0.386955 -0.075323 0.873663
0.583029 -0.075330 0.873663
0.778339 -0.075337 0.873662
0.950562 -0.075345 0.853004
-0.071101 0.198571 0.873663
0.075301 0.093964 0.913357
0.376771 0.077976 0.907853
0.588561 0.073602 0.895618
0.788880 0.070652 0.886756
0.960333 0.069388 0.858287
-0.071108 0.409942 0.873662
0.067525 0.394314 0.890125
0.305958 0.334801 0.953200
0.590672 0.310338 0.951496
0.835512 0.257799 0.948383
0.987592 0.296393 0.873357
-0.071132 0.617717 0.873662
0.065137 0.613790 0.879601
0.216559 0.603994 0.924403
0.544095 0.591167 0.942983
0.816280 0.568788 0.938006
0.985875 0.573286 0.873050
-0.071164 0.824599 0.873660
0.066199 0.825602 0.875216
0.186500 0.832264 0.886576
0.432016 0.840292 0.906214
0.756925 0.827472 0.899338
0.978553 0.813600 0.879036
-0.071201 1.007074 0.853001
0.136888 1.007074 0.850591
0.337504 1.007074 0.845659
0.564705 1.007074 0.851060
0.778335 1.007074 0.873724
0.950556 1.007074 0.873724
-0.071098 -0.075324 1.066952
0.182580 -0.075324 1.066952
0.377667 -0.075329 1.066952
0.569208 -0.075334 1.066951
0.759934 -0.075340 1.066951
0.950561 -0.075350 1.066951
-0.071101 0.193420 1.066952
0.136926 0.145067 1.066952
0.364960 0.145067 1.066951
0.563604 0.145065 1.066951
0.757801 0.145062 1.066951
0.950559 0.145057 1.066951
-0.071114 0.400119 1.066951
0.136922 0.386618 1.066951
0.337514 0.357536 1.066951
0.552232 0.357535 1.066951
0.753385 0.357534 1.066951
0.950559 0.357533 1.066951
-0.071130 0.603055 1.066951
0.136914 0.597104 1.066951
0.337512 0.585026 1.066951
0.564709 0.598283 1.066951
0.758191 0.598282 1.066950
0.950558 0.598282 1.066950
-0.071165 0.805144 1.066950
0.136904 0.802791 1.066950
0.337508 0.798140 1.066950
0.564707 0.803289 1.066950
0.778336 0.824598 1.066950
0.950557 0.824597 1.066949
-0.071207 1.007074 1.066949
0.136886 1.007074 1.066949
0.337504 1.007074 1.066949
0.564705 1.007074 1.066949
0.778334 1.007074 1.066949
0.950555 1.007074 1.066948
