src/luts/Ocean Blues.cube
LUT_3D_SIZE 16
-0.071088 -0.075314 -0.079795
-0.039190 -0.075314 -0.079795
0.079268 -0.075314 -0.079795
0.136931 -0.075314 -0.079795
0.198841 -0.075314 -0.079795
0.265986 -0.075314 -0.079796
0.337516 -0.075315 -0.079797
0.412216 -0.075316 -0.079798
0.488900 -0.075318 -0.079799
0.564711 -0.075320 -0.079801
0.638572 -0.075322 -0.079803
0.710083 -0.075325 -0.079806
0.778339 -0.075331 -0.079809
0.842899 -0.075334 -0.079812
0.902132 -0.075337 -0.079815
0.950562 -0.075340 -0.079815
-0.071088 -0.041518 -0.079795
-0.039190 -0.041519 -0.079795
0.079268 -0.059344 -0.079795
0.136931 -0.060152 -0.079795
0.198840 -0.058274 -0.079795
0.265986 -0.055482 -0.079796
0.337516 -0.052276 -0.079797
0.412216 -0.048879 -0.079798
0.488900 -0.045455 -0.079799
0.564711 -0.042549 -0.079801
0.638572 -0.040312 -0.079804
0.710083 -0.038817 -0.079806
0.778339 -0.038129 -0.079809
0.842899 -0.038241 -0.079812
0.902132 -0.039211 -0.079815
0.950562 -0.041578 -0.079815
-0.071089 0.083985 -0.079795
-0.056014 0.083985 -0.079795
0.079268 0.083985 -0.079795
0.136931 0.081276 -0.079795
0.198840 0.087319 -0.079796
0.265986 0.094941 -0.079796
0.337516 0.102207 -0.079797
0.412215 0.108627 -0.079798
0.488900 0.114057 -0.079800
0.564711 0.118012 -0.079802
0.638572 0.120692 -0.079804
0.710083 0.122341 -0.079807
0.778339 0.123066 -0.079809
0.842899 0.122961 -0.079812
0.902132 0.121937 -0.079815
0.950562 0.119249 -0.079816
-0.071090 0.145072 -0.079796
-0.056777 0.145072 -0.079796
0.076716 0.145072 -0.079796
0.136931 0.145072 -0.079796
0.198840 0.152289 -0.079796
0.265986 0.161721 -0.079797
0.337516 0.170943 -0.079798
0.412215 0.179312 -0.079799
0.488900 0.186461 -0.079801
0.564711 0.191756 -0.079803
0.638572 0.195364 -0.079805
0.710083 0.197587 -0.079808
0.778339 0.198568 -0.079811
0.842899 0.198422 -0.079814
0.902132 0.197072 -0.079817
0.950562 0.193423 -0.079817
-0.071091 0.210660 -0.079797
-0.055009 0.210660 -0.079797
0.082419 0.210660 -0.079797
0.143749 0.210660 -0.079797
0.198840 0.210659 -0.079797
0.265986 0.222635 -0.079798
0.337516 0.234452 -0.079799
0.412215 0.245160 -0.079801
0.488900 0.254412 -0.079803
0.564711 0.261234 -0.079805
0.638572 0.265912 -0.079807
0.710083 0.268803 -0.079810
0.778339 0.270070 -0.079813
0.842899 0.269885 -0.079816
0.902132 0.268109 -0.079816
0.950562 0.263409 -0.079819
-0.071095 0.281802 -0.079799
-0.052370 0.281802 -0.079799
0.089605 0.281802 -0.079799
0.152640 0.281802 -0.079799
0.210131 0.281802 -0.079800
0.265985 0.281802 -0.079800
0.337516 0.296339 -0.079801
0.412215 0.309526 -0.079803
0.488899 0.320955 -0.079805
0.564710 0.329375 -0.079807
0.638572 0.335151 -0.079810
0.710082 0.338729 -0.079812
0.778339 0.340275 -0.079815
0.842899 0.340055 -0.079816
0.902132 0.337875 -0.079819
0.950561 0.332067 -0.079822
-0.071100 0.357538 -0.079802
-0.049350 0.357538 -0.079802
0.096467 0.357538 -0.079802
0.161356 0.357538 -0.079802
0.221293 0.357538 -0.079803
0.279709 0.357538 -0.079803
0.337515 0.357538 -0.079804
0.412214 0.373260 -0.079806
0.488899 0.386854 -0.079808
0.564710 0.396948 -0.079811
0.638572 0.403799 -0.079813
0.710082 0.408083 -0.079816
0.778339 0.409941 -0.079817
0.842898 0.409670 -0.079820
0.902131 0.407103 -0.079823
0.950561 0.400117 -0.079829
-0.071101 0.436699 -0.079807
-0.046155 0.436699 -0.079807
0.102522 0.436699 -0.079807
0.169237 0.436699 -0.079807
0.231397 0.436699 -0.079807
0.292173 0.436699 -0.079808
0.352336 0.436699 -0.079809
0.412214 0.436699 -0.079810
0.488899 0.452493 -0.079812
0.564710 0.464186 -0.079815
0.638571 0.472198 -0.079816
0.710082 0.477140 -0.079819
0.778339 0.479329 -0.079821
0.842898 0.479006 -0.079829
0.902131 0.475949 -0.079831
0.950559 0.467908 -0.079833
-0.071110 0.517963 -0.079813
-0.042937 0.517963 -0.079813
0.107639 0.517963 -0.079813
0.176006 0.517963 -0.079813
0.240131 0.517963 -0.079813
0.302917 0.517963 -0.079814
0.365171 0.517963 -0.079815
0.427111 0.517962 -0.079816
0.488898 0.517962 -0.079815
0.564710 0.531285 -0.079818
0.638571 0.540441 -0.079821
0.710081 0.546108 -0.079828
0.778338 0.548594 -0.079831
0.842898 0.548219 -0.079834
0.902131 0.544721 -0.079837
0.950559 0.535503 -0.079839
-0.071116 0.598284 -0.079818
-0.040212 0.598284 -0.079818
0.111374 0.598284 -0.079818
0.180989 0.598284 -0.079818
0.246574 0.598284 -0.079819
0.310900 0.598284 -0.079819
0.374685 0.598284 -0.079820
0.438124 0.598283 -0.079821
0.501458 0.598283 -0.079823
0.564709 0.598283 -0.079829
0.638571 0.608551 -0.079832
0.710081 0.614914 -0.079835
0.778338 0.617717 -0.079838
0.842898 0.617312 -0.079841
0.902131 0.613389 -0.079843
0.950559 0.603055 -0.079845
-0.071132 0.676551 -0.079831
-0.038126 0.676551 -0.079831
0.113904 0.676551 -0.079831
0.184379 0.676551 -0.079831
0.250986 0.676551 -0.079832
0.316331 0.676551 -0.079832
0.381135 0.676551 -0.079833
0.445697 0.676551 -0.079834
0.510103 0.676551 -0.079836
0.574410 0.676551 -0.079837
0.638570 0.676551 -0.079839
0.710080 0.683613 -0.079843
0.778338 0.686702 -0.079843
0.842897 0.686242 -0.079846
0.902130 0.681893 -0.079848
0.950558 0.670441 -0.079850
-0.071142 0.752352 -0.079840
-0.036740 0.752352 -0.079840
0.115456 0.752352 -0.079841
0.186486 0.752352 -0.079841
0.253706 0.752352 -0.079841
0.319705 0.752351 -0.079842
0.385201 0.752351 -0.079843
0.450358 0.752351 -0.079844
0.515433 0.752351 -0.079843
0.580386 0.752351 -0.079845
0.645228 0.752351 -0.079847
0.710079 0.752351 -0.079849
0.778337 0.755760 -0.079852
0.842897 0.755246 -0.079855
0.902130 0.750493 -0.079857
0.950558 0.737898 -0.079858
-0.071153 0.824599 -0.079848
-0.036121 0.824599 -0.079848
0.116131 0.824599 -0.079848
0.187408 0.824599 -0.079849
0.254906 0.824599 -0.079849
0.321183 0.824599 -0.079850
0.386947 0.824599 -0.079851
0.452427 0.824599 -0.079852
0.517783 0.824599 -0.079854
0.583026 0.824599 -0.079855
0.648205 0.824598 -0.079857
0.713314 0.824598 -0.079859
0.778337 0.824598 -0.079862
0.842896 0.824060 -0.079869
0.902130 0.818918 -0.079871
0.950557 0.805143 -0.079871
-0.071166 0.893047 -0.079859
-0.036252 0.893047 -0.079859
0.116027 0.893047 -0.079859
0.187273 0.893047 -0.079860
0.254726 0.893047 -0.079860
0.320971 0.893047 -0.079861
0.386677 0.893047 -0.079862
0.452122 0.893047 -0.079863
0.517410 0.893047 -0.079868
0.582624 0.893047 -0.079870
0.647715 0.893047 -0.079872
0.712829 0.893046 -0.079872
0.777844 0.893046 -0.079875
0.842896 0.893046 -0.079878
0.902129 0.887448 -0.079880
0.950557 0.872580 -0.079880
-0.071179 0.955750 -0.079873
-0.037189 0.955750 -0.079873
0.115063 0.955750 -0.079873
0.185983 0.955750 -0.079873
0.253052 0.955750 -0.079874
0.318889 0.955750 -0.079874
0.384224 0.955750 -0.079875
0.449241 0.955750 -0.079876
0.514159 0.955750 -0.079878
0.578948 0.955749 -0.079880
0.643665 0.955749 -0.079882
0.708355 0.955749 -0.079884
0.772977 0.955749 -0.079886
0.837648 0.955749 -0.079889
0.902128 0.955749 -0.079893
0.950556 0.939721 -0.079892
-0.071197 1.007074 -0.079883
-0.039430 1.007074 -0.079883
0.112515 1.007074 -0.079883
0.182549 1.007074 -0.079883
0.248610 1.007074 -0.079884
0.313417 1.007074 -0.079885
0.377654 1.007074 -0.079885
0.441634 1.007074 -0.079887
0.505469 1.007074 -0.079888
0.569203 1.007074 -0.079890
0.632853 1.007074 -0.079892
0.696450 1.007074 -0.079894
0.759930 1.007074 -0.079896
0.823574 1.007074 -0.079896
0.887018 1.007074 -0.079899
0.950556 1.007074 -0.079903
-0.071088 -0.075314 -0.043988
-0.039190 -0.075314 -0.043988
0.079268 -0.075314 -0.062874
0.136931 -0.075314 -0.063729
0.198841 -0.075314 -0.061738
0.265986 -0.075314 -0.058780
0.337516 -0.075315 -0.055381
0.412216 -0.075316 -0.051784
0.488900 -0.075318 -0.048155
0.564711 -0.075320 -0.045078
0.638572 -0.075322 -0.042706
0.710083 -0.075325 -0.041123
0.778339 -0.075331 -0.040392
0.842899 -0.075334 -0.040507
0.902132 -0.075337 -0.041537
0.950562 -0.075340 -0.044040
-0.071088 -0.041518 -0.043989
-0.039191 -0.041519 -0.043989
0.079268 -0.041517 -0.043989
0.136931 -0.041517 -0.043989
0.198840 -0.041518 -0.043990
0.265986 -0.041520 -0.043991
0.337516 -0.041523 -0.043993
0.412216 -0.041527 -0.043995
0.488900 -0.041530 -0.043999
0.564711 -0.041537 -0.044002
0.638572 -0.041540 -0.044009
0.710083 -0.041544 -0.044015
0.778339 -0.041552 -0.044020
0.842899 -0.041560 -0.044026
0.902132 -0.041572 -0.044034
0.950562 -0.041577 -0.044040
-0.071089 0.083985 -0.062875
-0.039191 0.083985 -0.043989
0.079268 0.083985 -0.043989
0.136931 0.087439 -0.043990
0.198840 0.093463 -0.043991
0.265986 0.099731 -0.043992
0.337516 0.105541 -0.043994
0.412215 0.110666 -0.043996
0.488900 0.115038 -0.044000
0.564711 0.118238 -0.044003
0.638572 0.120429 -0.044010
0.710083 0.121772 -0.044016
0.778339 0.122370 -0.044021
0.842899 0.122280 -0.044027
0.902132 0.121445 -0.044035
0.950562 0.119249 -0.044041
-0.071090 0.145072 -0.063730
-0.039191 0.145072 -0.043991
0.082530 0.145072 -0.043991
0.136931 0.145072 -0.043991
0.198840 0.154101 -0.043992
0.265986 0.163571 -0.043994
0.337516 0.172394 -0.043996
0.412215 0.180232 -0.043998
0.488900 0.186933 -0.044002
0.564711 0.191865 -0.044005
0.638572 0.195241 -0.044013
0.710083 0.197304 -0.044018
0.778339 0.198222 -0.044023
0.842899 0.198075 -0.044033
0.902132 0.196810 -0.044038
0.950562 0.193423 -0.044043
-0.071091 0.210660 -0.061741
-0.039195 0.210660 -0.043993
0.088223 0.210660 -0.043993
0.145451 0.210660 -0.043994
0.198840 0.210659 -0.043994
0.265986 0.223329 -0.043996
0.337516 0.235152 -0.043999
0.412215 0.245672 -0.044002
0.488900 0.254685 -0.044005
0.564711 0.261310 -0.044012
0.638572 0.265835 -0.044017
0.710083 0.268628 -0.044022
0.778339 0.269843 -0.044028
0.842899 0.269672 -0.044036
0.902132 0.267943 -0.044042
0.950562 0.263409 -0.044047
-0.071095 0.281802 -0.058784
-0.039199 0.281802 -0.043998
0.094132 0.281802 -0.043998
0.154390 0.281802 -0.043998
0.210777 0.281802 -0.043999
0.265985 0.281802 -0.044000
0.337516 0.296631 -0.044002
0.412215 0.309804 -0.044005
0.488899 0.321117 -0.044013
0.564710 0.329409 -0.044017
0.638572 0.335101 -0.044022
0.710082 0.338606 -0.044027
0.778339 0.340142 -0.044035
0.842899 0.339902 -0.044042
0.902132 0.337759 -0.044048
0.950561 0.332067 -0.044055
-0.071100 0.357538 -0.055390
-0.039206 0.357538 -0.044003
0.099607 0.357538 -0.044004
0.162729 0.357538 -0.044004
0.221958 0.357538 -0.044005
0.279991 0.357538 -0.044009
0.337515 0.357538 -0.044010
0.412214 0.373399 -0.044015
0.488899 0.386963 -0.044019
0.564710 0.396953 -0.044024
0.638572 0.403785 -0.044032
0.710082 0.407997 -0.044037
0.778339 0.409854 -0.044043
0.842899 0.409544 -0.044049
0.902131 0.406976 -0.044058
0.950561 0.400117 -0.044063
-0.071101 0.436699 -0.051800
-0.039220 0.436699 -0.044016
0.104450 0.436699 -0.044016
0.170109 0.436699 -0.044017
0.231896 0.436699 -0.044018
0.292430 0.436699 -0.044018
0.352440 0.436699 -0.044020
0.412214 0.436699 -0.044022
0.488899 0.452540 -0.044027
0.564710 0.464204 -0.044035
0.638571 0.472194 -0.044041
0.710082 0.477099 -0.044047
0.778339 0.479236 -0.044055
0.842898 0.478938 -0.044062
0.902131 0.475902 -0.044067
0.950559 0.467908 -0.044071
-0.071110 0.517963 -0.048186
-0.039237 0.517963 -0.044028
0.108568 0.517963 -0.044028
0.176446 0.517963 -0.044029
0.240385 0.517963 -0.044032
0.303077 0.517963 -0.044034
0.365255 0.517963 -0.044034
0.427153 0.517962 -0.044037
0.488898 0.517962 -0.044039
0.564710 0.531294 -0.044046
0.638571 0.540422 -0.044051
0.710081 0.546056 -0.044061
0.778338 0.548496 -0.044066
0.842898 0.548139 -0.044073
0.902131 0.544658 -0.044083
0.950559 0.535503 -0.044087
-0.071116 0.598284 -0.045115
-0.039258 0.598284 -0.044045
0.111598 0.598284 -0.044045
0.181093 0.598284 -0.044046
0.246635 0.598284 -0.044047
0.310924 0.598284 -0.044048
0.374687 0.598284 -0.044050
0.438141 0.598283 -0.044055
0.501466 0.598283 -0.044058
0.564709 0.598283 -0.044061
0.638571 0.608544 -0.044067
0.710081 0.614891 -0.044074
0.778338 0.617679 -0.044086
0.842898 0.617241 -0.044092
0.902131 0.613354 -0.044096
0.950559 0.603055 -0.044100
-0.071132 0.676551 -0.042769
-0.039282 0.676551 -0.044065
0.113658 0.676551 -0.044065
0.184265 0.676551 -0.044066
0.250913 0.676551 -0.044067
0.316287 0.676551 -0.044068
0.381138 0.676551 -0.044070
0.445672 0.676551 -0.044073
0.510086 0.676551 -0.044081
0.574404 0.676551 -0.044084
0.638570 0.676551 -0.044088
0.710080 0.683601 -0.044096
0.778338 0.686677 -0.044104
0.842897 0.686209 -0.044110
0.902130 0.681864 -0.044115
0.950558 0.670441 -0.044118
-0.071142 0.752352 -0.041202
-0.039310 0.752352 -0.044091
0.114914 0.752352 -0.044091
0.186223 0.752352 -0.044092
0.253544 0.752352 -0.044093
0.319591 0.752351 -0.044094
0.385114 0.752351 -0.044096
0.450317 0.752351 -0.044098
0.515387 0.752351 -0.044104
0.580365 0.752351 -0.044107
0.645217 0.752351 -0.044112
0.710079 0.752351 -0.044116
0.778337 0.755748 -0.044123
0.842897 0.755225 -0.044130
0.902130 0.750473 -0.044135
0.950558 0.737898 -0.044137
-0.071153 0.824599 -0.040495
-0.039335 0.824599 -0.044115
0.115476 0.824599 -0.044115
0.187072 0.824599 -0.044116
0.254697 0.824599 -0.044117
0.321043 0.824599 -0.044118
0.386842 0.824599 -0.044120
0.452344 0.824599 -0.044123
0.517716 0.824599 -0.044129
0.582982 0.824599 -0.044130
0.648114 0.824598 -0.044135
0.713295 0.824598 -0.044140
0.778337 0.824598 -0.044145
0.842896 0.824049 -0.044154
0.902130 0.818905 -0.044158
0.950557 0.805143 -0.044158
-0.071166 0.893047 -0.040636
-0.039369 0.893047 -0.044140
0.115379 0.893047 -0.044140
0.186945 0.893047 -0.044141
0.254528 0.893047 -0.044142
0.320830 0.893047 -0.044143
0.386554 0.893047 -0.044145
0.452036 0.893047 -0.044150
0.517374 0.893047 -0.044153
0.582586 0.893047 -0.044157
0.647686 0.893047 -0.044160
0.712799 0.893047 -0.044165
0.777835 0.893046 -0.044176
0.842896 0.893046 -0.044182
0.902129 0.887442 -0.044186
0.950557 0.872580 -0.044186
-0.071179 0.955750 -0.041681
-0.039402 0.955750 -0.044166
0.114585 0.955750 -0.044166
0.185733 0.955750 -0.044166
0.252898 0.955750 -0.044168
0.318780 0.955750 -0.044175
0.384154 0.955750 -0.044177
0.449175 0.955750 -0.044178
0.514103 0.955750 -0.044181
0.578916 0.955750 -0.044185
0.643640 0.955749 -0.044189
0.708326 0.955749 -0.044193
0.772965 0.955749 -0.044198
0.837642 0.955749 -0.044206
0.902128 0.955749 -0.044216
0.950556 0.939721 -0.044215
-0.071197 1.007074 -0.044193
-0.039430 1.007074 -0.044191
0.112515 1.007074 -0.044192
0.182550 1.007074 -0.044192
0.248610 1.007074 -0.044193
0.313417 1.007074 -0.044193
0.377654 1.007074 -0.044195
0.441634 1.007074 -0.044199
0.505469 1.007074 -0.044203
0.569203 1.007074 -0.044207
0.632853 1.007074 -0.044213
0.696450 1.007074 -0.044219
0.759930 1.007074 -0.044225
0.823574 1.007074 -0.044225
0.887018 1.007074 -0.044235
0.950556 1.007074 -0.044244
-0.071088 -0.075314 0.088981
-0.056013 -0.075314 0.088981
0.079268 -0.075314 0.088981
0.136931 -0.075314 0.086109
0.198841 -0.075314 0.092512
0.265986 -0.075314 0.100590
0.337516 -0.075315 0.108284
0.412216 -0.075316 0.115080
0.488900 -0.075318 0.120837
0.564711 -0.075320 0.125030
0.638572 -0.075322 0.127876
0.710083 -0.075325 0.129615
0.778339 -0.075331 0.130388
0.842899 -0.075334 0.130269
0.902132 -0.075337 0.129198
0.950562 -0.075340 0.126342
-0.071088 -0.059344 0.088981
-0.039191 -0.041519 0.088981
0.079268 -0.041517 0.088981
0.136931 -0.041517 0.092632
0.198840 -0.041518 0.099027
0.265986 -0.041520 0.105658
0.337516 -0.041523 0.111810
0.412216 -0.041527 0.117251
0.488900 -0.041530 0.121880
0.564711 -0.041537 0.125272
0.638572 -0.041540 0.127596
0.710083 -0.041544 0.129016
0.778339 -0.041552 0.129648
0.842899 -0.041560 0.129548
0.902132 -0.041566 0.128671
0.950562 -0.041577 0.126342
-0.071089 0.083985 0.088981
-0.039192 0.083985 0.088981
0.077089 0.084272 0.091599
0.151283 0.074794 0.083291
0.217775 0.061510 0.071305
0.282673 0.052380 0.063045
0.351030 0.046730 0.058096
0.423074 0.043371 0.055244
0.497753 0.041456 0.053631
0.572076 0.040456 0.052777
0.644802 0.040021 0.052377
0.715513 0.039947 0.052257
0.783131 0.040101 0.052318
0.847200 0.040411 0.052499
0.905967 0.040801 0.052741
0.954110 0.041189 0.052995
-0.071090 0.145072 0.086108
-0.039191 0.145072 0.092631
0.052636 0.148422 0.071420
0.135907 0.146455 0.061299
0.205960 0.149368 0.055801
0.275479 0.152972 0.051092
0.347060 0.157042 0.047585
0.420961 0.161228 0.045193
0.496690 0.165184 0.043683
0.571604 0.168173 0.042823
0.644692 0.170206 0.042416
0.715516 0.171392 0.042314
0.783220 0.171770 0.042420
0.847382 0.171392 0.042670
0.906238 0.170139 0.043001
0.954406 0.167208 0.043334
-0.071092 0.210660 0.092510
-0.039195 0.210660 0.099025
0.042971 0.213195 0.063435
0.133800 0.212970 0.050117
0.198390 0.211613 0.048938
0.269321 0.220715 0.046720
0.342397 0.229342 0.044968
0.417592 0.237184 0.043710
0.494273 0.244047 0.042897
0.569850 0.249066 0.042467
0.643414 0.252421 0.042320
0.714614 0.254362 0.042372
0.782485 0.255023 0.042575
0.846819 0.254488 0.042881
0.905724 0.252623 0.043239
0.954031 0.248222 0.043579
-0.071095 0.281802 0.100588
-0.039199 0.281802 0.105655
0.039143 0.283597 0.060439
0.136987 0.283779 0.045036
0.204701 0.283199 0.044655
0.265731 0.282476 0.044205
0.339299 0.294884 0.043346
0.415057 0.305954 0.042759
0.492262 0.315520 0.042422
0.568234 0.322461 0.042315
0.642144 0.327084 0.042376
0.713614 0.329805 0.042571
0.781728 0.330783 0.042861
0.846211 0.330146 0.043216
0.905258 0.327791 0.043605
0.953578 0.322072 0.043947
-0.071100 0.357538 0.108280
-0.039206 0.357538 0.111805
0.037832 0.358905 0.059343
0.141856 0.359147 0.042907
0.212409 0.358836 0.042797
0.276180 0.358479 0.042668
0.337317 0.358033 0.042534
0.413263 0.372121 0.042349
0.490719 0.384214 0.042324
0.566940 0.392986 0.042437
0.641080 0.398876 0.042656
0.712748 0.402382 0.042953
0.780952 0.403629 0.043314
0.845536 0.402991 0.043710
0.904667 0.400102 0.044115
0.953104 0.393173 0.044447
-0.071101 0.436699 0.115082
-0.039220 0.436699 0.117244
0.037803 0.437682 0.059133
0.146948 0.437923 0.042316
0.220064 0.437759 0.042314
0.286250 0.437578 0.042321
0.349822 0.437317 0.042341
0.412032 0.437061 0.042384
0.489599 0.451556 0.042570
0.565933 0.462129 0.042838
0.640134 0.469239 0.043166
0.711909 0.473461 0.043545
0.780268 0.475102 0.043950
0.844986 0.474377 0.044371
0.904145 0.471057 0.044785
0.952700 0.462937 0.045102
-0.071111 0.517963 0.120827
-0.039237 0.517963 0.121870
0.038543 0.518733 0.059423
0.151675 0.518937 0.042636
0.226997 0.518849 0.042682
0.295280 0.518732 0.042748
0.360885 0.518579 0.042838
0.425225 0.518454 0.042957
0.488801 0.518248 0.043116
0.565193 0.530533 0.043503
0.639468 0.538821 0.043912
0.711229 0.543792 0.044343
0.779704 0.545752 0.044780
0.844416 0.544987 0.045220
0.903704 0.541206 0.045619
0.952190 0.531947 0.045908
-0.071116 0.598284 0.125016
-0.039258 0.598284 0.125269
0.039765 0.598906 0.060039
0.155296 0.599090 0.043523
0.232207 0.599012 0.043583
0.301993 0.598939 0.043676
0.369123 0.598867 0.043804
0.434959 0.598760 0.043962
0.500027 0.598632 0.044158
0.564637 0.598518 0.044397
0.638961 0.607959 0.044870
0.710740 0.613653 0.045343
0.779233 0.615905 0.045801
0.843968 0.615087 0.046237
0.903294 0.610903 0.046621
0.951812 0.600431 0.046867
-0.071132 0.676551 0.127857
-0.039282 0.676551 0.127577
0.041284 0.677119 0.060869
0.157856 0.677261 0.044762
0.235813 0.677222 0.044836
0.306641 0.677204 0.044939
0.374735 0.677136 0.045077
0.441563 0.677016 0.045255
0.507676 0.676960 0.045470
0.573282 0.676859 0.045725
0.638536 0.676807 0.046020
0.710427 0.683091 0.046523
0.778796 0.685723 0.046988
0.843599 0.684815 0.047416
0.903008 0.680182 0.047783
0.951506 0.668561 0.047978
-0.071142 0.752352 0.129604
-0.039310 0.752352 0.129005
0.043006 0.752780 0.061861
0.159521 0.752944 0.046239
0.238039 0.752916 0.046314
0.309433 0.752877 0.046424
0.378143 0.752828 0.046562
0.445565 0.752771 0.046740
0.512265 0.752703 0.046960
0.578479 0.752628 0.047219
0.644329 0.752547 0.047523
0.710063 0.752462 0.047874
0.778547 0.755394 0.048343
0.843337 0.754430 0.048755
0.902677 0.749423 0.049097
0.951207 0.736563 0.049229
-0.071153 0.824599 0.130359
-0.039335 0.824599 0.129618
0.044829 0.825022 0.062957
0.160358 0.825144 0.047843
0.239008 0.825123 0.047918
0.310583 0.825131 0.048028
0.379535 0.825093 0.048164
0.447156 0.825048 0.048346
0.514054 0.824996 0.048560
0.580538 0.824936 0.048814
0.646651 0.824872 0.049110
0.712628 0.824803 0.049452
0.778283 0.824769 0.049836
0.843084 0.823771 0.050238
0.902446 0.818288 0.050540
0.950999 0.804265 0.050613
-0.071166 0.893047 0.130246
-0.039370 0.893047 0.129519
0.046684 0.893393 0.064122
0.160424 0.893494 0.049514
0.238823 0.893531 0.049593
0.310256 0.893508 0.049690
0.379034 0.893479 0.049829
0.446550 0.893443 0.050002
0.513376 0.893401 0.050209
0.579739 0.893354 0.050453
0.645737 0.893302 0.050739
0.711611 0.893246 0.051066
0.777277 0.893266 0.051438
0.842894 0.893204 0.051847
0.902286 0.887233 0.052112
0.950806 0.872107 0.052125
-0.071179 0.955750 0.129168
-0.039402 0.955750 0.128641
0.048479 0.956037 0.065281
0.159636 0.956103 0.051155
0.237351 0.956178 0.051230
0.308204 0.956158 0.051319
0.376527 0.956134 0.051450
0.443537 0.956105 0.051614
0.509898 0.956071 0.051810
0.575791 0.956033 0.052050
0.641350 0.955990 0.052319
0.706841 0.955943 0.052633
0.771943 0.955894 0.052978
0.837204 0.955927 0.053375
0.902083 0.955874 0.053798
0.950667 0.939578 0.053742
-0.071197 1.007074 0.126315
-0.039431 1.007074 0.126315
0.079181 1.007074 0.088896
0.168416 1.007074 0.088896
0.239895 1.007074 0.088895
0.307369 1.007074 0.088895
0.373217 1.007074 0.088893
0.438293 1.007074 0.088892
0.502920 1.007074 0.088890
0.567219 1.007074 0.088888
0.631316 1.007074 0.088885
0.695365 1.007074 0.088882
0.759216 1.007074 0.088879
0.823133 1.007074 0.088875
0.886764 1.007074 0.088877
0.950556 1.007074 0.088872
-0.071088 -0.075314 0.153708
-0.056776 -0.075314 0.153708
0.076717 -0.075314 0.153708
0.136931 -0.075314 0.153708
0.198840 -0.075314 0.161343
0.265986 -0.075315 0.171338
0.337516 -0.075315 0.181135
0.412216 -0.075317 0.189954
0.488900 -0.075318 0.197562
0.564711 -0.075320 0.203165
0.638572 -0.075323 0.206991
0.710083 -0.075325 0.209338
0.778339 -0.075331 0.210382
0.842899 -0.075334 0.210218
0.902132 -0.075337 0.208770
0.950562 -0.075340 0.204926
-0.071088 -0.060152 0.153708
-0.039191 -0.041517 0.153708
0.082531 -0.041517 0.153708
0.136931 -0.041518 0.153708
0.198840 -0.041519 0.163266
0.265986 -0.041521 0.173299
0.337516 -0.041523 0.182648
0.412216 -0.041530 0.190949
0.488900 -0.041531 0.198058
0.564711 -0.041537 0.203281
0.638572 -0.041540 0.206847
0.710083 -0.041545 0.209042
0.778339 -0.041552 0.210000
0.842899 -0.041561 0.209860
0.902132 -0.041566 0.208520
0.950562 -0.041578 0.204926
-0.071089 0.081276 0.153708
-0.039192 0.087439 0.153708
0.072457 0.080221 0.174614
0.149044 0.070616 0.170739
0.215398 0.059485 0.169135
0.281230 0.051446 0.169213
0.350229 0.046286 0.171490
0.422590 0.043164 0.174924
0.497459 0.041361 0.178588
0.571888 0.040416 0.181501
0.644708 0.040011 0.183515
0.715447 0.039948 0.184704
0.783058 0.040113 0.185091
0.847142 0.040428 0.184667
0.905921 0.040821 0.183384
0.954071 0.041211 0.180350
-0.071090 0.145072 0.153708
-0.039191 0.145072 0.153708
0.051493 0.147311 0.157756
0.133168 0.145575 0.158222
0.214993 0.137184 0.150809
0.295582 0.122033 0.137563
0.370229 0.107302 0.124131
0.443020 0.095942 0.113789
0.516389 0.087647 0.106389
0.588857 0.081841 0.101328
0.659862 0.077808 0.097868
0.728968 0.074987 0.095478
0.795290 0.073020 0.093829
0.858251 0.071638 0.092674
0.916227 0.070711 0.091881
0.963657 0.070129 0.091377
-0.071092 0.210660 0.161343
-0.039195 0.210660 0.163265
0.042681 0.212820 0.156762
0.102682 0.216368 0.133534
0.196197 0.213118 0.121871
0.278535 0.213677 0.112318
0.356685 0.214091 0.103415
0.433634 0.214835 0.095837
0.510318 0.215964 0.089782
0.585161 0.216658 0.085217
0.657759 0.216849 0.081830
0.727879 0.216525 0.079323
0.794816 0.215612 0.077491
0.858307 0.214066 0.076152
0.916540 0.211704 0.075208
0.964278 0.207490 0.074604
-0.071095 0.281802 0.171336
-0.039199 0.281802 0.173298
0.039063 0.283464 0.160817
0.084494 0.287289 0.117941
0.186551 0.286742 0.100318
0.264646 0.284011 0.097510
0.344507 0.290860 0.092472
0.423444 0.297044 0.088033
0.502123 0.302453 0.084318
0.578699 0.306075 0.081426
0.652677 0.308151 0.079196
0.723898 0.308887 0.077489
