src/luts/Shallow Seas.cube
LUT_3D_SIZE 6
0.045270 0.045270 0.045270
0.164861 0.027023 0.027023
0.371014 0.021531 0.021531
0.615613 0.023266 0.023266
0.838330 0.026539 0.026539
1.000001 0.045214 0.045214
0.022505 0.157517 0.022505
0.156648 0.156648 0.022030
0.369482 0.185117 0.021765
0.615245 0.205521 0.024006
0.838204 0.210183 0.027234
1.000000 0.202275 0.045209
0.023201 0.368257 0.023201
0.184518 0.368169 0.023368
0.367975 0.367975 0.024094
0.614548 0.409818 0.026987
0.837886 0.419181 0.029975
1.000000 0.400762 0.045190
0.029770 0.614316 0.029770
0.205527 0.614306 0.029941
0.409682 0.614268 0.030658
0.614213 0.614213 0.032043
0.837600 0.628362 0.034699
1.000038 0.600383 0.045152
0.037327 0.837517 0.037327
0.210717 0.837514 0.037460
0.419221 0.837502 0.038017
0.628361 0.837483 0.039121
0.837465 0.837465 0.040795
1.000033 0.800130 0.045099
0.045076 1.000033 0.045076
0.202254 1.000033 0.045075
0.400752 1.000033 0.045070
0.600381 1.000033 0.045056
0.800129 1.000032 0.045043
1.000032 1.000032 0.045015
0.033820 0.033820 0.176164
0.162498 0.025578 0.162498
0.370787 0.021528 0.185730
0.615566 0.023341 0.205613
0.838311 0.026610 0.210177
1.000001 0.045214 0.202276
0.022308 0.157173 0.157173
0.156439 0.156439 0.156439
0.403419 0.115183 0.115183
0.640052 0.087955 0.087955
0.855837 0.078795 0.078795
1.000000 0.156421 0.156421
0.023259 0.368225 0.184536
0.089806 0.373646 0.089806
0.369070 0.369070 0.085815
0.623593 0.395166 0.078948
0.847933 0.397071 0.075919
1.000000 0.386900 0.156417
0.029828 0.614313 0.205521
0.075827 0.617344 0.075827
0.390394 0.616307 0.075416
0.614778 0.614778 0.074859
0.841567 0.622204 0.074429
1.000038 0.594222 0.156421
0.037373 0.837516 0.210720
0.074498 0.839544 0.074498
0.392909 0.839243 0.074566
0.620037 0.838597 0.074739
0.837921 0.837921 0.075098
1.000033 0.797677 0.156410
0.045076 1.000033 0.202254
0.156405 1.000033 0.156405
0.386891 1.000033 0.156404
0.594220 1.000032 0.156402
0.797675 1.000032 0.156399
1.000032 1.000032 0.156394
0.022972 0.022972 0.378073
0.187540 0.022047 0.374382
0.369986 0.021602 0.369986
0.615382 0.023660 0.410377
0.838234 0.026909 0.419327
1.000000 0.045211 0.400764
0.021534 0.185894 0.371114
0.139152 0.139152 0.423849
0.395461 0.108357 0.395461
0.637133 0.086363 0.404168
0.854704 0.078357 0.400396
1.000000 0.156420 0.386901
0.023504 0.368166 0.368166
0.088264 0.371860 0.371860
0.367919 0.367919 0.367919
0.680359 0.325047 0.325047
0.921069 0.275944 0.275944
1.000000 0.367914 0.367914
0.030074 0.614299 0.409699
0.075676 0.616925 0.390771
0.260843 0.630624 0.260843
0.617745 0.617745 0.246868
0.870678 0.600862 0.231883
1.000038 0.586129 0.367912
0.037565 0.837511 0.419207
0.074520 0.839399 0.393019
0.214826 0.851362 0.214826
0.581905 0.846472 0.210546
0.840347 0.840347 0.204941
1.000033 0.794582 0.367907
0.045074 1.000033 0.400752
0.156405 1.000033 0.386891
0.367905 1.000033 0.367905
0.586126 1.000032 0.367904
0.794581 1.000032 0.367903
1.000032 1.000032 0.367901
0.021545 0.021545 0.619362
0.206485 0.021636 0.618390
0.410969 0.022407 0.616383
0.615128 0.024307 0.615128
0.838145 0.027511 0.628741
1.000000 0.045209 0.600385
0.022020 0.206040 0.617045
0.109355 0.109355 0.680332
0.414679 0.094894 0.652918
0.632508 0.083817 0.632508
0.852694 0.077600 0.630504
1.000000 0.156420 0.594223
0.025118 0.410011 0.614898
0.082837 0.399885 0.630735
0.354180 0.354180 0.691307
0.672664 0.310915 0.672664
0.913426 0.269112 0.634878
1.000000 0.367914 0.586130
0.030567 0.614273 0.614273
0.075406 0.616302 0.616302
0.255613 0.625808 0.625808
0.614164 0.614164 0.614164
0.901493 0.585089 0.585089
1.000034 0.614163 0.614163
0.037952 0.837503 0.628362
0.074567 0.839232 0.620493
0.213290 0.849627 0.584302
0.507226 0.861299 0.507226
0.843070 0.843070 0.483848
1.000033 0.805554 0.614161
0.045071 1.000033 0.600381
0.156404 1.000033 0.594220
0.367905 1.000033 0.586127
0.614160 1.000032 0.614160
0.805553 1.000032 0.614160
1.000031 1.000031 0.614159
0.022400 0.022400 0.840792
0.210515 0.022625 0.840453
0.419879 0.023619 0.839441
0.629039 0.025591 0.838585
0.837978 0.028436 0.837978
1.000000 0.045201 0.800133
0.023173 0.210384 0.839821
0.093296 0.093296 0.891840
0.410890 0.086905 0.875897
0.636283 0.080628 0.860423
0.850128 0.076669 0.850128
1.000000 0.156419 0.797679
0.026403 0.419372 0.838367
0.080005 0.402425 0.858835
0.342546 0.342546 0.928638
0.649846 0.306760 0.925094
0.902830 0.259762 0.902830
1.000000 0.367914 0.794584
0.031840 0.628437 0.837760
0.074958 0.624466 0.844635
0.249054 0.616500 0.890469
0.605015 0.605015 0.908613
0.897327 0.573728 0.897327
1.000034 0.614163 0.805555
0.038553 0.837492 0.837492
0.074654 0.838862 0.838862
0.210996 0.847040 0.847040
0.498711 0.854865 0.854865
0.837458 0.837458 0.837458
1.000033 0.837457 0.837457
0.045063 1.000033 0.800129
0.156403 1.000033 0.797676
0.367904 1.000032 0.794581
0.614160 1.000032 0.805553
0.837456 1.000032 0.837456
1.000031 1.000031 0.837456
0.045253 0.045253 1.000001
0.202282 0.045252 1.000001
0.400766 0.045245 1.000001
0.600385 0.045233 1.000001
0.800133 0.045220 1.000001
1.000000 0.045191 1.000000
0.045248 0.202282 1.000001
0.156428 0.156428 1.000001
0.386904 0.156427 1.000001
0.594224 0.156425 1.000001
0.797679 0.156422 1.000001
1.000000 0.156417 1.000000
0.045226 0.400765 1.000001
0.156425 0.386903 1.000001
0.367917 0.367917 1.000001
0.586131 0.367916 1.000001
0.794584 0.367915 1.000000
1.000000 0.367913 1.000000
0.045192 0.600384 1.000000
0.156418 0.594223 1.000000
0.367914 0.586130 1.000000
0.614164 0.614164 0.999922
0.805555 0.614163 1.000038
1.000034 0.614163 1.000034
0.045138 0.800131 1.000034
0.156417 0.797677 1.000034
0.367910 0.794583 1.000034
0.614162 0.805555 1.000034
0.837457 0.837457 1.000033
1.000033 0.837457 1.000033
0.045054 1.000032 1.000032
0.156401 1.000032 1.000032
0.367904 1.000032 1.000032
0.614160 1.000032 1.000032
0.837456 1.000032 1.000032
1.000031 1.000031 1.000031
