src/luts/Shallow Seas.cube
LUT_3D_SIZE 16
0.045270 0.045270 0.045270
0.064527 0.043279 0.043279
0.111689 0.034259 0.034259
0.164861 0.027023 0.027023
0.226332 0.023442 0.023442
0.295589 0.021940 0.021940
0.371014 0.021531 0.021531
0.451139 0.021752 0.021752
0.534273 0.022382 0.022382
0.615613 0.023266 0.023266
0.693879 0.024293 0.024293
0.768373 0.025403 0.025403
0.838330 0.026539 0.026539
0.902742 0.027649 0.027649
0.959284 0.028670 0.028670
1.000001 0.045214 0.045214
0.038266 0.061600 0.038266
0.060344 0.060344 0.036589
0.107952 0.058499 0.030924
0.163078 0.057773 0.025935
0.225579 0.058978 0.023112
0.295235 0.061212 0.021854
0.370801 0.063788 0.021530
0.451047 0.066367 0.021784
0.534201 0.068751 0.022431
0.615579 0.070497 0.023318
0.693897 0.071674 0.024349
0.768356 0.072356 0.025455
0.838316 0.072646 0.026589
0.902731 0.072522 0.027697
0.959275 0.071944 0.028713
1.000000 0.076546 0.045214
0.026662 0.103138 0.026662
0.054763 0.102825 0.026384
0.101766 0.101766 0.025412
0.159222 0.106896 0.023543
0.223525 0.112546 0.022242
0.294157 0.118413 0.021622
0.370211 0.124142 0.021565
0.450711 0.129507 0.021937
0.534000 0.134256 0.022636
0.615469 0.137573 0.023546
0.693798 0.139645 0.024579
0.768295 0.140656 0.025682
0.838261 0.140806 0.026803
0.902687 0.140072 0.027898
0.959239 0.138387 0.028898
1.000000 0.137357 0.045212
0.022505 0.157517 0.022505
0.055045 0.157434 0.022459
0.105422 0.157134 0.022289
0.156648 0.156648 0.022030
0.221688 0.166510 0.021628
0.292949 0.176099 0.021536
0.369482 0.185117 0.021765
0.450213 0.193344 0.022289
0.533683 0.200532 0.023067
0.615245 0.205521 0.024006
0.693627 0.208595 0.025044
0.768168 0.210046 0.026132
0.838204 0.210183 0.027234
0.902606 0.208968 0.028299
0.959188 0.206325 0.029272
1.000000 0.202275 0.045209
0.021534 0.221094 0.021534
0.057514 0.221057 0.021534
0.111217 0.220947 0.021530
0.165831 0.220778 0.021534
0.220528 0.220528 0.021569
0.292044 0.233784 0.021799
0.368777 0.246078 0.022242
0.449718 0.257234 0.022902
0.533332 0.266944 0.023764
0.614983 0.273633 0.024732
0.693480 0.277732 0.025769
0.768003 0.279654 0.026834
0.838070 0.279804 0.027901
0.902494 0.278154 0.028930
0.959209 0.274589 0.029854
1.000000 0.268171 0.045206
0.021959 0.291836 0.021959
0.060590 0.291824 0.021967
0.117504 0.291792 0.022006
0.175385 0.291705 0.022089
0.233423 0.291609 0.022219
0.291459 0.291459 0.022418
0.368326 0.307014 0.023029
0.449325 0.321108 0.023803
0.533037 0.333326 0.024736
0.614733 0.341713 0.025728
0.693264 0.346898 0.026757
0.767939 0.349293 0.027795
0.837964 0.349500 0.028817
0.902451 0.347426 0.029790
0.959111 0.342950 0.030661
1.000000 0.334383 0.045198
0.023201 0.368257 0.023201
0.063758 0.368250 0.023214
0.123624 0.368222 0.023265
0.184518 0.368169 0.023368
0.245660 0.368151 0.023538
0.306818 0.368054 0.023780
0.367975 0.367975 0.024094
0.449042 0.384966 0.024976
0.532800 0.399723 0.025972
0.614548 0.409818 0.026987
0.693114 0.416076 0.028004
0.767773 0.418944 0.029002
0.837886 0.419181 0.029975
0.902319 0.416712 0.030885
0.958994 0.411338 0.031683
1.000000 0.400762 0.045190
0.025031 0.449031 0.025031
0.066843 0.449028 0.025045
0.129309 0.449017 0.025099
0.192958 0.449011 0.025213
0.256872 0.448978 0.025391
0.320851 0.448936 0.025642
0.384846 0.448887 0.025972
0.448846 0.448846 0.026382
0.532590 0.466081 0.027446
0.614389 0.477929 0.028480
0.693000 0.485209 0.029482
0.767642 0.488611 0.030440
0.837754 0.488903 0.031357
0.902294 0.486007 0.032197
0.958968 0.479720 0.032913
1.000000 0.467240 0.045183
0.027299 0.532608 0.027299
0.069723 0.532607 0.027309
0.134347 0.532600 0.027366
0.200371 0.532586 0.027478
0.266689 0.532564 0.027657
0.333104 0.532579 0.027904
0.399519 0.532546 0.028232
0.466013 0.532507 0.028634
0.532468 0.532468 0.029119
0.614293 0.546080 0.030174
0.692899 0.554415 0.031163
0.767527 0.558297 0.032084
0.837687 0.558656 0.032940
0.902187 0.555311 0.033706
0.958867 0.548162 0.034336
0.999922 0.533822 0.045169
0.029770 0.614316 0.029770
0.071977 0.614316 0.029783
0.137936 0.614313 0.029835
0.205527 0.614306 0.029941
0.273492 0.614297 0.030109
0.341560 0.614284 0.030346
0.409682 0.614268 0.030658
0.477823 0.614251 0.031041
0.546015 0.614232 0.031505
0.614213 0.614213 0.032043
0.692812 0.623590 0.033021
0.767441 0.627985 0.033902
0.837600 0.628362 0.034699
0.902100 0.624647 0.035389
0.958778 0.616573 0.035932
1.000038 0.600383 0.045152
0.032320 0.692841 0.032320
0.073697 0.692840 0.032332
0.140276 0.692838 0.032382
0.208785 0.692834 0.032479
0.277728 0.692827 0.032635
0.346797 0.692819 0.032857
0.415962 0.692808 0.033146
0.485122 0.692795 0.033505
0.554302 0.692782 0.033937
0.623559 0.692768 0.034443
0.692754 0.692754 0.035021
0.767390 0.697626 0.035866
0.837535 0.698060 0.036607
0.902032 0.693905 0.037225
0.958709 0.685025 0.037675
1.000034 0.666912 0.045140
0.034859 0.767418 0.034859
0.074976 0.767418 0.034871
0.141564 0.767416 0.034917
0.210405 0.767413 0.035005
0.279782 0.767409 0.035152
0.349302 0.767403 0.035351
0.418909 0.767396 0.035618
0.488540 0.767388 0.035950
0.558283 0.767379 0.036349
0.627944 0.767369 0.036817
0.697650 0.767360 0.037352
0.767350 0.767350 0.037958
0.837491 0.767902 0.038649
0.902040 0.763304 0.039198
0.958744 0.753467 0.039559
1.000034 0.733537 0.045116
0.037327 0.837517 0.037327
0.075885 0.837517 0.037337
0.141998 0.837516 0.037380
0.210717 0.837514 0.037460
0.280065 0.837511 0.037591
0.349590 0.837507 0.037774
0.419221 0.837502 0.038017
0.488887 0.837496 0.038323
0.558587 0.837490 0.038691
0.628361 0.837483 0.039121
0.698036 0.837477 0.039616
0.767890 0.837470 0.040172
0.837465 0.837465 0.040795
0.902009 0.832536 0.041272
0.958708 0.821776 0.041548
1.000033 0.800130 0.045099
0.039651 0.902032 0.039651
0.076411 0.902032 0.039659
0.141560 0.902031 0.039695
0.209711 0.902030 0.039772
0.278558 0.902028 0.039889
0.347623 0.902025 0.040054
0.416823 0.902022 0.040276
0.486023 0.902018 0.040554
0.555322 0.902013 0.040889
0.624666 0.902009 0.041284
0.693894 0.902004 0.041736
0.763294 0.902000 0.042253
0.832530 0.901996 0.042821
0.901993 0.901993 0.043455
0.958686 0.890362 0.043648
1.000033 0.866820 0.045075
0.041731 0.958705 0.041731
0.076492 0.958705 0.041736
0.140174 0.958705 0.041769
0.207254 0.958704 0.041839
0.275114 0.958703 0.041946
0.343252 0.958701 0.042098
0.411529 0.958698 0.042298
0.479837 0.958696 0.042547
0.548230 0.958693 0.042847
0.616596 0.958689 0.043207
0.685034 0.958686 0.043621
0.753469 0.958683 0.044092
0.821774 0.958681 0.044612
0.890361 0.958679 0.045047
0.958679 0.958679 0.045044
1.000032 0.933312 0.045043
0.045076 1.000033 0.045076
0.076479 1.000033 0.045076
0.137329 1.000033 0.045076
0.202254 1.000033 0.045075
0.268159 1.000033 0.045073
0.334382 1.000033 0.045073
0.400752 1.000033 0.045070
0.467235 1.000033 0.045066
0.533818 1.000033 0.045061
0.600381 1.000033 0.045056
0.666909 1.000032 0.045051
0.733534 1.000032 0.045044
0.800129 1.000032 0.045043
0.866819 1.000032 0.045036
0.933312 1.000032 0.045025
1.000032 1.000032 0.045015
0.044611 0.044611 0.065298
0.064124 0.042574 0.064124
0.111224 0.033832 0.060947
0.164664 0.026895 0.058548
0.226262 0.023405 0.059213
0.295564 0.021931 0.061289
0.370988 0.021530 0.063810
0.451128 0.021754 0.066373
0.534266 0.022387 0.068747
0.615609 0.023268 0.070488
0.693876 0.024299 0.071662
0.768372 0.025408 0.072349
0.838328 0.026544 0.072639
0.902741 0.027653 0.072509
0.959283 0.028673 0.071931
1.000001 0.045214 0.076546
0.037658 0.061162 0.061162
0.059951 0.059951 0.059951
0.112451 0.052632 0.052632
0.169741 0.041623 0.041623
0.230966 0.034728 0.034728
0.299253 0.031063 0.031063
0.373843 0.029287 0.029287
0.453358 0.028595 0.028595
0.536043 0.028557 0.028557
0.617125 0.028921 0.028921
0.695195 0.029526 0.029526
0.769441 0.030277 0.030277
0.839320 0.031108 0.031108
0.903609 0.031958 0.031958
0.960079 0.032768 0.032768
1.000000 0.059912 0.059912
0.026566 0.103028 0.054905
0.042106 0.104086 0.042106
0.101985 0.101985 0.039846
0.162006 0.104319 0.035649
0.226726 0.107576 0.032257
0.297027 0.111666 0.030089
0.372655 0.116097 0.028946
0.452682 0.120502 0.028530
0.535606 0.124529 0.028620
0.616832 0.127362 0.029045
0.694994 0.129130 0.029678
0.769296 0.129975 0.030439
0.839253 0.130057 0.031269
0.903518 0.129368 0.032117
0.960022 0.127820 0.032918
1.000000 0.130944 0.059911
0.022489 0.157495 0.055063
0.032771 0.158415 0.032771
0.101271 0.157815 0.032285
0.156845 0.156845 0.031497
0.222975 0.165207 0.030080
0.294581 0.173594 0.029104
0.371098 0.181649 0.028603
0.451674 0.189163 0.028528
0.535015 0.195797 0.028798
0.616405 0.200389 0.029314
0.694713 0.203215 0.029991
0.769149 0.204482 0.030769
0.839048 0.204526 0.031599
0.903439 0.203282 0.032436
0.959974 0.200684 0.033221
1.000000 0.198661 0.059909
0.021535 0.221081 0.057519
0.029400 0.221718 0.029400
0.104774 0.221507 0.029295
0.163823 0.221148 0.029115
0.220666 0.220666 0.028897
0.292747 0.232968 0.028577
0.369706 0.244517 0.028522
0.450710 0.255073 0.028729
0.534317 0.264305 0.029173
0.615896 0.270650 0.029783
0.694327 0.274506 0.030505
0.768826 0.276271 0.031295
0.838819 0.276309 0.032121
0.903211 0.274606 0.032941
0.959779 0.271036 0.033698
1.000000 0.265793 0.059906
0.021962 0.291832 0.060589
0.028520 0.292281 0.028520
0.109687 0.292187 0.028515
0.172095 0.292031 0.028510
0.232235 0.291816 0.028520
0.291558 0.291558 0.028561
0.368754 0.306476 0.028789
0.449903 0.320022 0.029204
0.533702 0.331831 0.029791
0.615393 0.339914 0.030480
0.693909 0.344870 0.031240
0.768477 0.347104 0.032038
0.838625 0.347168 0.032853
0.903043 0.345026 0.033647
0.959637 0.340526 0.034367
1.000000 0.332698 0.059901
0.023205 0.368254 0.063756
0.028881 0.368556 0.028881
0.114854 0.368531 0.028907
0.180409 0.368453 0.028963
0.243632 0.368373 0.029056
0.306034 0.368203 0.029196
0.368038 0.368038 0.029389
0.449315 0.384565 0.029961
0.533192 0.398882 0.030663
0.614985 0.408748 0.031421
0.693556 0.414738 0.032208
0.768250 0.417479 0.033006
0.838365 0.417613 0.033799
0.902857 0.415025 0.034557
0.959482 0.409595 0.035229
1.000000 0.399536 0.059897
0.025036 0.449030 0.066841
0.030007 0.449285 0.030007
0.119821 0.449262 0.030048
0.188249 0.449216 0.030126
0.254263 0.449181 0.030253
0.319482 0.449092 0.030435
0.384272 0.449004 0.030674
0.448890 0.448890 0.030977
0.532811 0.465751 0.031782
0.614664 0.477328 0.032593
0.693289 0.484387 0.033399
0.767959 0.487627 0.034192
0.838132 0.487798 0.034956
0.902656 0.484805 0.035670
0.959328 0.478475 0.036283
1.000000 0.466295 0.059892
0.027303 0.532608 0.069721
0.031677 0.532847 0.031677
0.124298 0.532832 0.031720
0.195199 0.532802 0.031808
0.263664 0.532756 0.031946
0.331293 0.532695 0.032142
0.398538 0.532665 0.032401
0.465603 0.532566 0.032725
0.532520 0.532520 0.033118
0.614411 0.545825 0.033980
0.693070 0.553967 0.034800
0.767815 0.557705 0.035579
0.837937 0.557887 0.036309
0.902513 0.554468 0.036972
0.959124 0.547253 0.037521
1.000038 0.533077 0.059883
0.029776 0.614316 0.071975
0.033653 0.614461 0.033653
0.127520 0.614454 0.033696
0.200068 0.614441 0.033785
0.270182 0.614419 0.033923
0.339477 0.614391 0.034122
0.408379 0.614356 0.034379
0.477088 0.614315 0.034703
0.545689 0.614292 0.035098
0.614245 0.614245 0.035555
0.692869 0.623390 0.036388
0.767630 0.627606 0.037149
0.837810 0.627876 0.037843
0.902318 0.624059 0.038449
0.959063 0.615915 0.038928
1.000038 0.599811 0.059874
0.032324 0.692841 0.073701
0.035796 0.692935 0.035796
0.129642 0.692930 0.035836
0.203139 0.692920 0.035920
0.274223 0.692904 0.036056
0.344501 0.692884 0.036247
0.414391 0.692858 0.036494
0.484140 0.692891 0.036807
0.553729 0.692857 0.037186
0.623306 0.692822 0.037628
0.692784 0.692784 0.038136
0.767479 0.697498 0.038881
0.837699 0.697843 0.039538
0.902256 0.693569 0.040086
0.958989 0.684500 0.040492
1.000034 0.666495 0.059861
0.034866 0.767418 0.074974
0.037998 0.767549 0.037998
0.130828 0.767546 0.038037
0.204642 0.767539 0.038116
0.276148 0.767528 0.038246
0.346862 0.767514 0.038423
0.417204 0.767496 0.038661
0.487396 0.767474 0.038952
0.557475 0.767450 0.039309
0.627506 0.767423 0.039732
0.697475 0.767406 0.040211
0.767378 0.767378 0.040756
0.837579 0.767761 0.041374
0.902129 0.763044 0.041868
0.958858 0.753110 0.042197
1.000034 0.733256 0.059850
0.037331 0.837517 0.075883
0.040189 0.837651 0.040189
0.131265 0.837649 0.040228
0.204930 0.837644 0.040298
0.276351 0.837636 0.040420
0.347071 0.837625 0.040587
0.417428 0.837612 0.040807
0.487594 0.837595 0.041078
0.557704 0.837577 0.041409
0.627764 0.837557 0.041802
0.697697 0.837535 0.042254
0.767721 0.837513 0.042763
0.837491 0.837491 0.043334
0.902032 0.832457 0.043768
0.958752 0.821626 0.044021
1.000033 0.799893 0.059835
0.039653 0.902032 0.076409
0.042289 0.902105 0.042289
0.130921 0.902103 0.042325
0.203910 0.902099 0.042391
0.274821 0.902093 0.042500
0.345036 0.902085 0.042655
0.414924 0.902075 0.042858
0.484669 0.902063 0.043110
0.554298 0.902047 0.043416
0.623954 0.902032 0.043778
0.693456 0.902015 0.044194
0.762966 0.901997 0.044668
0.832417 0.902036 0.045197
0.902018 0.902018 0.045782
0.958759 0.890262 0.045960
1.000033 0.866701 0.059818
0.041730 0.958705 0.076490
0.044192 0.958743 0.044192
0.129726 0.958742 0.044226
0.201514 0.958739 0.044286
0.271399 0.958735 0.044382
0.340641 0.958728 0.044523
0.409589 0.958720 0.044706
0.478386 0.958711 0.044938
0.547163 0.958786 0.045217
0.615829 0.958774 0.045550
0.684452 0.958760 0.045934
0.753026 0.958746 0.046367
0.821600 0.958731 0.046858
0.890230 0.958717 0.047401
0.958703 0.958703 0.047994
1.000032 0.933220 0.059800
0.045076 1.000033 0.076479
0.059819 1.000033 0.059819
0.130911 1.000033 0.059819
0.198650 1.000033 0.059818
0.265781 1.000033 0.059817
0.332690 1.000033 0.059816
0.399527 1.000033 0.059814
0.466290 1.000033 0.059815
0.533072 1.000033 0.059812
0.599808 1.000032 0.059809
0.666493 1.000032 0.059805
0.733253 1.000032 0.059801
0.799892 1.000032 0.059796
0.866700 1.000032 0.059792
0.933220 1.000032 0.059787
1.000032 1.000032 0.059781
0.040950 0.040950 0.116563
0.064568 0.038461 0.115574
0.109479 0.032263 0.109479
0.163841 0.026399 0.110165
0.225934 0.023259 0.113817
0.295407 0.021892 0.118928
0.370914 0.021530 0.124354
0.451082 0.021768 0.129597
0.534235 0.022410 0.134294
0.615595 0.023291 0.137584
0.693865 0.024323 0.139645
0.768364 0.025431 0.140645
0.838322 0.026566 0.140790
0.902736 0.027675 0.140047
0.959279 0.028694 0.138368
1.000001 0.045214 0.137357
0.034418 0.061436 0.111857
0.057605 0.057605 0.114288
0.111092 0.050294 0.111092
0.168528 0.040694 0.109094
0.230380 0.034391 0.109575
0.298968 0.030940 0.112491
0.373716 0.029248 0.116457
0.453283 0.028587 0.120658
0.535982 0.028562 0.124602
0.617096 0.028932 0.127397
0.695131 0.029542 0.129145
0.769426 0.030295 0.129974
0.839308 0.031121 0.130052
0.903599 0.031974 0.129349
0.960087 0.032784 0.127799
1.000000 0.059912 0.130944
0.026180 0.102604 0.102604
0.041258 0.103297 0.103297
0.101408 0.101408 0.101408
0.171946 0.092664 0.092664
0.243340 0.078046 0.078046
0.312906 0.066712 0.066712
0.386007 0.059113 0.059113
0.463618 0.054291 0.054291
0.544623 0.051345 0.051345
0.624365 0.049667 0.049667
0.701430 0.048760 0.048760
0.774929 0.048343 0.048343
0.844219 0.048229 0.048229
0.908078 0.048310 0.048310
0.964220 0.048496 0.048496
1.000000 0.101388 0.101388
0.022427 0.157368 0.105586
0.032597 0.158205 0.101545
0.076155 0.160910 0.076155
0.157435 0.157435 0.072180
0.229802 0.159330 0.065673
0.303348 0.161883 0.059921
0.379861 0.165209 0.055499
0.459718 0.169055 0.052390
0.542110 0.172917 0.050354
0.622679 0.175598 0.049164
0.700295 0.177144 0.048532
0.774160 0.177630 0.048267
0.843594 0.177261 0.048238
0.907614 0.175919 0.048373
0.963888 0.173546 0.048587
1.000000 0.184152 0.101387
0.021532 0.221048 0.111251
0.029363 0.221645 0.104842
0.060722 0.224387 0.060722
0.153886 0.223004 0.059459
0.221219 0.221219 0.057798
0.296404 0.229607 0.054822
0.374667 0.237799 0.052398
0.455940 0.245617 0.050593
0.539409 0.252671 0.049367
0.620770 0.257413 0.048663
0.698826 0.260133 0.048316
0.773039 0.261117 0.048229
0.842840 0.260675 0.048306
0.906948 0.258713 0.048506
0.963359 0.255117 0.048752
1.000000 0.256604 0.101385
0.021973 0.291814 0.117512
0.028517 0.292246 0.109711
0.053325 0.294371 0.053325
0.155827 0.293791 0.052888
0.226817 0.292954 0.052282
0.291977 0.291977 0.051564
0.370895 0.304215 0.050254
0.452923 0.315531 0.049273
0.537065 0.325512 0.048641
0.618924 0.332200 0.048319
0.697482 0.336104 0.048229
0.771940 0.337586 0.048297
0.841896 0.337142 0.048478
0.906254 0.334683 0.048735
0.962771 0.330025 0.049015
1.000000 0.326291 0.101383
0.023221 0.368245 0.123625
0.028889 0.368568 0.114861
0.049864 0.370211 0.049864
0.160101 0.369945 0.049714
0.234365 0.369490 0.049500
0.302589 0.368973 0.049243
0.368388 0.368388 0.048969
0.450730 0.382931 0.048507
0.535184 0.395653 0.048273
0.617348 0.404228 0.048230
0.696121 0.409274 0.048330
0.770872 0.411260 0.048524
0.841004 0.410887 0.048790
0.905476 0.407939 0.049098
0.962142 0.402321 0.049395
1.000000 0.394801 0.101380
0.025054 0.449026 0.129306
0.030020 0.449277 0.119821
0.048469 0.450542 0.048469
0.165130 0.450382 0.048429
0.242376 0.450161 0.048376
0.313374 0.449870 0.048316
0.381923 0.449530 0.048269
0.449158 0.449158 0.048232
0.533792 0.464519 0.048270
0.616096 0.474902 0.048425
0.695019 0.481047 0.048660
0.769876 0.483576 0.048944
0.840158 0.483225 0.049270
0.904746 0.479842 0.049607
0.961523 0.473275 0.049919
1.000000 0.462704 0.101377
0.027321 0.532605 0.134344
0.031692 0.532842 0.124295
0.048263 0.533807 0.048263
0.170024 0.533758 0.048268
0.249897 0.533608 0.048290
0.323319 0.533462 0.048326
0.394208 0.533222 0.048383
0.463833 0.532974 0.048468
0.532715 0.532715 0.048585
0.615125 0.544856 0.048879
0.694183 0.552086 0.049218
0.769130 0.555136 0.049575
0.839432 0.554778 0.049933
0.904140 0.551002 0.050289
0.960882 0.543517 0.050594
1.000038 0.530296 0.101372
0.029792 0.614315 0.137934
0.033667 0.614459 0.127515
0.048772 0.615295 0.048772
0.173541 0.615241 0.048806
0.255141 0.615158 0.048859
0.330187 0.615040 0.048937
0.402685 0.614922 0.049044
0.473889 0.614734 0.049187
0.544396 0.614578 0.049364
0.614390 0.614390 0.049587
0.693452 0.622671 0.049998
0.768483 0.626191 0.050392
0.838822 0.625899 0.050783
0.903547 0.621710 0.051132
0.960399 0.613305 0.051413
1.000038 0.597689 0.101367
0.032341 0.692840 0.140271
0.035810 0.692934 0.129650
0.049710 0.693633 0.049710
0.175724 0.693594 0.049753
0.258337 0.693533 0.049821
0.334320 0.693513 0.049924
0.407757 0.693408 0.050051
0.479896 0.693285 0.050219
0.551347 0.693187 0.050426
0.622302 0.693079 0.050677
0.692878 0.692878 0.050977
0.767885 0.696903 0.051405
0.838348 0.696615 0.051800
0.903090 0.692010 0.052139
0.959946 0.682667 0.052395
1.000034 0.664903 0.101361
0.034881 0.767417 0.141559
0.038012 0.767548 0.130835
0.050902 0.768153 0.050902
0.176758 0.768125 0.050951
0.259716 0.768081 0.051024
0.336072 0.768021 0.051131
0.409875 0.767954 0.051271
0.482389 0.767863 0.051450
0.554215 0.767862 0.051667
0.625620 0.767759 0.051928
0.696590 0.767637 0.052235
0.767510 0.767510 0.052589
0.837923 0.767246 0.052985
0.902700 0.762226 0.053306
0.959572 0.751879 0.053519
1.000034 0.732083 0.101354
0.037344 0.837516 0.141992
0.040204 0.837650 0.131272
0.052237 0.838182 0.052237
0.176851 0.838161 0.052283
0.259629 0.838128 0.052360
0.335873 0.838082 0.052464
0.409593 0.838023 0.052606
0.482087 0.837952 0.052790
0.553871 0.837915 0.053005
0.625228 0.837893 0.053267
0.696210 0.837794 0.053575
0.767071 0.837733 0.053920
0.837626 0.837626 0.054316
0.902349 0.832121 0.054612
0.959216 0.820930 0.054785
1.000033 0.799016 0.101357
0.039665 0.902032 0.141547
0.042304 0.902104 0.130915
0.053611 0.902585 0.053611
0.175909 0.902568 0.053656
0.257999 0.902542 0.053728
0.333667 0.902506 0.053837
0.406827 0.902459 0.053978
0.478797 0.902488 0.054151
0.550066 0.902423 0.054368
0.620923 0.902347 0.054618
0.691434 0.902266 0.054914
0.761804 0.902276 0.055249
0.831942 0.902185 0.055629
0.902092 0.902092 0.056055
0.958966 0.889971 0.056179
1.000033 0.866182 0.101348
0.041742 0.958705 0.140169
0.044201 0.958743 0.129732
0.054927 0.959172 0.054927
0.173904 0.959159 0.054971
0.254685 0.959136 0.055042
0.329223 0.959107 0.055137
0.401390 0.959202 0.055269
0.472331 0.959156 0.055438
0.542618 0.959100 0.055641
0.612473 0.959038 0.055882
0.682072 0.958970 0.056161
0.751452 0.958984 0.056481
0.820591 0.958907 0.056840
0.889830 0.958826 0.057243
0.958741 0.958741 0.057689
1.000032 0.932978 0.101338
0.045076 1.000033 0.137329
0.059819 1.000033 0.130911
0.101348 1.000033 0.101348
0.184129 1.000033 0.101348
0.256591 1.000033 0.101348
0.326284 1.000033 0.101347
0.394792 1.000033 0.101346
0.462699 1.000033 0.101345
0.530290 1.000033 0.101344
0.597686 1.000032 0.101342
0.664901 1.000032 0.101340
0.732080 1.000032 0.101338
0.799015 1.000032 0.101336
0.866181 1.000032 0.101333
0.932977 1.000032 0.101330
1.000032 1.000032 0.101327
0.033820 0.033820 0.176164
0.063276 0.032514 0.174042
0.113123 0.028909 0.168009
0.162498 0.025578 0.162498
0.225308 0.022993 0.169285
0.295128 0.021822 0.177415
0.370787 0.021528 0.185730
0.451005 0.021798 0.193664
0.534173 0.022450 0.200697
0.615566 0.023341 0.205613
0.693887 0.024373 0.208626
0.768349 0.025477 0.210042
0.838311 0.026610 0.210177
0.902727 0.027714 0.208949
0.959271 0.028733 0.206318
1.000001 0.045214 0.202276
0.030228 0.061327 0.170231
0.051149 0.051149 0.180385
0.113382 0.045222 0.174296
0.166486 0.039120 0.166486
0.229324 0.033780 0.170054
0.298456 0.030711 0.175968
0.373451 0.029166 0.182822
0.453124 0.028570 0.189766
0.535908 0.028574 0.196121
0.617039 0.028958 0.200561
0.695088 0.029575 0.203298
0.769395 0.030327 0.204534
0.839330 0.031156 0.204556
0.903581 0.032006 0.203289
0.960072 0.032814 0.200678
1.000000 0.059911 0.198661
0.024783 0.108299 0.161219
0.038474 0.106979 0.165644
0.098563 0.098563 0.174514
0.170583 0.089426 0.170583
0.241369 0.076167 0.168710
0.311536 0.065767 0.167131
0.385199 0.058646 0.167997
0.463140 0.054057 0.170540
0.544297 0.051228 0.173733
0.624195 0.049604 0.176059
0.701283 0.048735 0.177424
0.774822 0.048329 0.177801
0.844184 0.048229 0.177366
0.908011 0.048312 0.176000
0.964166 0.048503 0.173582
1.000000 0.101387 0.184153
0.022308 0.157173 0.157173
0.032272 0.157796 0.157796
0.074682 0.159625 0.159625
0.156439 0.156439 0.156439
0.239509 0.147216 0.147216
0.324008 0.130859 0.130859
0.403419 0.115183 0.115183
0.482018 0.103004 0.103004
0.561946 0.094090 0.094090
0.640052 0.087955 0.087955
0.715491 0.083738 0.083738
0.787647 0.080823 0.080823
0.855837 0.078795 0.078795
0.918715 0.077389 0.077389
0.974098 0.076450 0.076450
1.000000 0.156421 0.156421
0.021529 0.220965 0.165980
0.029291 0.221499 0.164093
0.060270 0.223871 0.154587
0.125933 0.226781 0.125933
0.221880 0.221880 0.119856
0.305799 0.222129 0.110626
0.387870 0.222554 0.101994
0.470291 0.223610 0.094669
0.553514 0.225179 0.088870
0.633993 0.225952 0.084646
0.711147 0.225908 0.081596
0.784428 0.225036 0.079409
0.853405 0.223454 0.077850
0.916817 0.220959 0.076754
0.972635 0.217421 0.076010
1.000000 0.240626 0.156420
0.022001 0.291798 0.175427
0.028515 0.292184 0.172174
0.053174 0.294165 0.156070
0.102901 0.298150 0.102901
0.213415 0.295713 0.100419
0.292805 0.292805 0.097458
0.376600 0.299646 0.092405
0.461070 0.306228 0.087954
0.546230 0.312150 0.084286
0.628358 0.315709 0.081518
0.706831 0.317270 0.079469
0.781028 0.317078 0.077951
0.850660 0.315473 0.076844
0.914627 0.312289 0.076055
0.970906 0.307359 0.075521
1.000000 0.315448 0.156419
0.023259 0.368225 0.184536
0.028908 0.368529 0.180449
0.049811 0.370090 0.160201
0.089806 0.373646 0.089806
0.211437 0.372386 0.088729
0.294784 0.370816 0.087352
0.369070 0.369070 0.085815
0.454404 0.379802 0.083034
0.540518 0.389264 0.080704
0.623593 0.395166 0.078948
0.702830 0.398143 0.077631
0.777777 0.398627 0.076642
0.847933 0.397071 0.075919
0.912398 0.393355 0.075405
0.969053 0.387330 0.075059
1.000000 0.386900 0.156417
0.025092 0.449018 0.192962
0.030047 0.449261 0.188263
0.048453 0.450482 0.165173
0.082310 0.453443 0.082310
0.213074 0.452747 0.081809
0.299570 0.451899 0.081168
0.376773 0.450859 0.080413
0.449730 0.449730 0.079587
