src/luts/Turquoise Delight.cube
LUT_3D_SIZE 16
-0.072469 -0.075680 -0.072469
-0.039949 -0.075680 -0.072469
0.086925 -0.075681 -0.072469
0.149835 -0.075681 -0.072470
0.214234 -0.075681 -0.072470
0.281429 -0.075682 -0.072471
0.351157 -0.075683 -0.072472
0.422863 -0.075684 -0.072474
0.496088 -0.075685 -0.072477
0.568726 -0.075687 -0.072479
0.640384 -0.075689 -0.072476
0.711409 -0.075692 -0.072480
0.781544 -0.075695 -0.072487
0.850824 -0.075698 -0.072492
0.916356 -0.075701 -0.072490
0.969032 -0.075707 -0.072495
-0.072469 -0.041719 -0.072469
-0.039949 -0.041719 -0.072469
0.086925 -0.057505 -0.072469
0.149835 -0.057586 -0.072470
0.214234 -0.055745 -0.072470
0.281429 -0.053434 -0.072471
0.351157 -0.050993 -0.072473
0.422863 -0.048549 -0.072474
0.496088 -0.046168 -0.072477
0.568726 -0.044222 -0.072480
0.640384 -0.042690 -0.072476
0.711409 -0.041489 -0.072480
0.781544 -0.040565 -0.072487
0.850824 -0.039940 -0.072492
0.916356 -0.039939 -0.072491
0.969032 -0.041779 -0.072495
-0.072470 0.090780 -0.072470
-0.055068 0.090779 -0.072470
0.086924 0.090779 -0.072470
0.149835 0.090558 -0.072470
0.214233 0.095416 -0.072471
0.281429 0.100785 -0.072472
0.351157 0.105736 -0.072473
0.422863 0.110109 -0.072475
0.496088 0.113885 -0.072478
0.568726 0.116662 -0.072474
0.640384 0.118667 -0.072477
0.711408 0.120144 -0.072481
0.781544 0.121228 -0.072488
0.850824 0.121947 -0.072493
0.916356 0.121946 -0.072492
0.969032 0.119829 -0.072496
-0.072471 0.156466 -0.072471
-0.055142 0.156466 -0.072471
0.086714 0.156466 -0.072471
0.149834 0.156466 -0.072471
0.214233 0.162512 -0.072472
0.281429 0.169336 -0.072473
0.351157 0.175714 -0.072475
0.422863 0.181438 -0.072477
0.496088 0.186427 -0.072479
0.568726 0.190099 -0.072475
0.640384 0.192787 -0.072479
0.711408 0.194789 -0.072485
0.781544 0.196260 -0.072490
0.850824 0.197217 -0.072495
0.916356 0.197234 -0.072494
0.969032 0.194358 -0.072498
-0.072473 0.223720 -0.072473
-0.053384 0.223720 -0.072473
0.091373 0.223720 -0.072473
0.155620 0.223720 -0.072474
0.214233 0.223720 -0.072474
0.281429 0.232419 -0.072475
0.351157 0.240624 -0.072477
0.422862 0.247969 -0.072479
0.496088 0.254406 -0.072475
0.568726 0.259180 -0.072478
0.640384 0.262652 -0.072482
0.711408 0.265231 -0.072488
0.781544 0.267126 -0.072493
0.850824 0.268370 -0.072491
0.916356 0.268390 -0.072497
0.969032 0.264690 -0.072501
-0.072476 0.293902 -0.072476
-0.051173 0.293902 -0.072476
0.096522 0.293902 -0.072477
0.162151 0.293902 -0.072477
0.222565 0.293902 -0.072478
0.281428 0.293902 -0.072478
0.351156 0.303980 -0.072480
0.422862 0.313047 -0.072476
0.496088 0.320980 -0.072479
0.568725 0.326866 -0.072482
0.640384 0.331152 -0.072488
0.711408 0.334343 -0.072492
0.781544 0.336683 -0.072497
0.850824 0.338220 -0.072496
0.916356 0.338241 -0.072501
0.969032 0.333683 -0.072505
-0.072475 0.366675 -0.072475
-0.048844 0.366675 -0.072475
0.101255 0.366675 -0.072475
0.168253 0.366675 -0.072475
0.230417 0.366675 -0.072476
0.291104 0.366675 -0.072477
0.351156 0.366675 -0.072478
0.422862 0.377428 -0.072481
0.496088 0.386934 -0.072486
0.568725 0.393979 -0.072490
0.640383 0.399065 -0.072494
0.711408 0.402875 -0.072491
0.781544 0.405648 -0.072496
0.850824 0.407503 -0.072501
0.916356 0.407502 -0.072507
0.969032 0.402062 -0.072511
-0.072481 0.441573 -0.072481
-0.046514 0.441573 -0.072481
0.105436 0.441573 -0.072482
0.173732 0.441573 -0.072482
0.237451 0.441573 -0.072485
0.299755 0.441573 -0.072486
0.361451 0.441573 -0.072487
0.422861 0.441573 -0.072489
0.496087 0.452580 -0.072492
0.568725 0.460752 -0.072496
0.640383 0.466684 -0.072494
0.711407 0.471095 -0.072498
0.781543 0.474353 -0.072503
0.850824 0.476496 -0.072509
0.916356 0.476533 -0.072511
0.969031 0.470165 -0.072514
-0.072493 0.518051 -0.072493
-0.044238 0.518051 -0.072493
0.109049 0.518051 -0.072493
0.178501 0.518051 -0.072494
0.243616 0.518051 -0.072494
0.307360 0.518051 -0.072495
0.370532 0.518051 -0.072497
0.433390 0.518050 -0.072491
0.496087 0.518050 -0.072494
0.568725 0.527402 -0.072498
0.640383 0.534176 -0.072502
0.711407 0.539168 -0.072507
0.781543 0.542860 -0.072509
0.850824 0.545319 -0.072514
0.916355 0.545367 -0.072522
0.969031 0.538134 -0.072526
-0.072497 0.593882 -0.072497
-0.042390 0.593882 -0.072497
0.111703 0.593882 -0.072497
0.182039 0.593882 -0.072498
0.248191 0.593882 -0.072498
0.312993 0.593882 -0.072499
0.377270 0.593882 -0.072501
0.441205 0.593882 -0.072503
0.505018 0.593882 -0.072505
0.568724 0.593882 -0.072508
0.640383 0.601517 -0.072509
0.711406 0.607184 -0.072514
0.781543 0.611311 -0.072521
0.850823 0.614076 -0.072527
0.916355 0.614116 -0.072526
0.969031 0.606000 -0.072529
-0.072510 0.668741 -0.072510
-0.040946 0.668741 -0.072510
0.113621 0.668741 -0.072510
0.184620 0.668741 -0.072511
0.251512 0.668741 -0.072508
0.317112 0.668741 -0.072509
0.382140 0.668741 -0.072511
0.446898 0.668741 -0.072512
0.511501 0.668740 -0.072515
0.576018 0.668740 -0.072517
0.640382 0.668740 -0.072523
0.711406 0.675067 -0.072528
0.781542 0.679633 -0.072527
0.850823 0.682683 -0.072532
0.916355 0.682733 -0.072538
0.969030 0.673696 -0.072541
-0.072524 0.742846 -0.072524
-0.039815 0.742846 -0.072524
0.115033 0.742846 -0.072524
0.186520 0.742846 -0.072525
0.253979 0.742846 -0.072525
0.320159 0.742846 -0.072527
0.385816 0.742846 -0.072528
0.451144 0.742846 -0.072530
0.516340 0.742846 -0.072525
0.581426 0.742846 -0.072528
0.646402 0.742846 -0.072531
0.711405 0.742845 -0.072535
0.781542 0.747988 -0.072541
0.850822 0.751288 -0.072546
0.916354 0.751345 -0.072544
0.969030 0.741530 -0.072547
-0.072534 0.816185 -0.072534
-0.038955 0.816185 -0.072534
0.116063 0.816185 -0.072534
0.187919 0.816185 -0.072535
0.255786 0.816185 -0.072535
0.322388 0.816185 -0.072537
0.388462 0.816185 -0.072538
0.454244 0.816185 -0.072540
0.519867 0.816185 -0.072542
0.585390 0.816185 -0.072545
0.650798 0.816185 -0.072541
0.716256 0.816184 -0.072545
0.781542 0.816184 -0.072549
0.850822 0.819775 -0.072557
0.916354 0.819841 -0.072553
0.969030 0.809031 -0.072558
-0.072545 0.888485 -0.072545
-0.038384 0.888485 -0.072545
0.116739 0.888485 -0.072546
0.188837 0.888485 -0.072546
0.256980 0.888485 -0.072547
0.323861 0.888485 -0.072548
0.390221 0.888485 -0.072550
0.456278 0.888485 -0.072551
0.522223 0.888485 -0.072556
0.588032 0.888485 -0.072559
0.653749 0.888485 -0.072562
0.719535 0.888485 -0.072559
0.785105 0.888484 -0.072563
0.850821 0.888484 -0.072568
0.916353 0.888485 -0.072574
0.969029 0.876776 -0.072575
-0.072561 0.956914 -0.072561
-0.038410 0.956914 -0.072561
0.116742 0.956914 -0.072561
0.188850 0.956914 -0.072562
0.256997 0.956914 -0.072562
0.323879 0.956914 -0.072563
0.390259 0.956914 -0.072565
0.456311 0.956914 -0.072567
0.522278 0.956914 -0.072569
0.588069 0.956914 -0.072572
0.653754 0.956914 -0.072575
0.719485 0.956913 -0.072572
0.785070 0.956913 -0.072577
0.850828 0.956913 -0.072581
0.916353 0.956913 -0.072587
0.969029 0.944326 -0.072588
-0.072572 1.011953 -0.072572
-0.040187 1.011953 -0.072572
0.114704 1.011953 -0.072572
0.186109 1.011953 -0.072572
0.253449 1.011953 -0.072573
0.319516 1.011953 -0.072574
0.385038 1.011953 -0.072576
0.450242 1.011953 -0.072578
0.515315 1.011953 -0.072580
0.580282 1.011953 -0.072582
0.645112 1.011953 -0.072586
0.709993 1.011953 -0.072592
0.774793 1.011953 -0.072587
0.839604 1.011953 -0.072594
0.904250 1.011953 -0.072599
0.969028 1.011952 -0.072605
-0.072469 -0.075680 -0.039949
-0.039949 -0.075680 -0.039949
0.086925 -0.075681 -0.055067
0.149835 -0.075681 -0.055146
0.214234 -0.075681 -0.053384
0.281429 -0.075682 -0.051167
0.351157 -0.075683 -0.048831
0.422863 -0.075684 -0.046495
0.496088 -0.075685 -0.044210
0.568726 -0.075687 -0.042346
0.640384 -0.075689 -0.040881
0.711409 -0.075692 -0.039732
0.781544 -0.075695 -0.038849
0.850824 -0.075698 -0.038247
0.916356 -0.075701 -0.038248
0.969032 -0.075707 -0.040012
-0.072469 -0.041719 -0.039949
-0.039949 -0.041719 -0.039949
0.086925 -0.041719 -0.039950
0.149835 -0.041720 -0.039950
0.214234 -0.041721 -0.039952
0.281429 -0.041722 -0.039956
0.351157 -0.041726 -0.039958
0.422863 -0.041729 -0.039959
0.496088 -0.041732 -0.039964
0.568726 -0.041736 -0.039967
0.640384 -0.041741 -0.039977
0.711408 -0.041749 -0.039982
0.781544 -0.041755 -0.039989
0.850825 -0.041763 -0.039998
0.916356 -0.041772 -0.040006
0.969032 -0.041779 -0.040012
-0.072470 0.090780 -0.055068
-0.039951 0.090779 -0.039951
0.086924 0.090779 -0.039951
0.149835 0.094990 -0.039952
0.214233 0.099875 -0.039955
0.281429 0.104420 -0.039957
0.351157 0.108447 -0.039957
0.422863 0.111967 -0.039961
0.496088 0.115013 -0.039966
0.568726 0.117254 -0.039969
0.640384 0.118887 -0.039975
0.711408 0.120089 -0.039984
0.781544 0.120973 -0.039990
0.850824 0.121542 -0.040000
0.916356 0.121550 -0.040008
0.969032 0.119829 -0.040015
-0.072471 0.156466 -0.055142
-0.039955 0.156466 -0.039955
0.090966 0.156466 -0.039955
0.149834 0.156466 -0.039956
0.214233 0.163856 -0.039958
0.281429 0.170746 -0.039957
0.351157 0.176904 -0.039960
0.422863 0.182278 -0.039964
0.496088 0.186945 -0.039967
0.568726 0.190410 -0.039975
0.640384 0.192916 -0.039979
0.711408 0.194752 -0.039985
0.781544 0.196112 -0.039991
0.850824 0.197016 -0.040001
0.916356 0.197030 -0.040007
0.969032 0.194358 -0.040019
-0.072473 0.223720 -0.053384
-0.039956 0.223720 -0.039956
0.095641 0.223720 -0.039957
0.156901 0.223720 -0.039957
0.214233 0.223720 -0.039959
0.281429 0.232961 -0.039961
0.351157 0.241206 -0.039965
0.422862 0.248437 -0.039966
0.496088 0.254714 -0.039972
0.568726 0.259355 -0.039978
0.640384 0.262713 -0.039985
0.711408 0.265211 -0.039991
0.781544 0.267040 -0.040000
0.850824 0.268249 -0.040007
0.916356 0.268252 -0.040016
0.969032 0.264690 -0.040022
-0.072476 0.293902 -0.051173
-0.039964 0.293902 -0.039964
0.099993 0.293902 -0.039964
0.163504 0.293902 -0.039965
0.223098 0.293902 -0.039966
0.281428 0.293902 -0.039965
0.351156 0.304211 -0.039969
0.422862 0.313290 -0.039976
0.496088 0.321163 -0.039979
0.568725 0.326979 -0.039983
0.640384 0.331205 -0.039991
0.711408 0.334332 -0.039999
0.781544 0.336631 -0.040005
0.850824 0.338119 -0.040012
0.916356 0.338138 -0.040022
0.969032 0.333683 -0.040028
-0.072475 0.366675 -0.048844
-0.039971 0.366675 -0.039971
0.103845 0.366675 -0.039972
0.169395 0.366675 -0.039975
0.230986 0.366675 -0.039976
0.291310 0.366675 -0.039975
0.351156 0.366675 -0.039977
0.422862 0.377563 -0.039983
0.496088 0.387064 -0.039987
0.568725 0.394052 -0.039991
0.640383 0.399072 -0.040001
0.711408 0.402862 -0.040007
0.781544 0.405628 -0.040013
0.850824 0.407445 -0.040023
0.916356 0.407483 -0.040030
0.969032 0.402062 -0.040040
-0.072481 0.441573 -0.046514
-0.039985 0.441573 -0.039985
0.107211 0.441573 -0.039985
0.174552 0.441573 -0.039983
0.237900 0.441573 -0.039985
0.300005 0.441573 -0.039987
0.361573 0.441573 -0.039989
0.422861 0.441573 -0.039993
0.496087 0.452620 -0.039999
0.568725 0.460784 -0.040004
0.640383 0.466707 -0.040008
0.711407 0.471100 -0.040019
0.781544 0.474320 -0.040027
0.850824 0.476442 -0.040038
0.916356 0.476476 -0.040046
0.969031 0.470165 -0.040051
-0.072493 0.518051 -0.044238
-0.040000 0.518051 -0.040000
0.110129 0.518051 -0.040000
0.179035 0.518051 -0.040001
0.243915 0.518051 -0.040002
0.307566 0.518051 -0.040001
0.370618 0.518051 -0.040004
0.433440 0.518050 -0.040008
0.496087 0.518050 -0.040008
0.568725 0.527386 -0.040018
0.640383 0.534191 -0.040024
0.711407 0.539163 -0.040030
0.781543 0.542883 -0.040042
0.850824 0.545274 -0.040050
0.916355 0.545318 -0.040060
0.969031 0.538134 -0.040065
-0.072497 0.593882 -0.042390
-0.040017 0.593882 -0.040017
0.112279 0.593882 -0.040017
0.182315 0.593882 -0.040018
0.248356 0.593882 -0.040020
0.313118 0.593882 -0.040019
0.377330 0.593882 -0.040022
0.441249 0.593882 -0.040026
0.505041 0.593882 -0.040027
0.568724 0.593882 -0.040032
0.640382 0.601522 -0.040043
0.711406 0.607182 -0.040050
0.781543 0.611298 -0.040060
0.850823 0.614051 -0.040068
0.916355 0.614088 -0.040078
0.969031 0.606000 -0.040082
-0.072510 0.668741 -0.040946
-0.040038 0.668741 -0.040038
0.113826 0.668741 -0.040038
0.184714 0.668741 -0.040039
0.251571 0.668741 -0.040041
0.317148 0.668741 -0.040043
0.382182 0.668741 -0.040046
0.446918 0.668741 -0.040047
0.511515 0.668740 -0.040052
0.576023 0.668740 -0.040054
0.640382 0.668740 -0.040063
0.711406 0.675066 -0.040071
0.781543 0.679624 -0.040081
0.850823 0.682664 -0.040090
0.916355 0.682710 -0.040100
0.969030 0.673696 -0.040103
-0.072524 0.742846 -0.039814
-0.040065 0.742846 -0.040065
0.114980 0.742846 -0.040066
0.186486 0.742846 -0.040063
0.253958 0.742846 -0.040065
0.320148 0.742846 -0.040067
0.385804 0.742846 -0.040071
0.451137 0.742846 -0.040071
0.516335 0.742846 -0.040078
0.581424 0.742846 -0.040084
0.646401 0.742846 -0.040087
0.711405 0.742845 -0.040092
0.781542 0.747981 -0.040103
0.850822 0.751276 -0.040112
0.916354 0.751329 -0.040122
0.969030 0.741530 -0.040127
-0.072534 0.816185 -0.038955
-0.040090 0.816185 -0.040090
0.115813 0.816185 -0.040090
0.187804 0.816185 -0.040092
0.255713 0.816185 -0.040093
0.322339 0.816185 -0.040096
0.388405 0.816185 -0.040101
0.454213 0.816185 -0.040102
0.519842 0.816185 -0.040107
0.585389 0.816185 -0.040109
0.650789 0.816185 -0.040118
0.716250 0.816185 -0.040123
0.781542 0.816184 -0.040129
0.850822 0.819769 -0.040140
0.916354 0.819830 -0.040148
0.969030 0.809031 -0.040153
-0.072545 0.888485 -0.038383
-0.040124 0.888485 -0.040124
0.116365 0.888485 -0.040125
0.188650 0.888485 -0.040126
0.256859 0.888485 -0.040128
0.323786 0.888485 -0.040127
0.390164 0.888485 -0.040130
0.456243 0.888485 -0.040134
0.522181 0.888485 -0.040136
0.588010 0.888485 -0.040144
0.653732 0.888485 -0.040148
0.719518 0.888485 -0.040152
0.785099 0.888485 -0.040163
0.850821 0.888484 -0.040170
0.916353 0.888479 -0.040181
0.969029 0.876776 -0.040180
-0.072561 0.956914 -0.038410
-0.040156 0.956914 -0.040156
0.116365 0.956914 -0.040156
0.188659 0.956914 -0.040159
0.256874 0.956914 -0.040161
0.323803 0.956914 -0.040164
0.390198 0.956914 -0.040164
0.456274 0.956914 -0.040168
0.522221 0.956914 -0.040169
0.588044 0.956914 -0.040175
0.653774 0.956914 -0.040181
0.719463 0.956913 -0.040189
0.785061 0.956913 -0.040195
0.850823 0.956913 -0.040206
0.916353 0.956913 -0.040214
0.969029 0.944326 -0.040216
-0.072572 1.011953 -0.040187
-0.040187 1.011953 -0.040187
0.114705 1.011953 -0.040188
0.186109 1.011953 -0.040189
0.253449 1.011953 -0.040187
0.319516 1.011953 -0.040190
0.385038 1.011953 -0.040193
0.450242 1.011953 -0.040197
0.515315 1.011953 -0.040202
0.580282 1.011953 -0.040208
0.645112 1.011953 -0.040212
0.709993 1.011953 -0.040216
0.774793 1.011953 -0.040227
0.839604 1.011953 -0.040234
0.904250 1.011953 -0.040243
0.969028 1.011952 -0.040252
-0.072469 -0.075680 0.086925
-0.055067 -0.075680 0.086925
0.086925 -0.075681 0.086925
0.149835 -0.075681 0.086715
0.214234 -0.075681 0.091376
0.281429 -0.075682 0.096526
0.351157 -0.075683 0.101260
0.422863 -0.075684 0.105440
0.496088 -0.075685 0.109053
0.568726 -0.075687 0.111712
0.640384 -0.075690 0.113633
0.711408 -0.075692 0.115049
0.781544 -0.075695 0.116093
0.850824 -0.075698 0.116766
0.916356 -0.075701 0.116776
0.969032 -0.075707 0.114747
-0.072469 -0.057505 0.086925
-0.039950 -0.041719 0.086925
0.086925 -0.041720 0.086925
0.149835 -0.041720 0.090960
0.214234 -0.041721 0.095644
0.281429 -0.041722 0.099996
0.351157 -0.041726 0.103850
0.422863 -0.041729 0.107218
0.496088 -0.041732 0.110139
0.568726 -0.041736 0.112287
0.640384 -0.041741 0.113845
0.711409 -0.041749 0.114992
0.781544 -0.041755 0.115835
0.850825 -0.041763 0.116394
0.916356 -0.041773 0.116400
0.969032 -0.041779 0.114747
-0.072470 0.090779 0.086924
-0.039951 0.090779 0.086924
0.085196 0.091410 0.085196
0.168021 0.079193 0.071580
0.234963 0.066716 0.058137
0.299135 0.059219 0.049990
0.365504 0.055069 0.045386
0.434475 0.052786 0.042827
0.505621 0.051537 0.041444
0.576688 0.050908 0.040774
0.647206 0.050640 0.040536
0.717227 0.050615 0.040585
0.786697 0.050756 0.040835
0.855339 0.051015 0.041231
0.920422 0.051358 0.041717
0.972872 0.051687 0.042175
-0.072471 0.156466 0.086714
-0.039955 0.156466 0.090966
0.054876 0.160618 0.054876
0.149425 0.157714 0.052180
0.221011 0.159286 0.048354
0.290249 0.161155 0.045301
0.360023 0.163354 0.043156
0.431053 0.165749 0.041776
0.503456 0.168163 0.040977
0.575243 0.170014 0.040606
0.646213 0.171367 0.040529
0.716645 0.172411 0.040668
0.786211 0.173193 0.040970
0.854962 0.173685 0.041397
0.920086 0.173554 0.041900
0.972631 0.171292 0.042360
-0.072473 0.223720 0.091373
-0.039957 0.223720 0.095641
0.045084 0.226732 0.045084
0.146776 0.225779 0.044474
0.214118 0.224538 0.043687
0.284643 0.230583 0.042487
0.355781 0.236077 0.041576
0.427976 0.241067 0.040961
0.501188 0.245542 0.040625
0.573612 0.248819 0.040528
0.645002 0.251157 0.040617
0.715661 0.252878 0.040853
0.785531 0.254126 0.041216
0.854438 0.254906 0.041677
0.919725 0.254682 0.042199
0.972213 0.251229 0.042660
-0.072476 0.293902 0.096522
-0.039964 0.293902 0.099993
0.041699 0.296046 0.041699
0.148407 0.295666 0.041544
0.217866 0.295140 0.041328
0.281367 0.294470 0.041090
0.352920 0.302689 0.040754
0.425613 0.309983 0.040567
0.499296 0.316363 0.040530
0.572126 0.321029 0.040632
0.643817 0.324342 0.040856
0.714811 0.326746 0.041182
0.784796 0.328500 0.041600
0.853849 0.329558 0.042098
0.919233 0.329289 0.042633
0.971833 0.324812 0.043088
-0.072475 0.366675 0.101255
-0.039972 0.366675 0.103845
0.040625 0.368292 0.040625
0.151351 0.368118 0.040599
0.222681 0.367869 0.040564
0.288072 0.367498 0.040536
0.351088 0.367108 0.040528
0.423969 0.376499 0.040581
0.497870 0.384687 0.040734
0.570891 0.390660 0.040975
0.642754 0.394900 0.041294
0.713835 0.398033 0.041686
0.784035 0.400275 0.042147
0.853253 0.401645 0.042671
0.918726 0.401380 0.043221
0.971407 0.395919 0.043654
-0.072482 0.441573 0.105436
-0.039985 0.441573 0.107211
0.040623 0.442821 0.040623
0.154569 0.442710 0.040644
0.227638 0.442576 0.040682
0.294666 0.442380 0.040738
0.359362 0.442157 0.040820
0.422834 0.441891 0.040938
0.496836 0.451819 0.041218
0.569949 0.459046 0.041552
0.641956 0.464231 0.041934
0.713192 0.468006 0.042376
0.783396 0.470734 0.042870
0.852692 0.472463 0.043414
0.918266 0.472202 0.043964
0.971004 0.465771 0.044376
-0.072493 0.518051 0.109049
-0.040000 0.518051 0.110129
0.041256 0.519063 0.041256
0.157687 0.518990 0.041294
0.232294 0.518913 0.041361
0.300779 0.518790 0.041451
0.366933 0.518643 0.041576
0.431823 0.518488 0.041741
0.496063 0.518290 0.041947
0.569226 0.526751 0.042348
0.641280 0.532825 0.042781
0.712537 0.537300 0.043254
0.782871 0.540477 0.043768
0.852233 0.542521 0.044324
0.917798 0.542248 0.044870
0.970623 0.534944 0.045254
-0.072497 0.593882 0.111703
-0.040017 0.593882 0.112279
0.042289 0.594709 0.042289
0.160117 0.594674 0.042337
0.235841 0.594599 0.042413
0.305375 0.594544 0.042523
0.372561 0.594455 0.042668
0.438511 0.594351 0.042848
0.503841 0.594225 0.043073
0.568714 0.594117 0.043344
0.640777 0.601024 0.043815
0.712123 0.606131 0.044313
0.782463 0.609822 0.044841
0.851806 0.612175 0.045398
0.917472 0.611914 0.045941
0.970313 0.603664 0.046274
-0.072510 0.668741 0.113621
-0.040038 0.668741 0.113826
0.043605 0.669429 0.043605
0.161979 0.669404 0.043653
0.238477 0.669398 0.043735
0.308760 0.669269 0.043849
0.376661 0.669203 0.044001
0.443370 0.669173 0.044191
0.509446 0.669084 0.044425
0.575096 0.669019 0.044699
0.640370 0.668879 0.045023
0.711714 0.674651 0.045541
0.782049 0.678759 0.046075
0.851482 0.681486 0.046634
0.917094 0.681207 0.047156
0.969963 0.672024 0.047447
-0.072524 0.742846 0.115033
-0.040065 0.742846 0.114980
0.045135 0.743471 0.045135
0.163452 0.743445 0.045184
0.240488 0.743404 0.045266
0.311305 0.743464 0.045382
0.379721 0.743393 0.045535
0.447005 0.743401 0.045728
0.513621 0.743299 0.045954
0.579803 0.743190 0.046234
0.645651 0.743120 0.046551
0.711389 0.742996 0.046917
0.781787 0.747598 0.047458
0.851176 0.750610 0.048014
0.916888 0.750400 0.048520
0.969679 0.740347 0.048762
-0.072534 0.816185 0.116063
-0.040090 0.816185 0.115814
0.046834 0.816631 0.046834
0.164642 0.816617 0.046877
0.242017 0.816597 0.046959
0.313212 0.816568 0.047070
0.382034 0.816531 0.047219
0.449663 0.816487 0.047414
0.516680 0.816468 0.047637
0.583251 0.816410 0.047909
0.649525 0.816348 0.048220
0.715624 0.816281 0.048581
0.781532 0.816292 0.048979
0.850942 0.819572 0.049523
0.916651 0.819301 0.050012
0.969473 0.808284 0.050201
-0.072545 0.888485 0.116739
-0.040125 0.888485 0.116365
0.048661 0.888889 0.048661
0.165540 0.888879 0.048704
0.243079 0.888863 0.048787
0.314482 0.888841 0.048892
0.383545 0.888812 0.049035
0.451425 0.888777 0.049218
0.518678 0.888737 0.049434
0.585496 0.888691 0.049700
0.652023 0.888716 0.050004
0.718377 0.888662 0.050340
0.784543 0.888605 0.050728
0.850813 0.888547 0.051166
0.916443 0.888289 0.051636
0.969308 0.876337 0.051761
-0.072561 0.956914 0.116742
-0.040156 0.956914 0.116365
0.050510 0.957262 0.050510
0.165799 0.957254 0.050551
0.243151 0.957241 0.050628
0.314449 0.957224 0.050731
0.383433 0.957201 0.050867
0.451270 0.957259 0.051041
0.518483 0.957226 0.051247
0.585264 0.957189 0.051495
0.651735 0.957146 0.051790
0.718177 0.957101 0.052117
0.784267 0.957054 0.052492
0.850436 0.957004 0.052904
0.916345 0.957040 0.053360
0.969189 0.944109 0.053425
-0.072572 1.011953 0.114705
-0.040188 1.011953 0.114705
0.086847 1.011953 0.086847
0.173865 1.011953 0.086847
0.245879 1.011953 0.086846
0.314262 1.011953 0.086846
0.381132 1.011953 0.086845
0.447303 1.011953 0.086844
0.513069 1.011953 0.086842
0.578568 1.011953 0.086841
0.643833 1.011953 0.086839
0.709087 1.011953 0.086836
0.774086 1.011953 0.086834
0.839215 1.011953 0.086831
0.904069 1.011953 0.086828
0.969028 1.011952 0.086824
-0.072469 -0.075681 0.149835
-0.055145 -0.075681 0.149835
0.086715 -0.075681 0.149835
0.149835 -0.075681 0.149835
0.214234 -0.075681 0.155621
0.281429 -0.075682 0.162152
0.351157 -0.075683 0.168256
0.422863 -0.075684 0.173736
0.496088 -0.075686 0.178506
0.568726 -0.075687 0.182046
0.640384 -0.075690 0.184630
0.711408 -0.075692 0.186533
0.781544 -0.075695 0.187934
0.850824 -0.075698 0.188856
0.916356 -0.075701 0.188866
0.969032 -0.075707 0.186135
-0.072469 -0.057586 0.149835
-0.039950 -0.041719 0.149835
0.090960 -0.041720 0.149835
0.149835 -0.041720 0.149835
0.214234 -0.041721 0.156901
0.281429 -0.041722 0.163506
0.351157 -0.041727 0.169398
0.422863 -0.041729 0.174556
0.496088 -0.041733 0.179008
0.568726 -0.041737 0.182323
0.640384 -0.041741 0.184719
0.711408 -0.041749 0.186498
0.781544 -0.041756 0.187813
0.850825 -0.041763 0.188661
0.916356 -0.041773 0.188674
0.969032 -0.041779 0.186135
-0.072470 0.090559 0.149835
-0.039951 0.094991 0.149835
0.080681 0.087343 0.172044
0.166341 0.074486 0.166341
0.234800 0.061337 0.160422
0.299772 0.052928 0.157143
0.366369 0.047988 0.156632
0.435355 0.045144 0.157636
0.506442 0.043555 0.159289
0.577427 0.042731 0.160724
0.647835 0.042377 0.161843
0.717896 0.042333 0.162734
0.787232 0.042503 0.163408
0.855849 0.042829 0.163848
0.920829 0.043258 0.163672
0.973266 0.043673 0.161447
-0.072471 0.156466 0.149834
-0.039955 0.156466 0.149834
0.053858 0.159530 0.151175
0.146861 0.157574 0.146861
0.235292 0.146989 0.135078
0.315597 0.131211 0.117634
0.387246 0.117825 0.103255
0.456466 0.108030 0.092679
0.526010 0.101219 0.085221
0.595081 0.096640 0.080151
0.663629 0.093541 0.076690
0.732016 0.091403 0.074298
0.799986 0.089926 0.072637
0.867302 0.088886 0.071497
0.931384 0.088212 0.070757
0.983013 0.087816 0.070352
-0.072473 0.223720 0.155620
-0.039957 0.223720 0.156901
0.044862 0.226384 0.147208
0.109613 0.231047 0.109613
0.212908 0.226168 0.104248
0.294080 0.224811 0.096891
0.369731 0.223545 0.090228
0.443426 0.222764 0.084695
0.516645 0.222537 0.080351
0.588327 0.222256 0.077151
0.658709 0.221951 0.074810
0.728400 0.221675 0.073103
0.797272 0.221383 0.071882
0.865239 0.221018 0.071029
0.929751 0.220107 0.070473
0.981709 0.216888 0.070174
-0.072477 0.293902 0.162151
-0.039964 0.293902 0.163504
0.041646 0.295918 0.148555
0.089283 0.300684 0.089283
0.202844 0.298497 0.087401
0.280902 0.295860 0.085162
0.358156 0.299531 0.081831
0.433805 0.302799 0.078892
0.508902 0.305765 0.076438
0.582234 0.307649 0.074527
0.653955 0.308755 0.073060
0.724692 0.309397 0.071952
