src/luts/Turquoise Delight.cube
LUT_3D_SIZE 6
-0.072469 -0.075680 -0.072469
0.149835 -0.075681 -0.072470
0.351157 -0.075683 -0.072472
0.568726 -0.075687 -0.072479
0.781544 -0.075695 -0.072487
0.969032 -0.075707 -0.072495
-0.072471 0.156466 -0.072471
0.149834 0.156466 -0.072471
0.351157 0.175714 -0.072475
0.568726 0.190099 -0.072475
0.781544 0.196260 -0.072490
0.969032 0.194358 -0.072498
-0.072475 0.366675 -0.072475
0.168253 0.366675 -0.072475
0.351156 0.366675 -0.072478
0.568725 0.393979 -0.072490
0.781544 0.405648 -0.072496
0.969032 0.402062 -0.072511
-0.072497 0.593882 -0.072497
0.182039 0.593882 -0.072498
0.377270 0.593882 -0.072501
0.568724 0.593882 -0.072508
0.781543 0.611311 -0.072521
0.969031 0.606000 -0.072529
-0.072534 0.816185 -0.072534
0.187919 0.816185 -0.072535
0.388462 0.816185 -0.072538
0.585390 0.816185 -0.072545
0.781542 0.816184 -0.072549
0.969030 0.809031 -0.072558
-0.072572 1.011953 -0.072572
0.186109 1.011953 -0.072572
0.385038 1.011953 -0.072576
0.580282 1.011953 -0.072582
0.774793 1.011953 -0.072587
0.969028 1.011952 -0.072605
-0.072469 -0.075681 0.149835
0.149835 -0.075681 0.149835
0.351157 -0.075683 0.168256
0.568726 -0.075687 0.182046
0.781544 -0.075695 0.187934
0.969032 -0.075707 0.186135
-0.072471 0.156466 0.149834
0.146861 0.157574 0.146861
0.387246 0.117825 0.103255
0.595081 0.096640 0.080151
0.799986 0.089926 0.072637
0.983013 0.087816 0.070352
-0.072475 0.366675 0.168253
0.079348 0.372193 0.079348
0.350871 0.368182 0.076638
0.577318 0.383636 0.072527
0.791506 0.388572 0.070505
0.978537 0.382174 0.069885
-0.072497 0.593882 0.182039
0.070331 0.596893 0.070331
0.361031 0.596043 0.070141
0.568638 0.594694 0.069928
0.785095 0.606965 0.069898
0.974044 0.598952 0.070188
-0.072534 0.816185 0.187919
0.070374 0.818124 0.070374
0.366489 0.817811 0.070490
0.578311 0.817287 0.070739
0.781495 0.816649 0.071188
0.970943 0.806904 0.071738
-0.072572 1.011953 0.186109
0.149796 1.011953 0.149796
0.374463 1.011953 0.149795
0.575626 1.011953 0.149793
0.772881 1.011953 0.149790
0.969028 1.011952 0.149785
-0.072470 -0.075681 0.351157
0.168256 -0.075682 0.351157
0.351157 -0.075683 0.351157
0.568726 -0.075688 0.377273
0.781544 -0.075696 0.388469
0.969032 -0.075708 0.385006
-0.072472 0.175714 0.351157
0.126631 0.139470 0.412307
0.381805 0.104946 0.381805
0.594734 0.083964 0.376063
0.800801 0.076268 0.373630
0.983998 0.073698 0.364938
-0.072476 0.366675 0.351156
0.078291 0.370636 0.353221
0.344171 0.369265 0.344171
0.635536 0.328675 0.298745
0.866420 0.283171 0.249547
0.994428 0.338092 0.318908
-0.072498 0.593882 0.377270
0.070258 0.596599 0.361373
0.232076 0.611129 0.232076
0.566668 0.599171 0.220426
0.811083 0.590391 0.206219
0.994009 0.578764 0.274398
-0.072535 0.816185 0.388462
0.070414 0.818004 0.366574
0.190386 0.829769 0.190386
0.539216 0.825501 0.187309
0.780802 0.819926 0.183300
0.984523 0.800827 0.180073
-0.072573 1.011953 0.385039
0.149796 1.011953 0.374463
0.351146 1.011953 0.351146
0.565794 1.011953 0.351145
0.769177 1.011953 0.351144
0.969028 1.011952 0.351143
-0.072473 -0.075683 0.568726
0.182048 -0.075683 0.568726
0.377274 -0.075685 0.568726
0.568726 -0.075690 0.568726
0.781544 -0.075697 0.585393
0.969032 -0.075710 0.580286
-0.072475 0.190101 0.568726
0.099413 0.114262 0.636856
0.388032 0.092519 0.612764
0.589453 0.081508 0.589453
0.798524 0.075605 0.589964
0.982880 0.073520 0.577344
-0.072480 0.393979 0.568725
0.075175 0.388061 0.583756
0.329508 0.356061 0.647838
0.629657 0.313012 0.629657
0.866413 0.264441 0.597222
0.994386 0.335327 0.563672
-0.072500 0.593882 0.568724
0.070141 0.596020 0.569936
0.227719 0.606666 0.573926
0.557430 0.598039 0.557430
0.851974 0.564502 0.520124
0.993925 0.580346 0.551195
-0.072538 0.816185 0.585391
0.070495 0.817802 0.578650
0.189280 0.828236 0.541185
0.430704 0.843203 0.430704
0.775797 0.825512 0.410359
0.992405 0.799302 0.495563
-0.072575 1.011953 0.580282
0.149795 1.011953 0.575626
0.351146 1.011953 0.565795
0.568720 1.011953 0.568720
0.770286 1.011953 0.568720
0.969028 1.011952 0.568719
-0.072477 -0.075685 0.781545
0.187937 -0.075686 0.781545
0.388470 -0.075688 0.781545
0.585393 -0.075693 0.781544
0.781544 -0.075699 0.781544
0.969032 -0.075712 0.774796
-0.072479 0.196264 0.781545
0.084422 0.100496 0.836874
0.385387 0.084198 0.824808
0.596444 0.078307 0.807242
0.795633 0.074795 0.795633
0.981450 0.073295 0.780265
-0.072488 0.405650 0.781544
0.073078 0.393616 0.801444
0.311769 0.338509 0.896083
0.618917 0.295501 0.890605
0.854439 0.254283 0.854439
0.994313 0.330644 0.782183
-0.072507 0.611312 0.781543
0.069931 0.609000 0.787662
0.220324 0.605018 0.829480
0.545601 0.587101 0.863365
0.845286 0.552461 0.845286
0.993806 0.577704 0.776931
-0.072542 0.816185 0.781542
0.070629 0.817549 0.782370
0.187645 0.825935 0.786607
0.423262 0.836842 0.786977
0.765981 0.821852 0.765981
0.991943 0.808817 0.765987
-0.072579 1.011953 0.774793
0.149794 1.011953 0.772881
0.351145 1.011953 0.769177
0.568720 1.011953 0.770287
0.781540 1.011953 0.781540
0.969028 1.011952 0.781539
-0.072475 -0.075689 0.969033
0.186141 -0.075689 0.969033
0.385008 -0.075691 0.969033
0.580287 -0.075696 0.969032
0.774797 -0.075702 0.969032
0.969032 -0.075716 0.969032
-0.072478 0.194364 0.969033
0.116741 0.126545 0.994666
0.374422 0.115441 0.994748
0.584623 0.083997 0.994670
0.784189 0.074128 0.986334
0.979644 0.073092 0.979644
-0.072493 0.402064 0.969032
0.071821 0.387094 0.990911
0.341620 0.358913 0.994634
0.570937 0.353305 0.994550
0.783982 0.342767 0.994498
0.994260 0.323319 0.994260
-0.072508 0.606001 0.969032
0.069872 0.601538 0.978244
0.314265 0.590551 0.994361
0.562495 0.590455 0.994267
0.779882 0.584537 0.994002
0.993725 0.573546 0.993725
-0.072545 0.809031 0.969030
0.070735 0.808139 0.972398
0.208221 0.809626 0.993546
0.527349 0.808290 0.993291
0.773990 0.815149 0.992677
0.991474 0.804491 0.991474
-0.072584 1.011953 0.969029
0.149792 1.011953 0.969029
0.351145 1.011953 0.969029
0.568720 1.011953 0.969028
0.781539 1.011952 0.969028
0.969028 1.011952 0.969028
