src/luts/Violet Night.cube
LUT_3D_SIZE 6
0.000000 0.000000 0.000000
0.181614 -0.000738 -0.000738
0.400824 -0.001628 -0.001628
0.636930 -0.002588 -0.002588
0.864027 -0.003511 -0.003511
1.061929 -0.004315 -0.004315
-0.001122 0.166556 -0.001122
0.181614 0.166555 -0.001277
0.400824 0.183790 -0.001938
0.636930 0.194670 -0.002788
0.864027 0.198075 -0.003650
1.061929 0.194737 -0.004416
-0.002476 0.367544 -0.002476
0.200418 0.367544 -0.002546
0.400823 0.367543 -0.002819
0.636930 0.389330 -0.003478
0.864026 0.396172 -0.004177
1.061929 0.389493 -0.004817
-0.003934 0.584079 -0.003934
0.212293 0.584078 -0.003977
0.424619 0.584078 -0.004152
0.636929 0.584078 -0.004480
0.864025 0.594334 -0.005030
1.061929 0.584277 -0.005514
-0.005336 0.792318 -0.005336
0.216000 0.792318 -0.005366
0.432020 0.792318 -0.005488
0.648068 0.792318 -0.005724
0.864024 0.792317 -0.006078
1.061928 0.778968 -0.006424
-0.006558 0.973790 -0.006558
0.212342 0.973790 -0.006580
0.424736 0.973790 -0.006669
0.637150 0.973789 -0.006844
0.849477 0.973789 -0.007111
1.061927 0.973788 -0.007469
-0.000471 -0.000471 0.181614
0.181614 -0.000834 0.181614
0.400824 -0.001671 0.200420
0.636930 -0.002614 0.212298
0.864027 -0.003528 0.216011
1.061929 -0.004327 0.212360
-0.001178 0.166556 0.181614
0.185621 0.164695 0.185621
0.433749 0.127861 0.154200
0.663620 0.100732 0.130994
0.883658 0.088666 0.121369
1.061929 0.166533 0.181602
-0.002500 0.367544 0.200418
0.120972 0.374450 0.120972
0.405833 0.367815 0.113287
0.651555 0.375752 0.102038
0.879434 0.374702 0.094925
1.061929 0.380595 0.181599
-0.003949 0.584078 0.212293
0.096402 0.588647 0.096402
0.408269 0.586937 0.094937
0.639760 0.584309 0.092734
0.871237 0.588709 0.090319
1.061929 0.580323 0.181593
-0.005347 0.792318 0.216000
0.089325 0.795516 0.089325
0.407686 0.794827 0.089040
0.641643 0.793836 0.088596
0.865945 0.792503 0.088188
1.061928 0.777393 0.181604
-0.006566 0.973790 0.212342
0.087992 0.976173 0.087992
0.397999 0.975877 0.087996
0.626655 0.975308 0.088037
0.846496 0.974719 0.088176
1.061927 0.973788 0.181591
-0.001038 -0.001038 0.400825
0.200420 -0.001249 0.400825
0.400824 -0.001840 0.400824
0.636930 -0.002721 0.424621
0.864027 -0.003603 0.432023
1.061929 -0.004381 0.424742
-0.001527 0.183770 0.400824
0.172984 0.149486 0.450496
0.426882 0.121080 0.426882
0.660750 0.098730 0.423210
0.882524 0.088025 0.418041
1.061929 0.166533 0.415084
-0.002600 0.367544 0.400823
0.117989 0.371848 0.410184
0.409659 0.363481 0.409659
0.693960 0.327979 0.380146
0.932900 0.290736 0.346694
1.061929 0.367579 0.400818
-0.004010 0.584078 0.424620
0.095867 0.588029 0.409127
0.329782 0.598518 0.329782
0.651700 0.583623 0.310416
0.907293 0.566821 0.287979
1.061929 0.574686 0.400816
-0.005389 0.792318 0.432020
0.089225 0.795280 0.407897
0.270819 0.807781 0.270819
0.615149 0.801229 0.263304
0.875376 0.792857 0.253515
1.061928 0.775261 0.400812
-0.006596 0.973790 0.424736
0.087992 0.976037 0.398051
0.240807 0.987221 0.240807
0.582079 0.983972 0.237439
0.836137 0.979581 0.232720
1.061927 0.973788 0.400806
-0.001650 -0.001650 0.636931
0.212300 -0.001787 0.636931
0.424622 -0.002254 0.636930
0.636930 -0.002923 0.636930
0.864026 -0.003748 0.648070
1.061929 -0.004489 0.637154
-0.001994 0.194672 0.636931
0.151301 0.124557 0.699096
0.433490 0.109011 0.675627
0.656144 0.095456 0.656144
0.880518 0.086892 0.652556
1.061929 0.166532 0.632855
-0.002952 0.389330 0.636930
0.110531 0.382976 0.662553
0.399989 0.351982 0.702875
0.687736 0.316572 0.687736
0.930475 0.279355 0.660227
1.061929 0.367578 0.626726
-0.004131 0.584078 0.636929
0.094894 0.586906 0.642574
0.322552 0.593045 0.661219
0.651011 0.577635 0.651011
0.920630 0.553519 0.628097
1.061929 0.584077 0.636928
-0.005473 0.792318 0.648068
0.089029 0.794807 0.642425
0.268133 0.805433 0.618908
0.581279 0.807471 0.581279
0.887805 0.789766 0.554657
1.061928 0.778876 0.636926
-0.006658 0.973790 0.637151
0.087997 0.975865 0.627000
0.239620 0.986027 0.583664
0.557634 0.989562 0.557634
0.823388 0.986438 0.500393
1.061927 0.973788 0.636924
-0.002238 -0.002238 0.864027
0.216015 -0.002334 0.864027
0.432024 -0.002693 0.864027
0.648071 -0.003266 0.864027
0.864026 -0.003965 0.864026
1.061929 -0.004653 0.849480
-0.002488 0.198080 0.864027
0.136425 0.107279 0.918788
0.429061 0.099534 0.903848
0.658523 0.091264 0.888487
0.877816 0.085457 0.877816
1.061929 0.166531 0.847829
-0.003292 0.396173 0.864027
0.104597 0.382703 0.895720
0.389311 0.344182 0.937949
0.670258 0.315688 0.935103
0.921801 0.270663 0.921801
1.061929 0.367578 0.845403
-0.004390 0.594335 0.864026
0.093272 0.592423 0.876642
0.312960 0.585808 0.929424
0.641806 0.570976 0.925513
0.917840 0.543516 0.917840
1.061929 0.584076 0.849371
-0.005603 0.792318 0.864025
0.088777 0.794227 0.867796
0.264126 0.801953 0.885098
0.571848 0.801471 0.898314
0.883107 0.783604 0.883107
1.061928 0.792317 0.864023
-0.006753 0.973790 0.849477
0.088010 0.975570 0.847270
0.237816 0.984395 0.840426
0.542697 0.988777 0.834758
0.833095 0.983904 0.833095
1.061927 0.973788 0.864022
-0.002751 -0.002751 1.061930
0.212367 -0.002821 1.061930
0.424744 -0.003095 1.061930
0.637155 -0.003566 1.061930
0.849480 -0.004176 1.061929
1.061929 -0.004873 1.061929
-0.002936 0.194745 1.061930
0.181610 0.166542 1.061930
0.415087 0.166541 1.061930
0.632856 0.166538 1.061930
0.847829 0.166534 1.061929
1.061929 0.166529 1.061929
-0.003588 0.389496 1.061930
0.181607 0.380598 1.061930
0.400821 0.367541 1.061930
0.626727 0.367541 1.061929
0.845404 0.367579 1.061929
1.061929 0.367577 1.061929
-0.004559 0.584278 1.061929
0.181601 0.580325 1.061929
0.400819 0.574688 1.061929
0.636928 0.584077 1.061929
0.849372 0.584077 1.061929
1.061928 0.584076 1.061928
-0.005685 0.778969 1.061929
0.181591 0.777394 1.061929
0.400815 0.775262 1.061929
0.636927 0.778877 1.061928
0.864024 0.792317 1.061928
1.061928 0.792316 1.061928
-0.006887 0.973789 1.061928
0.181599 0.973789 1.061928
0.400809 0.973789 1.061928
0.636925 0.973789 1.061927
0.864022 0.973788 1.061927
1.061927 0.973788 1.061927
