src/luts/Violet Night.cube
LUT_3D_SIZE 16
0.000000 0.000000 0.000000
0.055614 -0.000226 -0.000226
0.116309 -0.000473 -0.000473
0.181614 -0.000738 -0.000738
0.251344 -0.001021 -0.001021
0.324697 -0.001319 -0.001319
0.400824 -0.001628 -0.001628
0.478901 -0.001946 -0.001946
0.558258 -0.002268 -0.002268
0.636930 -0.002588 -0.002588
0.714375 -0.002902 -0.002902
0.790236 -0.003211 -0.003211
0.864027 -0.003511 -0.003511
0.935481 -0.003801 -0.003801
1.002841 -0.004075 -0.004075
1.061929 -0.004315 -0.004315
-0.000344 0.051002 -0.000344
0.055614 0.051002 -0.000391
0.116309 0.053329 -0.000562
0.181614 0.055517 -0.000795
0.251344 0.057621 -0.001062
0.324697 0.059550 -0.001350
0.400824 0.061262 -0.001653
0.478901 0.062734 -0.001966
0.558258 0.063979 -0.002285
0.636930 0.064886 -0.002603
0.714375 0.065497 -0.002916
0.790236 0.065858 -0.003222
0.864027 0.066010 -0.003521
0.935481 0.065951 -0.003810
1.002841 0.065660 -0.004082
1.061929 0.064882 -0.004322
-0.000718 0.106652 -0.000718
0.058155 0.106652 -0.000739
0.116308 0.106652 -0.000818
0.181614 0.111032 -0.000992
0.251344 0.115243 -0.001215
0.324697 0.119103 -0.001473
0.400824 0.122524 -0.001754
0.478901 0.125472 -0.002051
0.558258 0.127967 -0.002358
0.636930 0.129782 -0.002666
0.714375 0.131011 -0.002971
0.790236 0.131747 -0.003271
0.864027 0.132048 -0.003564
0.935481 0.131945 -0.003849
1.002841 0.131365 -0.004117
1.061929 0.129822 -0.004353
-0.001122 0.166556 -0.001122
0.060543 0.166556 -0.001134
0.121087 0.166556 -0.001184
0.181614 0.166555 -0.001277
0.251344 0.172853 -0.001463
0.324697 0.178643 -0.001686
0.400824 0.183790 -0.001938
0.478901 0.188209 -0.002210
0.558258 0.191967 -0.002497
0.636930 0.194670 -0.002788
0.714375 0.196511 -0.003079
0.790236 0.197610 -0.003367
0.864027 0.198075 -0.003650
0.935480 0.197920 -0.003926
1.002841 0.197068 -0.004187
1.061929 0.194737 -0.004416
-0.001552 0.230486 -0.001552
0.062834 0.230486 -0.001561
0.125674 0.230486 -0.001596
0.188505 0.230485 -0.001665
0.251343 0.230485 -0.001768
0.324697 0.238206 -0.001964
0.400824 0.245053 -0.002189
0.478901 0.250949 -0.002435
0.558258 0.255949 -0.002699
0.636930 0.259581 -0.002969
0.714375 0.262033 -0.003241
0.790235 0.263505 -0.003513
0.864026 0.264122 -0.003782
0.935480 0.263911 -0.004045
1.002841 0.262753 -0.004295
1.061929 0.259663 -0.004514
-0.002005 0.297757 -0.002005
0.064936 0.297757 -0.002012
0.129883 0.297757 -0.002039
0.194825 0.297757 -0.002093
0.259767 0.297757 -0.002174
0.324697 0.297756 -0.002284
0.400823 0.306304 -0.002488
0.478901 0.313706 -0.002712
0.558258 0.319920 -0.002953
0.636930 0.324480 -0.003202
0.714375 0.327543 -0.003453
0.790235 0.329376 -0.003707
0.864026 0.330146 -0.003959
0.935480 0.329891 -0.004206
1.002841 0.328423 -0.004443
1.061929 0.324590 -0.004648
-0.002476 0.367544 -0.002476
0.066798 0.367544 -0.002481
0.133613 0.367544 -0.002503
0.200418 0.367544 -0.002546
0.267227 0.367544 -0.002613
0.334037 0.367543 -0.002704
0.400823 0.367543 -0.002819
0.478900 0.376421 -0.003027
0.558257 0.383931 -0.003249
0.636930 0.389330 -0.003478
0.714375 0.393014 -0.003710
0.790235 0.395242 -0.003943
0.864026 0.396172 -0.004177
0.935480 0.395829 -0.004408
1.002841 0.394139 -0.004628
1.061929 0.389493 -0.004817
-0.002958 0.439141 -0.002958
0.068401 0.439141 -0.002962
0.136828 0.439141 -0.002980
0.205240 0.439141 -0.003016
0.273662 0.439141 -0.003072
0.342079 0.439141 -0.003150
0.410504 0.439141 -0.003249
0.478900 0.439140 -0.003368
0.558257 0.447899 -0.003576
0.636930 0.454270 -0.003788
0.714374 0.458547 -0.004001
0.790235 0.461117 -0.004217
0.864026 0.462200 -0.004432
0.935480 0.461839 -0.004645
1.002841 0.459801 -0.004848
1.061929 0.454405 -0.005021
-0.003448 0.511892 -0.003448
0.069765 0.511892 -0.003451
0.139551 0.511892 -0.003467
0.209311 0.511892 -0.003497
0.279113 0.511892 -0.003546
0.348906 0.511892 -0.003612
0.418628 0.511891 -0.003699
0.488423 0.511891 -0.003803
0.558257 0.511891 -0.003926
0.636929 0.519174 -0.004124
0.714374 0.524059 -0.004321
0.790235 0.526990 -0.004520
0.864026 0.528254 -0.004718
0.935480 0.527836 -0.004913
1.002841 0.525492 -0.005100
1.061929 0.519327 -0.005254
-0.003934 0.584079 -0.003934
0.070740 0.584078 -0.003937
0.141525 0.584078 -0.003950
0.212293 0.584078 -0.003977
0.283080 0.584078 -0.004018
0.353821 0.584078 -0.004077
0.424619 0.584078 -0.004152
0.495375 0.584078 -0.004245
0.566148 0.584078 -0.004354
0.636929 0.584078 -0.004480
0.714373 0.589587 -0.004664
0.790234 0.592901 -0.004848
0.864025 0.594334 -0.005030
0.935479 0.593820 -0.005208
1.002840 0.591217 -0.005378
1.061929 0.584277 -0.005514
-0.004412 0.655068 -0.004412
0.071406 0.655068 -0.004415
0.142860 0.655068 -0.004426
0.214292 0.655068 -0.004449
0.285745 0.655068 -0.004486
0.357196 0.655068 -0.004537
0.428612 0.655068 -0.004604
0.500041 0.655068 -0.004686
0.571515 0.655068 -0.004784
0.642935 0.655067 -0.004897
0.714373 0.655067 -0.005024
0.790234 0.658732 -0.005195
0.864025 0.660299 -0.005362
0.935479 0.659798 -0.005526
1.002840 0.656866 -0.005679
1.061929 0.649180 -0.005798
-0.004881 0.724703 -0.004881
0.071794 0.724703 -0.004883
0.143665 0.724703 -0.004894
0.215489 0.724702 -0.004914
0.287363 0.724702 -0.004946
0.359147 0.724702 -0.004991
0.431011 0.724702 -0.005051
0.502847 0.724702 -0.005124
0.574713 0.724702 -0.005212
0.646574 0.724702 -0.005314
0.718358 0.724702 -0.005429
0.790234 0.724701 -0.005559
0.864025 0.726403 -0.005713
0.935479 0.725862 -0.005862
1.002840 0.722571 -0.006000
1.061928 0.714152 -0.006103
-0.005336 0.792318 -0.005336
0.071957 0.792318 -0.005339
0.144001 0.792318 -0.005348
0.216000 0.792318 -0.005366
0.288024 0.792318 -0.005395
0.360013 0.792318 -0.005435
0.432020 0.792318 -0.005488
0.504038 0.792318 -0.005554
0.576074 0.792318 -0.005633
0.648068 0.792318 -0.005724
0.720101 0.792318 -0.005830
0.792177 0.792318 -0.005948
0.864024 0.792317 -0.006078
0.935478 0.791678 -0.006214
1.002840 0.788282 -0.006338
1.061928 0.778968 -0.006424
-0.005778 0.857785 -0.005778
0.071879 0.857785 -0.005780
0.143875 0.857785 -0.005787
0.215818 0.857785 -0.005803
0.287781 0.857785 -0.005829
0.359773 0.857785 -0.005865
0.431675 0.857785 -0.005913
0.503619 0.857785 -0.005972
0.575601 0.857785 -0.006043
0.647573 0.857784 -0.006127
0.719432 0.857784 -0.006223
0.791537 0.857784 -0.006330
0.863332 0.857784 -0.006449
0.935478 0.857784 -0.006580
1.002839 0.854028 -0.006691
1.061928 0.843982 -0.006761
-0.006194 0.919625 -0.006194
0.071553 0.919625 -0.006196
0.143240 0.919625 -0.006203
0.214887 0.919625 -0.006217
0.286535 0.919625 -0.006241
0.358155 0.919625 -0.006273
0.429801 0.919625 -0.006316
0.501419 0.919625 -0.006369
0.573080 0.919625 -0.006434
0.644722 0.919625 -0.006510
0.716289 0.919625 -0.006596
0.788032 0.919624 -0.006695
0.859591 0.919624 -0.006803
0.931358 0.919624 -0.006924
1.002839 0.919624 -0.007054
1.061927 0.908757 -0.007109
-0.006558 0.973790 -0.006558
0.070694 0.973790 -0.006561
0.141547 0.973790 -0.006567
0.212342 0.973790 -0.006580
0.283159 0.973790 -0.006601
0.353956 0.973790 -0.006630
0.424736 0.973790 -0.006669
0.495549 0.973790 -0.006717
0.566356 0.973790 -0.006775
0.637150 0.973789 -0.006844
0.707924 0.973789 -0.006922
0.778736 0.973789 -0.007012
0.849477 0.973789 -0.007111
0.920375 0.973789 -0.007221
0.991056 0.973789 -0.007340
1.061927 0.973788 -0.007469
-0.000144 -0.000144 0.055614
0.055614 -0.000255 0.055614
0.116309 -0.000485 0.058156
0.181614 -0.000745 0.060544
0.251344 -0.001026 0.062837
0.324697 -0.001323 0.064941
0.400824 -0.001632 0.066806
0.478901 -0.001948 0.068413
0.558258 -0.002270 0.069775
0.636930 -0.002590 0.070758
0.714375 -0.002904 0.071425
0.790236 -0.003212 0.071824
0.864027 -0.003512 0.071996
0.935481 -0.003802 0.071933
1.002841 -0.004076 0.071610
1.061929 -0.004315 0.070756
-0.000361 0.051002 0.055614
0.056841 0.050433 0.056841
0.126311 0.040226 0.048164
0.190262 0.031950 0.041022
0.257707 0.027653 0.037559
0.329404 0.025626 0.035997
0.404405 0.024827 0.035362
0.481698 0.024737 0.035227
0.560475 0.025097 0.035402
0.638781 0.025750 0.035780
0.715927 0.026602 0.036307
0.791541 0.027591 0.036942
0.865202 0.028672 0.037666
0.936362 0.029806 0.038442
1.002841 0.050948 0.055571
1.061929 0.050943 0.055568
-0.000725 0.106652 0.058155
0.038284 0.108820 0.038284
0.117935 0.106714 0.035823
0.186461 0.107618 0.032277
0.256343 0.109246 0.029574
0.329076 0.111412 0.027933
0.404478 0.113730 0.027140
0.481937 0.115963 0.026946
0.560747 0.117988 0.027174
0.639090 0.119522 0.027695
0.716104 0.120598 0.028420
0.791835 0.121293 0.029293
0.865457 0.121633 0.030266
0.936605 0.121643 0.031303
1.002841 0.126558 0.055570
1.061929 0.125233 0.055566
-0.001126 0.166556 0.060543
0.030329 0.168068 0.030329
0.116856 0.167488 0.029807
0.182574 0.166625 0.029010
0.253690 0.171371 0.027959
0.327381 0.175952 0.027261
0.403422 0.180164 0.026961
0.481249 0.183944 0.027023
0.560308 0.187240 0.027378
0.638771 0.189652 0.027964
0.715969 0.191308 0.028719
0.791659 0.192278 0.029601
0.865318 0.192716 0.030572
0.936567 0.192558 0.031600
1.002841 0.194412 0.055567
1.061929 0.192213 0.055563
-0.001555 0.230486 0.062834
0.027584 0.231501 0.027584
0.118832 0.231310 0.027474
0.186762 0.230967 0.027298
0.251955 0.230547 0.027109
0.326036 0.237370 0.026952
0.402459 0.243508 0.027008
0.480545 0.248858 0.027283
0.559836 0.253435 0.027765
0.638423 0.256763 0.028417
0.715678 0.259005 0.029200
0.791532 0.260331 0.030088
0.865186 0.260867 0.031053
0.936409 0.260612 0.032066
1.002841 0.261044 0.055569
1.061929 0.258025 0.055562
-0.002008 0.297757 0.064936
0.026946 0.298493 0.026946
0.121704 0.298399 0.026945
0.191620 0.298239 0.026958
0.258863 0.298031 0.027000
0.325124 0.297808 0.027094
0.401692 0.305768 0.027372
0.479959 0.312676 0.027800
0.559355 0.318562 0.028379
0.638039 0.322821 0.029083
0.715445 0.325682 0.029888
0.791293 0.327359 0.030778
0.864963 0.328043 0.031729
0.936319 0.327711 0.032720
1.002841 0.327223 0.055562
1.061929 0.323424 0.055556
-0.002477 0.367544 0.066798
0.027358 0.368112 0.027358
0.124669 0.368054 0.027395
0.196384 0.367975 0.027470
0.265414 0.367848 0.027598
0.333497 0.367736 0.027788
0.401143 0.367587 0.028051
0.479473 0.376035 0.028584
0.558914 0.383220 0.029235
0.637728 0.388400 0.029975
0.715075 0.391874 0.030788
0.791049 0.393960 0.031672
0.864793 0.394785 0.032603
0.936117 0.394376 0.033563
1.002841 0.393205 0.055557
1.061929 0.388648 0.055554
-0.002959 0.439141 0.068401
0.028407 0.439550 0.028407
0.127426 0.439526 0.028456
0.200704 0.439512 0.028553
0.271273 0.439443 0.028713
0.340914 0.439355 0.028937
0.410152 0.439265 0.029239
0.479124 0.439167 0.029620
0.558657 0.447600 0.030321
0.637444 0.453753 0.031083
0.714967 0.457855 0.031900
0.790901 0.460287 0.032766
0.864692 0.461272 0.033667
0.935992 0.460809 0.034593
1.002841 0.459141 0.055552
1.061929 0.453753 0.055550
-0.003449 0.511892 0.069765
0.029888 0.512224 0.029888
0.129905 0.512209 0.029940
0.204474 0.512178 0.030045
0.276342 0.512126 0.030212
0.347325 0.512098 0.030447
0.417860 0.512026 0.030759
0.488197 0.511996 0.031149
0.558390 0.511914 0.031616
0.637243 0.518963 0.032393
0.714759 0.523683 0.033206
0.790721 0.526512 0.034049
0.864497 0.527603 0.034919
0.935921 0.527137 0.035801
1.002841 0.524995 0.055545
1.061929 0.518822 0.055536
-0.003935 0.584079 0.070740
0.031653 0.584324 0.031653
0.131809 0.584316 0.031704
0.207299 0.584302 0.031807
0.280091 0.584291 0.031971
0.352010 0.584262 0.032204
0.423527 0.584227 0.032510
0.494822 0.584187 0.032890
0.565994 0.584124 0.033347
0.637074 0.584080 0.033883
0.714583 0.589448 0.034685
0.790552 0.592619 0.035505
0.864372 0.593904 0.036338
0.935762 0.593331 0.037174
1.002840 0.590850 0.055532
1.061929 0.583890 0.055524
-0.004413 0.655068 0.071406
0.033599 0.655282 0.033599
0.133208 0.655277 0.033649
0.209255 0.655267 0.033748
0.282663 0.655251 0.033906
0.355208 0.655271 0.034128
0.427334 0.655210 0.034419
0.499269 0.655180 0.034783
0.571101 0.655147 0.035221
0.642810 0.655113 0.035734
0.714464 0.655079 0.036321
0.790438 0.658642 0.037110
0.864237 0.660096 0.037911
0.935701 0.659471 0.038695
1.002840 0.656611 0.055520
1.061929 0.648894 0.055515
-0.004882 0.724703 0.071794
0.035668 0.724813 0.035668
0.134186 0.724808 0.035714
0.210494 0.724797 0.035808
0.284244 0.724781 0.035954
0.357113 0.724799 0.036163
0.429623 0.724772 0.036435
0.501921 0.724740 0.036781
0.574143 0.724704 0.037192
0.646290 0.724666 0.037676
0.718337 0.724628 0.038234
0.790335 0.724590 0.038862
0.864190 0.726322 0.039619
0.935589 0.725644 0.040357
1.002840 0.722329 0.055509
1.061928 0.713862 0.055502
-0.005338 0.792318 0.071957
0.037793 0.792481 0.037793
0.134791 0.792479 0.037841
0.211089 0.792473 0.037926
0.284930 0.792465 0.038064
0.357960 0.792454 0.038257
0.430567 0.792440 0.038512
0.503043 0.792424 0.038836
0.575399 0.792406 0.039222
0.647648 0.792386 0.039676
0.719869 0.792366 0.040202
0.792094 0.792345 0.040788
0.864109 0.792325 0.041444
0.935503 0.791604 0.042131
1.002840 0.788139 0.055491
1.061928 0.778786 0.055491
-0.005778 0.857785 0.071879
0.039943 0.857925 0.039943
0.135033 0.857923 0.039985
0.211084 0.857919 0.040064
0.284791 0.857913 0.040190
0.357659 0.857905 0.040374
0.430197 0.857895 0.040608
0.502567 0.857882 0.040903
0.574867 0.857868 0.041267
0.647066 0.857853 0.041688
0.719164 0.857837 0.042175
0.791346 0.857821 0.042727
0.863261 0.857805 0.043343
0.935472 0.857790 0.044018
1.002839 0.853956 0.055473
1.061928 0.843907 0.055467
-0.006194 0.919625 0.071553
0.042036 0.919682 0.042036
0.134848 0.919680 0.042071
0.210351 0.919677 0.042147
0.283615 0.919673 0.042265
0.356126 0.919667 0.042436
0.428321 0.919659 0.042656
0.500367 0.919649 0.042929
0.572311 0.919636 0.043261
0.644151 0.919625 0.043652
0.715990 0.919612 0.044109
0.787749 0.919667 0.044616
0.859467 0.919654 0.045191
0.931297 0.919642 0.045826
1.002839 0.919624 0.055451
1.061927 0.908756 0.055453
-0.006559 0.973790 0.070694
0.043917 0.973893 0.043917
0.133728 0.973892 0.043949
0.208110 0.973890 0.044019
0.280431 0.973886 0.044129
0.352036 0.973881 0.044281
0.423337 0.973875 0.044478
0.494488 0.973868 0.044732
0.565557 0.973859 0.045038
0.636572 0.973850 0.045400
0.707532 0.973840 0.045817
0.778494 0.973830 0.046293
0.849342 0.973820 0.046824
0.920291 0.973810 0.047409
0.991003 0.973800 0.048046
1.061927 0.973788 0.055433
-0.000301 -0.000301 0.116309
0.058156 -0.000362 0.116309
0.116309 -0.000534 0.116309
0.181614 -0.000776 0.121088
0.251344 -0.001048 0.125675
0.324697 -0.001340 0.129886
0.400824 -0.001645 0.133615
0.478901 -0.001959 0.136831
0.558258 -0.002280 0.139556
0.636930 -0.002598 0.141532
0.714375 -0.002911 0.142874
0.790236 -0.003218 0.143671
0.864027 -0.003517 0.144011
0.935481 -0.003807 0.143893
1.002841 -0.004080 0.143260
1.061929 -0.004319 0.141579
-0.000443 0.053329 0.116309
0.053543 0.046481 0.130445
0.124344 0.038177 0.124344
0.189364 0.031294 0.121764
0.257342 0.027439 0.122226
0.329238 0.025557 0.124163
0.404350 0.024812 0.126544
0.481669 0.024744 0.128905
0.560435 0.025112 0.131057
0.638795 0.025768 0.132689
0.715908 0.026622 0.133826
0.791531 0.027613 0.134546
0.865194 0.028691 0.134899
0.936356 0.029825 0.134875
1.002841 0.050948 0.138013
1.061929 0.050943 0.136567
-0.000754 0.106652 0.116308
0.037337 0.108002 0.119296
0.118868 0.105470 0.118868
0.197667 0.095826 0.110838
0.272381 0.082760 0.099518
0.344614 0.072441 0.090533
0.418148 0.065056 0.084335
0.493593 0.059998 0.080250
0.570697 0.056607 0.077597
0.647612 0.054415 0.075908
0.723525 0.053042 0.074850
0.798377 0.052228 0.074203
0.871266 0.051810 0.073847
0.941916 0.051673 0.073685
1.002841 0.106635 0.116289
1.061929 0.106632 0.116286
-0.001143 0.166556 0.121088
0.030139 0.167853 0.117131
0.096809 0.170635 0.096809
0.185933 0.166393 0.091224
0.263868 0.164778 0.083436
0.339849 0.163527 0.076204
0.415954 0.163058 0.070252
0.492960 0.163260 0.065696
0.570934 0.163899 0.062362
0.648305 0.164416 0.060038
0.724483 0.164690 0.058460
0.799412 0.164724 0.057425
0.872276 0.164496 0.056794
0.942957 0.163925 0.056462
1.002841 0.184466 0.116288
1.061929 0.182848 0.116285
-0.001567 0.230486 0.125674
0.027544 0.231446 0.118897
0.078464 0.234957 0.078464
0.178835 0.233055 0.076288
0.254627 0.230618 0.073457
0.332426 0.233780 0.069428
0.410366 0.236730 0.065851
0.488879 0.239461 0.062909
0.567976 0.241954 0.060626
0.646134 0.243695 0.058967
0.722929 0.244733 0.057815
0.798170 0.245164 0.057056
0.871455 0.245036 0.056604
0.942223 0.244309 0.056389
1.002841 0.254748 0.116286
1.061929 0.252062 0.116284
-0.002017 0.297757 0.129884
0.026945 0.298444 0.121724
0.068035 0.301471 0.068035
0.176483 0.300575 0.067127
0.254932 0.299344 0.065860
0.327137 0.297942 0.064380
0.405909 0.303518 0.062268
0.485309 0.308388 0.060466
0.565168 0.312573 0.059016
0.643975 0.315467 0.057941
0.721207 0.317236 0.057189
0.796864 0.318082 0.056702
0.870385 0.318100 0.056438
0.941433 0.317267 0.056347
1.002841 0.322839 0.116285
1.061929 0.319242 0.116282
-0.002485 0.367544 0.133613
0.027371 0.368092 0.124677
0.062127 0.370525 0.062127
0.176744 0.370101 0.061726
0.257172 0.369416 0.061150
0.331273 0.368622 0.060444
0.402715 0.367737 0.059677
0.482483 0.374483 0.058611
0.562764 0.380207 0.057750
0.642010 0.384277 0.057119
0.719567 0.386792 0.056693
0.795534 0.388032 0.056445
0.869258 0.388259 0.056350
0.940517 0.387389 0.056383
1.002841 0.390003 0.116282
1.061929 0.385526 0.116288
-0.002966 0.439141 0.136828
0.028424 0.439542 0.127427
0.058837 0.441557 0.058837
0.178135 0.441302 0.058661
0.260176 0.440939 0.058404
0.335798 0.440448 0.058081
0.408756 0.439897 0.057723
0.480362 0.439281 0.057360
0.560912 0.446492 0.056898
0.640318 0.451581 0.056586
0.718241 0.454820 0.056406
0.794317 0.456552 0.056346
0.868220 0.456945 0.056393
0.939678 0.456011 0.056528
1.002841 0.456720 0.116288
1.061929 0.451414 0.116285
-0.003454 0.511892 0.139551
0.029906 0.512219 0.129901
0.057131 0.513881 0.057131
0.179891 0.513720 0.057060
0.263297 0.513500 0.056958
0.340159 0.513178 0.056832
0.414388 0.512826 0.056693
0.487293 0.512418 0.056560
0.559384 0.511984 0.056447
0.638992 0.518131 0.056357
0.716967 0.522064 0.056358
0.793291 0.524220 0.056443
0.867271 0.524807 0.056594
0.938769 0.523876 0.056809
1.002841 0.523202 0.116284
1.061929 0.517031 0.116281
-0.003940 0.584078 0.141525
0.031671 0.584321 0.131811
0.056437 0.585732 0.056437
0.181368 0.585639 0.056419
0.265710 0.585484 0.056395
0.343437 0.585304 0.056372
0.418572 0.585058 0.056352
0.492382 0.584782 0.056348
0.565409 0.584491 0.056369
0.637897 0.584178 0.056423
0.715983 0.588803 0.056550
0.792321 0.591347 0.056736
0.866475 0.592138 0.056968
0.938064 0.591171 0.057240
1.002840 0.589483 0.116279
1.061929 0.582513 0.116277
-0.004417 0.655068 0.142860
0.033617 0.655281 0.133204
0.056393 0.656484 0.056393
0.182421 0.656415 0.056403
0.267350 0.656337 0.056423
0.345627 0.656158 0.056454
0.421304 0.656021 0.056501
0.495674 0.655806 0.056570
0.569332 0.655616 0.056667
0.642426 0.655403 0.056798
0.715113 0.655154 0.056971
0.791563 0.658130 0.057229
0.865735 0.659062 0.057517
0.937409 0.658080 0.057830
1.002840 0.655613 0.116274
1.061929 0.647851 0.116272
-0.004885 0.724703 0.143665
0.035685 0.724811 0.134182
0.056790 0.725899 0.056790
0.183054 0.725826 0.056816
0.268263 0.725835 0.056857
0.346814 0.725760 0.056919
0.422816 0.725645 0.057001
0.497498 0.725490 0.057113
0.571481 0.725307 0.057256
0.644945 0.725186 0.057434
0.718073 0.724964 0.057649
0.790950 0.724692 0.057906
0.865183 0.725883 0.058235
0.936837 0.724791 0.058574
1.002840 0.721825 0.116267
1.061928 0.713164 0.116265
-0.005340 0.792318 0.144001
0.037810 0.792480 0.134786
0.057491 0.793461 0.057491
0.183325 0.793423 0.057524
0.268537 0.793384 0.057577
0.347148 0.793303 0.057653
0.423205 0.793199 0.057758
0.497956 0.793076 0.057892
0.572053 0.792961 0.058056
0.645607 0.792865 0.058262
0.718874 0.792718 0.058502
0.791937 0.792543 0.058782
0.864722 0.792391 0.059111
0.936347 0.791326 0.059465
1.002840 0.787663 0.116260
1.061928 0.778268 0.116258
-0.005781 0.857785 0.143875
0.039958 0.857925 0.135029
0.058397 0.858726 0.058397
0.183152 0.858753 0.058436
0.268111 0.858706 0.058494
0.346540 0.858642 0.058581
0.422424 0.858559 0.058694
0.497045 0.858460 0.058840
0.571001 0.858402 0.059019
0.644442 0.858274 0.059235
0.717621 0.858191 0.059486
0.790561 0.858104 0.059781
0.863272 0.858008 0.060118
0.935939 0.857854 0.060496
1.002839 0.853750 0.116252
1.061928 0.843591 0.116250
-0.006197 0.919625 0.143240
0.042048 0.919681 0.134844
0.059429 0.920470 0.059429
0.182455 0.920446 0.059469
0.266846 0.920409 0.059529
0.344800 0.920357 0.059619
0.420301 0.920289 0.059736
0.494502 0.920274 0.059886
0.568060 0.920179 0.060069
0.641156 0.920073 0.060287
0.713839 0.920055 0.060543
0.786511 0.919929 0.060838
0.858811 0.919897 0.061172
0.931262 0.919762 0.061551
1.002839 0.919624 0.116252
1.061927 0.908588 0.116251
-0.006562 0.973790 0.141547
0.043928 0.973893 0.133724
0.060450 0.974522 0.060450
0.180544 0.974503 0.060487
0.263732 0.974472 0.060550
0.340657 0.974526 0.060638
0.415158 0.974471 0.060756
0.488450 0.974403 0.060901
0.561092 0.974322 0.061082
0.633279 0.974329 0.061295
0.705099 0.974230 0.061542
0.776861 0.974123 0.061832
0.848336 0.974106 0.062158
0.919896 0.973998 0.062523
0.991035 0.973878 0.062930
1.061927 0.973788 0.116241
-0.000471 -0.000471 0.181614
0.060545 -0.000510 0.181614
0.121088 -0.000643 0.181614
0.181614 -0.000834 0.181614
0.251344 -0.001090 0.188505
0.324697 -0.001373 0.194827
0.400824 -0.001671 0.200420
0.478901 -0.001981 0.205243
0.558258 -0.002298 0.209315
0.636930 -0.002614 0.212298
0.714375 -0.002925 0.214299
0.790236 -0.003231 0.215498
0.864027 -0.003528 0.216011
0.935481 -0.003816 0.215832
1.002841 -0.004089 0.214888
1.061929 -0.004327 0.212360
-0.000569 0.055518 0.181614
0.047453 0.039420 0.200705
0.124979 0.034616 0.193947
0.187920 0.030207 0.187920
0.256670 0.027055 0.190295
0.328917 0.025430 0.194040
0.404168 0.024783 0.198121
0.481554 0.024756 0.202005
0.560415 0.025145 0.205449
0.638757 0.025810 0.208057
0.715868 0.026665 0.209800
0.791602 0.027654 0.210850
0.865179 0.028733 0.211278
0.936344 0.029867 0.211107
1.002841 0.050953 0.212010
1.061929 0.050943 0.209612
-0.000842 0.111032 0.181614
0.035120 0.109968 0.189946
0.116229 0.102338 0.200120
0.196032 0.092609 0.196032
0.270601 0.080953 0.191923
0.343440 0.071469 0.188519
0.417420 0.064533 0.186970
0.493123 0.059710 0.186763
0.570403 0.056448 0.187315
0.647408 0.054328 0.187847
0.723509 0.052995 0.188204
0.798263 0.052200 0.188294
0.871240 0.051800 0.188121
0.941844 0.051671 0.187557
1.002841 0.106635 0.201171
1.061929 0.106632 0.199385
-0.001178 0.166556 0.181614
0.029793 0.167482 0.183484
0.094733 0.169078 0.188656
0.185621 0.164695 0.185621
0.270721 0.155641 0.178052
0.354688 0.141421 0.166124
0.433749 0.127861 0.154200
0.510817 0.116573 0.144345
0.587674 0.107593 0.136687
0.663620 0.100732 0.130994
0.738420 0.095541 0.126793
0.811916 0.091611 0.123680
0.883658 0.088666 0.121369
0.953326 0.086432 0.119655
1.002841 0.166535 0.181603
1.061929 0.166533 0.181602
-0.001592 0.230486 0.188505
0.027470 0.231302 0.187037
0.077683 0.234271 0.179912
0.163691 0.235182 0.163691
0.258180 0.229824 0.155773
0.344044 0.226172 0.145298
0.426253 0.222151 0.134965
0.506464 0.218517 0.125618
0.585707 0.215647 0.117598
0.663253 0.213174 0.111097
0.739167 0.210959 0.105903
0.813389 0.208937 0.101790
0.885549 0.207000 0.098557
0.955419 0.204933 0.096039
1.002841 0.244056 0.181603
1.061929 0.242238 0.181601
-0.002036 0.297757 0.194826
0.026945 0.298396 0.191701
0.067717 0.301154 0.176902
0.138230 0.304903 0.138230
0.246345 0.301651 0.134241
0.330876 0.297795 0.129458
0.414713 0.298791 0.122898
0.496863 0.299445 0.116694
0.577982 0.299902 0.111128
0.657178 0.299726 0.106426
0.734318 0.299020 0.102534
0.809565 0.297908 0.099355
0.882540 0.296388 0.096781
0.953065 0.294390 0.094733
1.002841 0.315557 0.181602
1.061929 0.312485 0.181600
-0.002500 0.367544 0.200418
0.027396 0.368052 0.196421
0.061987 0.370398 0.176918
0.120972 0.374450 0.120972
0.238771 0.372643 0.118883
0.326586 0.370346 0.116258
0.405833 0.367815 0.113287
0.489010 0.371369 0.109161
0.571281 0.374204 0.105351
0.651555 0.375752 0.102038
